;FLAVOR:Marlin
;TIME:8183
;Filament used: 0.815683m, 0m
;Layer height: 0.1
;MINX:65.201
;MINY:114.203
;MINZ:0.2
;MAXX:114.799
;MAXY:139.799
;MAXZ:5.5
;Generated with Cura_SteamEngine 4.12.1
T0
M140 S40
M105
M190 S40
M104 S145
M105
M109 S145
M82 ;absolute extrusion mode
M605 S0 ; set x-carriage mode to independent control
T0 ; Switch to left extruder
G28 ; home all axes
G1 X210 Y40 Z0.1 F10000 ; go to wait position
G92 E0 ; reset extrusion distance
G1 X195 F5000 ; scrape off any ooze from heating
G1 Z7 ; move the bed down to avoid collision
G1 X40 Y6 F10000 ; move toolhead to the unused front edge
G1 Z0.20 F1000 ; move bed to prime start position
G1 X160 F1000 ; prime the nozzle
G1 X170 Z0.05 F5000 ; quick wipe
G1 Z7 ; move the bed down
G1 X-25 F5000 ; move T0 to home position
T1 ; switch to T1
G1 X210 Y40 Z0.1 F10000 ; go to wait position
G92 E0 ; reset extrusion distance
G1 X195 F5000 ; scrape off any ooze from heating
G1 Z7 ; move the bed down to avoid collision
G1 X40 Y7 F10000 ; move toolhead to the unused front edge
G1 Z0.20 F1000 ; move bed to prime start position
G1 X160 F1000 ; prime the nozzle
G1 X170 Z0.05 F5000 ; quick wipe
G1 Z7 ; move the bed down
G28 X ; home T1 toolhead
G92 E0
T1
G1 X250 F18000 ; park T1
T0
G1 X-25 F18000 ; maker sure T0 is parked
G92 E0
G1 F600 E-1
;LAYER_COUNT:54
;LAYER:0
M107
G0 F3600 X71.039 Y116.259 Z0.2
;TYPE:SKIRT
G1 F600 E0
G1 F300 X71.667 Y115.876 E0.02691
G1 X71.776 Y115.815 E0.03148
G1 X72.434 Y115.474 E0.0586
G1 X72.545 Y115.421 E0.0631
G1 X73.206 Y115.134 E0.08946
G1 X73.309 Y115.093 E0.09352
G1 X74.02 Y114.835 E0.12119
G1 X74.144 Y114.795 E0.12596
G1 X74.855 Y114.594 E0.15299
G1 X74.969 Y114.566 E0.15728
G1 X75.699 Y114.41 E0.18459
G1 X75.82 Y114.388 E0.18909
G1 X76.547 Y114.284 E0.21596
G1 X76.666 Y114.271 E0.22034
G1 X77.407 Y114.215 E0.24753
G1 X77.526 Y114.21 E0.25189
G1 X78.258 Y114.203 E0.27867
G1 X78.38 Y114.206 E0.28313
G1 X79.117 Y114.249 E0.31014
G1 X79.24 Y114.261 E0.31467
G1 X79.975 Y114.355 E0.34178
G1 X80.094 Y114.374 E0.34618
G1 X80.827 Y114.518 E0.37351
G1 X80.943 Y114.545 E0.37787
G1 X81.657 Y114.735 E0.4049
G1 X81.772 Y114.769 E0.40929
G1 X82.465 Y115.004 E0.43606
G1 X82.582 Y115.049 E0.44065
G1 X83.27 Y115.337 E0.46794
G1 X83.377 Y115.386 E0.47224
G1 X84.038 Y115.715 E0.49926
G1 X84.148 Y115.774 E0.50382
G1 X84.779 Y116.145 E0.5306
G1 X84.876 Y116.206 E0.5348
G1 X85.489 Y116.621 E0.56188
G1 X85.59 Y116.695 E0.56646
G1 X86.171 Y117.15 E0.59346
G1 X86.261 Y117.225 E0.59775
G1 X86.811 Y117.717 E0.62474
G1 X86.902 Y117.805 E0.62938
G1 X87.418 Y118.336 E0.65647
G1 X87.504 Y118.427 E0.66105
G1 X87.978 Y118.983 E0.68778
G1 X88.056 Y119.082 E0.69239
G1 X88.499 Y119.682 E0.71967
G1 X88.565 Y119.778 E0.72394
G1 X88.961 Y120.394 E0.75073
G1 X89.023 Y120.498 E0.75516
G1 X89.384 Y121.153 E0.78252
G1 X89.438 Y121.259 E0.78687
G1 X89.747 Y121.919 E0.81354
G1 X89.796 Y122.032 E0.81804
G1 X90 Y122.56 E0.83875
G1 X90.201 Y122.039 E0.85918
G1 X90.252 Y121.919 E0.86395
G1 X90.567 Y121.249 E0.89104
G1 X90.62 Y121.146 E0.89528
G1 X90.976 Y120.5 E0.92226
G1 X91.038 Y120.396 E0.92669
G1 X91.435 Y119.778 E0.95357
G1 X91.508 Y119.668 E0.9584
G1 X91.95 Y119.075 E0.98546
G1 X92.023 Y118.983 E0.98975
G1 X92.498 Y118.426 E1.01654
G1 X92.578 Y118.338 E1.02089
G1 X93.097 Y117.805 E1.0481
G1 X93.185 Y117.721 E1.05256
G1 X93.736 Y117.227 E1.07963
G1 X93.83 Y117.149 E1.0841
G1 X94.416 Y116.691 E1.11131
G1 X94.514 Y116.619 E1.11576
G1 X95.122 Y116.207 E1.14263
G1 X95.222 Y116.144 E1.14695
G1 X95.859 Y115.771 E1.17396
G1 X95.966 Y115.713 E1.17841
G1 X96.628 Y115.383 E1.20548
G1 X96.739 Y115.332 E1.20994
G1 X97.426 Y115.046 E1.23717
G1 X97.538 Y115.004 E1.24155
G1 X98.232 Y114.768 E1.26837
G1 X98.351 Y114.732 E1.27291
G1 X99.065 Y114.543 E1.29994
G1 X99.179 Y114.517 E1.30421
G1 X99.906 Y114.374 E1.33132
G1 X100.029 Y114.354 E1.33588
G1 X100.769 Y114.261 E1.36317
G1 X100.886 Y114.25 E1.36747
G1 X101.624 Y114.206 E1.39452
G1 X101.748 Y114.203 E1.39905
G1 X102.48 Y114.21 E1.42584
G1 X102.6 Y114.215 E1.43023
G1 X103.336 Y114.271 E1.45724
G1 X103.455 Y114.284 E1.46162
G1 X104.187 Y114.389 E1.48867
G1 X104.307 Y114.411 E1.49313
G1 X105.037 Y114.567 E1.52044
G1 X105.154 Y114.596 E1.52485
G1 X105.864 Y114.798 E1.55186
G1 X105.981 Y114.835 E1.55635
G1 X106.67 Y115.083 E1.58314
G1 X106.779 Y115.127 E1.58744
G1 X107.463 Y115.425 E1.61474
G1 X107.572 Y115.477 E1.61916
G1 X108.224 Y115.815 E1.64603
G1 X108.333 Y115.876 E1.6506
G1 X108.969 Y116.264 E1.67785
G1 X109.068 Y116.329 E1.68219
G1 X109.666 Y116.75 E1.70894
G1 X109.765 Y116.825 E1.71349
G1 X110.342 Y117.294 E1.74069
G1 X110.428 Y117.369 E1.74487
G1 X110.966 Y117.866 E1.77166
G1 X111.056 Y117.954 E1.77627
G1 X111.569 Y118.499 E1.80365
G1 X111.648 Y118.589 E1.80803
G1 X112.114 Y119.155 E1.83486
G1 X112.188 Y119.252 E1.83932
G1 X112.62 Y119.856 E1.86649
G1 X112.687 Y119.957 E1.87092
G1 X113.072 Y120.58 E1.89772
G1 X113.131 Y120.682 E1.90203
G1 X113.478 Y121.336 E1.92912
G1 X113.532 Y121.446 E1.9336
G1 X113.833 Y122.12 E1.9606
G1 X113.877 Y122.23 E1.96494
G1 X114.133 Y122.923 E1.99197
G1 X114.173 Y123.042 E1.99656
G1 X114.38 Y123.75 E2.02355
G1 X114.409 Y123.864 E2.02785
G1 X114.57 Y124.588 E2.05499
G1 X114.592 Y124.706 E2.05938
G1 X114.704 Y125.436 E2.0864
G1 X114.719 Y125.558 E2.0909
G1 X114.781 Y126.295 E2.11796
G1 X114.787 Y126.417 E2.12243
G1 X114.799 Y127.156 E2.14947
G1 X114.797 Y127.277 E2.15389
G1 X114.759 Y128.022 E2.18119
G1 X114.749 Y128.142 E2.18559
G1 X114.663 Y128.868 E2.21234
G1 X114.645 Y128.986 E2.21671
G1 X114.509 Y129.716 E2.24387
G1 X114.482 Y129.836 E2.24837
G1 X114.298 Y130.549 E2.27531
G1 X114.264 Y130.665 E2.27974
G1 X114.032 Y131.366 E2.30675
G1 X113.991 Y131.478 E2.31111
G1 X113.713 Y132.162 E2.33813
G1 X113.665 Y132.268 E2.34238
G1 X113.346 Y132.927 E2.36917
G1 X113.073 Y133.419 E2.38976
G1 X112.687 Y134.045 E2.41666
G1 X112.619 Y134.148 E2.42118
G1 X112.188 Y134.75 E2.44827
G1 X112.112 Y134.849 E2.45283
G1 X111.641 Y135.419 E2.47989
G1 X111.564 Y135.506 E2.48414
G1 X111.053 Y136.049 E2.51142
G1 X110.964 Y136.137 E2.516
G1 X110.424 Y136.636 E2.5429
G1 X110.336 Y136.712 E2.54715
G1 X109.764 Y137.176 E2.5741
G1 X109.666 Y137.25 E2.57859
G1 X109.062 Y137.675 E2.60561
G1 X108.963 Y137.74 E2.60994
G1 X108.333 Y138.124 E2.63694
G1 X108.224 Y138.185 E2.64151
G1 X107.566 Y138.526 E2.66862
G1 X107.455 Y138.579 E2.67312
G1 X106.794 Y138.866 E2.69949
G1 X106.691 Y138.907 E2.70354
G1 X105.98 Y139.165 E2.73121
G1 X105.856 Y139.205 E2.73598
G1 X105.145 Y139.406 E2.76301
G1 X105.032 Y139.434 E2.76727
G1 X104.303 Y139.59 E2.79455
G1 X104.181 Y139.612 E2.79908
G1 X103.453 Y139.716 E2.82599
G1 X103.334 Y139.729 E2.83037
G1 X102.593 Y139.785 E2.85756
G1 X102.474 Y139.79 E2.86191
G1 X101.742 Y139.797 E2.88869
G1 X101.62 Y139.794 E2.89316
G1 X100.883 Y139.751 E2.92017
G1 X100.759 Y139.739 E2.92473
G1 X100.019 Y139.644 E2.95202
G1 X99.901 Y139.625 E2.9564
G1 X99.173 Y139.482 E2.98354
G1 X99.057 Y139.455 E2.9879
G1 X98.343 Y139.265 E3.01493
G1 X98.228 Y139.231 E3.01932
G1 X97.535 Y138.996 E3.04609
G1 X97.418 Y138.951 E3.05067
G1 X96.73 Y138.663 E3.07796
G1 X96.623 Y138.614 E3.08227
G1 X95.96 Y138.284 E3.10936
G1 X95.85 Y138.225 E3.11393
G1 X95.214 Y137.851 E3.14092
G1 X95.116 Y137.789 E3.14517
G1 X94.51 Y137.378 E3.17196
G1 X94.411 Y137.306 E3.17643
G1 X93.823 Y136.846 E3.20375
G1 X93.729 Y136.767 E3.20824
G1 X93.181 Y136.275 E3.23518
G1 X93.094 Y136.192 E3.23958
G1 X92.577 Y135.661 E3.2667
G1 X92.499 Y135.574 E3.27097
G1 X92.023 Y135.017 E3.29778
G1 X91.943 Y134.917 E3.30246
G1 X91.501 Y134.318 E3.3297
G1 X91.435 Y134.222 E3.33396
G1 X91.034 Y133.598 E3.3611
G1 X90.971 Y133.493 E3.36558
G1 X90.615 Y132.846 E3.3926
G1 X90.56 Y132.738 E3.39703
G1 X90.249 Y132.07 E3.42399
G1 X90.203 Y131.96 E3.42835
G1 X90 Y131.437 E3.44888
G1 X89.799 Y131.961 E3.46941
G1 X89.748 Y132.081 E3.47418
G1 X89.433 Y132.751 E3.50127
G1 X89.38 Y132.854 E3.50551
G1 X89.024 Y133.5 E3.53249
G1 X88.965 Y133.6 E3.53674
G1 X88.567 Y134.223 E3.56379
G1 X88.494 Y134.329 E3.5685
G1 X88.052 Y134.923 E3.59559
G1 X87.977 Y135.016 E3.59996
G1 X87.501 Y135.574 E3.62679
G1 X87.422 Y135.662 E3.63112
G1 X86.903 Y136.195 E3.65833
G1 X86.815 Y136.279 E3.66279
G1 X86.264 Y136.773 E3.68986
G1 X86.17 Y136.851 E3.69433
G1 X85.584 Y137.309 E3.72154
G1 X85.486 Y137.381 E3.72599
G1 X84.878 Y137.793 E3.75286
G1 X84.78 Y137.855 E3.7571
G1 X84.15 Y138.225 E3.78383
G1 X83.64 Y138.489 E3.80484
G1 X82.978 Y138.791 E3.83146
G1 X82.867 Y138.837 E3.83586
G1 X82.168 Y139.101 E3.8632
G1 X82.053 Y139.14 E3.86764
G1 X81.352 Y139.352 E3.89443
G1 X81.235 Y139.383 E3.89886
G1 X80.509 Y139.55 E3.92612
G1 X80.393 Y139.573 E3.93044
G1 X79.671 Y139.69 E3.9572
G1 X79.551 Y139.705 E3.96163
G1 X78.813 Y139.774 E3.98875
G1 X78.689 Y139.781 E3.99329
G1 X77.95 Y139.799 E4.02034
G1 X77.829 Y139.798 E4.02476
G1 X77.082 Y139.766 E4.05212
G1 X76.96 Y139.757 E4.05659
G1 X76.233 Y139.676 E4.08336
G1 X76.118 Y139.659 E4.08761
G1 X75.39 Y139.53 E4.11466
G1 X75.268 Y139.504 E4.11922
G1 X74.547 Y139.324 E4.14641
G1 X74.433 Y139.292 E4.15074
G1 X73.735 Y139.068 E4.17756
G1 X73.619 Y139.026 E4.18208
G1 X72.924 Y138.749 E4.20945
G1 X72.815 Y138.702 E4.21379
G1 X72.15 Y138.385 E4.24074
G1 X72.041 Y138.328 E4.24525
G1 X71.397 Y137.965 E4.27229
G1 X71.297 Y137.904 E4.27658
G1 X70.683 Y137.503 E4.30341
G1 X70.58 Y137.43 E4.30803
G1 X69.985 Y136.979 E4.33534
G1 X69.895 Y136.907 E4.33956
G1 X69.343 Y136.43 E4.36625
G1 X69.249 Y136.341 E4.37099
G1 X68.722 Y135.819 E4.39812
G1 X68.637 Y135.728 E4.40268
G1 X68.15 Y135.174 E4.42967
G1 X68.073 Y135.08 E4.43411
G1 X67.629 Y134.5 E4.46084
G1 X67.561 Y134.405 E4.46511
G1 X67.146 Y133.783 E4.49247
G1 X67.082 Y133.68 E4.4969
G1 X66.715 Y133.041 E4.52386
G1 X66.657 Y132.931 E4.52841
G1 X66.333 Y132.264 E4.55554
G1 X66.284 Y132.155 E4.55992
G1 X66.007 Y131.473 E4.58685
G1 X65.966 Y131.36 E4.59124
G1 X65.734 Y130.657 E4.61833
G1 X65.699 Y130.539 E4.62283
G1 X65.516 Y129.823 E4.64987
G1 X65.491 Y129.708 E4.65418
G1 X65.355 Y128.98 E4.68127
G1 X65.336 Y128.861 E4.68568
G1 X65.25 Y128.135 E4.71243
G1 X65.24 Y128.013 E4.71691
G1 X65.203 Y127.275 E4.74394
G1 X65.201 Y127.156 E4.74829
G1 X65.213 Y126.419 E4.77526
G1 X65.219 Y126.298 E4.77969
G1 X65.281 Y125.559 E4.80683
G1 X65.296 Y125.436 E4.81136
G1 X65.408 Y124.706 E4.83838
G1 X65.43 Y124.59 E4.8427
G1 X65.59 Y123.867 E4.86979
G1 X65.62 Y123.748 E4.87428
G1 X65.828 Y123.041 E4.90124
G1 X65.866 Y122.927 E4.90564
G1 X66.124 Y122.227 E4.93294
G1 X66.17 Y122.114 E4.9374
G1 X66.472 Y121.439 E4.96445
G1 X66.525 Y121.331 E4.96886
G1 X66.867 Y120.686 E4.99557
G1 X66.925 Y120.584 E4.99986
G1 X67.313 Y119.955 E5.0269
G1 X67.381 Y119.852 E5.03141
G1 X67.812 Y119.25 E5.0585
G1 X67.888 Y119.151 E5.06307
G1 X68.359 Y118.581 E5.09012
G1 X68.436 Y118.494 E5.09437
G1 X68.947 Y117.951 E5.12165
G1 X69.036 Y117.863 E5.12623
G1 X69.576 Y117.364 E5.15313
G1 X69.664 Y117.288 E5.15738
G1 X70.236 Y116.824 E5.18433
G1 X70.335 Y116.749 E5.18887
G1 X70.941 Y116.323 E5.21598
G1 X71.039 Y116.259 E5.22026
G0 F3600 X71.247 Y116.601
G1 F300 X71.875 Y116.218 E5.24717
G1 X71.96 Y116.17 E5.25074
G1 X72.618 Y115.829 E5.27786
G1 X72.704 Y115.788 E5.28134
G1 X73.365 Y115.501 E5.30771
G1 X73.445 Y115.469 E5.31086
G1 X74.156 Y115.211 E5.33853
G1 X74.253 Y115.18 E5.34226
G1 X74.964 Y114.979 E5.36929
G1 X75.052 Y114.957 E5.37261
G1 X75.782 Y114.801 E5.39992
G1 X75.877 Y114.784 E5.40345
G1 X76.604 Y114.68 E5.43032
G1 X76.696 Y114.67 E5.4337
G1 X77.437 Y114.614 E5.46089
G1 X77.53 Y114.61 E5.4643
G1 X78.262 Y114.603 E5.49108
G1 X78.357 Y114.605 E5.49456
G1 X79.094 Y114.648 E5.52157
G1 X79.19 Y114.657 E5.52509
G1 X79.925 Y114.751 E5.5522
G1 X80.017 Y114.766 E5.55561
G1 X80.75 Y114.91 E5.58294
G1 X80.84 Y114.931 E5.58632
G1 X81.554 Y115.121 E5.61336
G1 X81.644 Y115.148 E5.61679
G1 X82.337 Y115.383 E5.64357
G1 X82.428 Y115.418 E5.64713
G1 X83.116 Y115.706 E5.67442
G1 X83.199 Y115.744 E5.67776
G1 X83.86 Y116.073 E5.70477
G1 X83.946 Y116.119 E5.70834
G1 X84.577 Y116.49 E5.73512
G1 X84.652 Y116.538 E5.73838
G1 X85.265 Y116.953 E5.76546
G1 X85.343 Y117.01 E5.769
G1 X85.924 Y117.465 E5.796
G1 X85.994 Y117.524 E5.79935
G1 X86.544 Y118.016 E5.82635
G1 X86.615 Y118.083 E5.82992
G1 X87.131 Y118.614 E5.85701
G1 X87.199 Y118.687 E5.86066
G1 X87.673 Y119.243 E5.88739
G1 X87.734 Y119.319 E5.89095
G1 X88.177 Y119.919 E5.91824
G1 X88.229 Y119.994 E5.92158
G1 X88.625 Y120.61 E5.94837
G1 X88.673 Y120.691 E5.95182
G1 X89.034 Y121.346 E5.97918
G1 X89.076 Y121.428 E5.98255
G1 X89.385 Y122.088 E6.00921
G1 X89.423 Y122.177 E6.01275
G1 X89.69 Y122.867 E6.03982
G1 X89.721 Y122.956 E6.04327
G1 X89.941 Y123.663 E6.07036
G1 X90 Y123.896 E6.07915
G1 X90.06 Y123.662 E6.08799
G1 X90.28 Y122.957 E6.11501
G1 X90.309 Y122.871 E6.11833
G1 X90.574 Y122.182 E6.14534
G1 X90.614 Y122.089 E6.14904
G1 X90.929 Y121.419 E6.17613
G1 X90.97 Y121.339 E6.17942
G1 X91.326 Y120.693 E6.2064
G1 X91.374 Y120.612 E6.20985
G1 X91.771 Y119.994 E6.23672
G1 X91.829 Y119.907 E6.24055
G1 X92.271 Y119.314 E6.26761
G1 X92.328 Y119.243 E6.27094
G1 X92.803 Y118.686 E6.29772
G1 X92.865 Y118.617 E6.30111
G1 X93.384 Y118.084 E6.32833
G1 X93.452 Y118.019 E6.33177
G1 X94.003 Y117.525 E6.35885
G1 X94.076 Y117.464 E6.36233
G1 X94.662 Y117.006 E6.38954
G1 X94.739 Y116.95 E6.39302
G1 X95.347 Y116.538 E6.41989
G1 X95.425 Y116.489 E6.42326
G1 X96.062 Y116.116 E6.45027
G1 X96.144 Y116.071 E6.45369
G1 X96.806 Y115.741 E6.48075
G1 X96.893 Y115.702 E6.48424
G1 X97.58 Y115.416 E6.51147
G1 X97.667 Y115.383 E6.51487
G1 X98.361 Y115.147 E6.54169
G1 X98.454 Y115.119 E6.54525
G1 X99.168 Y114.93 E6.57227
G1 X99.256 Y114.909 E6.57558
G1 X99.983 Y114.766 E6.60269
G1 X100.078 Y114.751 E6.6062
G1 X100.818 Y114.658 E6.63349
G1 X100.91 Y114.649 E6.63687
G1 X101.648 Y114.605 E6.66392
G1 X101.744 Y114.603 E6.66743
G1 X102.476 Y114.61 E6.69422
G1 X102.569 Y114.614 E6.69762
G1 X103.305 Y114.67 E6.72463
G1 X103.398 Y114.68 E6.72805
G1 X104.13 Y114.785 E6.7551
G1 X104.224 Y114.802 E6.7586
G1 X104.954 Y114.958 E6.78591
G1 X105.044 Y114.98 E6.7893
G1 X105.754 Y115.182 E6.81631
G1 X105.845 Y115.212 E6.81981
G1 X106.534 Y115.46 E6.8466
G1 X106.619 Y115.494 E6.84995
G1 X107.303 Y115.792 E6.87725
G1 X107.388 Y115.832 E6.88069
G1 X108.04 Y116.17 E6.90756
G1 X108.125 Y116.218 E6.91113
G1 X108.761 Y116.606 E6.93838
G1 X108.838 Y116.656 E6.94174
G1 X109.436 Y117.077 E6.9685
G1 X109.513 Y117.136 E6.97205
G1 X110.09 Y117.605 E6.99925
G1 X110.157 Y117.663 E7.0025
G1 X110.695 Y118.16 E7.02929
G1 X110.764 Y118.228 E7.03284
G1 X111.277 Y118.773 E7.06022
G1 X111.339 Y118.843 E7.06364
G1 X111.805 Y119.409 E7.09046
G1 X111.863 Y119.485 E7.09396
G1 X112.295 Y120.089 E7.12113
G1 X112.347 Y120.167 E7.12456
G1 X112.732 Y120.79 E7.15135
G1 X112.778 Y120.87 E7.15473
G1 X113.125 Y121.524 E7.18182
G1 X113.166 Y121.609 E7.18527
G1 X113.467 Y122.283 E7.21228
G1 X113.502 Y122.369 E7.21567
G1 X113.758 Y123.062 E7.2427
G1 X113.789 Y123.154 E7.24625
G1 X113.996 Y123.862 E7.27324
G1 X114.019 Y123.951 E7.2766
G1 X114.18 Y124.675 E7.30374
G1 X114.197 Y124.767 E7.30716
G1 X114.309 Y125.497 E7.33418
G1 X114.32 Y125.592 E7.33768
G1 X114.382 Y126.329 E7.36474
G1 X114.387 Y126.423 E7.36819
G1 X114.399 Y127.162 E7.39523
G1 X114.397 Y127.256 E7.39867
G1 X114.359 Y128.001 E7.42596
G1 X114.351 Y128.095 E7.42941
G1 X114.265 Y128.821 E7.45616
G1 X114.251 Y128.912 E7.45953
G1 X114.115 Y129.642 E7.48669
G1 X114.095 Y129.736 E7.49021
G1 X113.911 Y130.449 E7.51715
G1 X113.884 Y130.539 E7.52059
G1 X113.652 Y131.24 E7.5476
G1 X113.62 Y131.327 E7.55099
G1 X113.342 Y132.011 E7.57801
G1 X113.305 Y132.094 E7.58133
G1 X112.986 Y132.753 E7.60812
G1 X112.733 Y133.209 E7.6272
G1 X112.347 Y133.835 E7.6541
G1 X112.293 Y133.915 E7.65764
G1 X111.862 Y134.517 E7.68472
G1 X111.803 Y134.594 E7.68827
G1 X111.332 Y135.164 E7.71532
G1 X111.273 Y135.231 E7.71859
G1 X110.762 Y135.774 E7.74587
G1 X110.692 Y135.843 E7.74947
G1 X110.152 Y136.342 E7.77637
G1 X110.084 Y136.401 E7.77966
G1 X109.512 Y136.865 E7.80661
G1 X109.436 Y136.923 E7.81011
G1 X108.832 Y137.348 E7.83713
G1 X108.755 Y137.398 E7.84048
G1 X108.125 Y137.782 E7.86748
