;FLAVOR:Marlin
;TIME:437
;Filament used: 0m, 0.0413769m
;Layer height: 0.1
;MINX:84.334
;MINY:121.328
;MINZ:0.2
;MAXX:95.671
;MAXY:132.663
;MAXZ:5.5
;Generated with Cura_SteamEngine 4.12.1
T1
M140 S40
M105
M190 S40
M104 S145
M105
M109 S145
M82 ;absolute extrusion mode
M605 S0 ; set x-carriage mode to independent control
T0 ; Switch to left extruder
G28 ; home all axes
G1 X210 Y40 Z0.1 F10000 ; go to wait position
G92 E0 ; reset extrusion distance
G1 X195 F5000 ; scrape off any ooze from heating
G1 Z7 ; move the bed down to avoid collision
G1 X40 Y6 F10000 ; move toolhead to the unused front edge
G1 Z0.20 F1000 ; move bed to prime start position
G1 X160 F1000 ; prime the nozzle
G1 X170 Z0.05 F5000 ; quick wipe
G1 Z7 ; move the bed down
G1 X-25 F5000 ; move T0 to home position
T1 ; switch to T1
G1 X210 Y40 Z0.1 F10000 ; go to wait position
G92 E0 ; reset extrusion distance
G1 X195 F5000 ; scrape off any ooze from heating
G1 Z7 ; move the bed down to avoid collision
G1 X40 Y7 F10000 ; move toolhead to the unused front edge
G1 Z0.20 F1000 ; move bed to prime start position
G1 X160 F1000 ; prime the nozzle
G1 X170 Z0.05 F5000 ; quick wipe
G1 Z7 ; move the bed down
G28 X ; home T1 toolhead
G92 E0
T0
G1 X-25 F18000 ; park T0
T1
G1 X250 F18000 ; park T1 and start
G92 E0
G1 F600 E-1
;LAYER_COUNT:54
;LAYER:0
M107
G0 F3600 X86.447 Y122.578 Z0.2
;TYPE:SKIRT
G1 F600 E0
G1 F300 X87.05 Y122.156 E0.02356
G1 X87.278 Y122.024 E0.032
G1 X87.731 Y121.801 E0.04816
G1 X88.449 Y121.544 E0.07257
G1 X89.186 Y121.387 E0.0967
G1 X89.933 Y121.328 E0.12068
G1 X90.2 Y121.331 E0.12923
G1 X90.703 Y121.372 E0.14539
G1 X91.445 Y121.515 E0.16958
G1 X92.138 Y121.746 E0.19296
G1 X92.383 Y121.852 E0.20151
G1 X92.843 Y122.091 E0.2181
G1 X93.468 Y122.512 E0.24223
G1 X94.032 Y123.01 E0.26631
G1 X94.527 Y123.582 E0.29053
G1 X94.94 Y124.212 E0.31465
G1 X95.267 Y124.895 E0.33889
G1 X95.361 Y125.147 E0.3475
G1 X95.504 Y125.628 E0.36356
G1 X95.636 Y126.36 E0.38737
G1 X95.671 Y127.119 E0.4117
G1 X95.659 Y127.389 E0.42035
G1 X95.59 Y127.957 E0.43867
G1 X95.521 Y128.297 E0.44977
G1 X95.362 Y128.852 E0.46825
G1 X95.062 Y129.56 E0.49287
G1 X94.689 Y130.191 E0.51633
G1 X94.535 Y130.407 E0.52483
G1 X94.209 Y130.803 E0.54125
G1 X93.662 Y131.332 E0.56561
G1 X93.057 Y131.778 E0.58967
G1 X92.524 Y132.083 E0.60933
G1 X91.906 Y132.342 E0.63078
G1 X91.183 Y132.547 E0.65484
G1 X90.434 Y132.655 E0.67906
G1 X89.675 Y132.663 E0.70336
G1 X88.922 Y132.569 E0.72765
G1 X88.433 Y132.451 E0.74376
G1 X87.729 Y132.198 E0.76771
G1 X87.062 Y131.852 E0.79176
G1 X86.836 Y131.708 E0.80034
G1 X86.433 Y131.411 E0.81637
G1 X85.872 Y130.891 E0.84085
G1 X85.395 Y130.311 E0.86489
G1 X84.994 Y129.666 E0.88921
G1 X84.686 Y128.982 E0.91322
G1 X84.468 Y128.253 E0.93758
G1 X84.351 Y127.51 E0.96166
G1 X84.334 Y126.745 E0.98615
G1 X84.352 Y126.482 E0.99459
G1 X84.432 Y125.929 E1.01248
G1 X84.51 Y125.581 E1.0239
G1 X84.682 Y125.025 E1.04253
G1 X84.983 Y124.354 E1.06607
G1 X85.118 Y124.112 E1.07494
G1 X85.405 Y123.673 E1.09173
G1 X85.869 Y123.113 E1.11502
G1 X86.057 Y122.922 E1.12359
G1 X86.447 Y122.578 E1.14024
G0 F3600 X86.659 Y122.856
G1 F300 X87.225 Y122.458 E1.16239
G1 X87.863 Y122.125 E1.18543
G1 X88.536 Y121.883 E1.20833
G1 X89.228 Y121.734 E1.23099
G1 X89.929 Y121.678 E1.2535
G1 X90.652 Y121.718 E1.27668
G1 X91.348 Y121.851 E1.29937
G1 X91.999 Y122.067 E1.32132
G1 X92.66 Y122.389 E1.34486
G1 X93.248 Y122.783 E1.36752
G1 X93.777 Y123.251 E1.39013
G1 X94.243 Y123.787 E1.41287
G1 X94.631 Y124.377 E1.43547
G1 X94.939 Y125.017 E1.45821
G1 X95.163 Y125.704 E1.48134
G1 X95.288 Y126.391 E1.5037
G1 X95.322 Y127.104 E1.52655
G1 X95.31 Y127.374 E1.5352
G1 X95.247 Y127.887 E1.55175
G1 X95.178 Y128.227 E1.56285
G1 X95.034 Y128.729 E1.57957
G1 X94.753 Y129.394 E1.60268
G1 X94.404 Y129.988 E1.62474
G1 X93.955 Y130.562 E1.64807
G1 X93.443 Y131.059 E1.67091
G1 X92.876 Y131.479 E1.6935
G1 X92.372 Y131.767 E1.71208
G1 X91.78 Y132.015 E1.73263
G1 X91.102 Y132.206 E1.75518
G1 X90.399 Y132.307 E1.77791
G1 X89.687 Y132.313 E1.80071
G1 X88.98 Y132.224 E1.82352
G1 X88.283 Y132.038 E1.84661
G1 X87.636 Y131.768 E1.86906
G1 X87.024 Y131.413 E1.89171
G1 X86.454 Y130.97 E1.91482
G1 X85.956 Y130.46 E1.93764
G1 X85.533 Y129.893 E1.96028
G1 X85.187 Y129.27 E1.98309
G1 X84.929 Y128.616 E2.0056
G1 X84.759 Y127.921 E2.02851
G1 X84.682 Y127.219 E2.05111
G1 X84.701 Y126.506 E2.07395
G1 X84.773 Y126.006 E2.09012
G1 X84.851 Y125.658 E2.10154
G1 X85.007 Y125.155 E2.1184
G1 X85.288 Y124.524 E2.14051
G1 X85.684 Y123.885 E2.16457
G1 X86.118 Y123.359 E2.1864
G1 X86.659 Y122.856 E2.21005
G0 F3600 X87.087 Y122.971
G1 F300 X87.628 Y122.629 E2.23054
G1 X88.245 Y122.347 E2.25226
G1 X88.883 Y122.155 E2.27359
G1 X89.534 Y122.05 E2.2947
G1 X89.925 Y122.028 E2.30723
G1 X90.6 Y122.064 E2.32887
G1 X91.251 Y122.188 E2.35009
G1 X91.86 Y122.389 E2.37062
G1 X92.478 Y122.688 E2.3926
G1 X93.027 Y123.055 E2.41374
G1 X93.522 Y123.491 E2.43485
G1 X93.959 Y123.991 E2.45611
G1 X94.322 Y124.542 E2.47724
G1 X94.611 Y125.139 E2.49847
G1 X94.821 Y125.781 E2.52009
G1 X94.939 Y126.423 E2.54099
G1 X94.972 Y127.088 E2.5623
G1 X94.904 Y127.818 E2.58577
G1 X94.706 Y128.607 E2.61182
G1 X94.445 Y129.229 E2.63341
G1 X94.119 Y129.785 E2.65404
G1 X93.701 Y130.322 E2.67583
G1 X93.223 Y130.787 E2.69718
G1 X92.694 Y131.18 E2.71827
G1 X92.219 Y131.452 E2.7358
G1 X91.655 Y131.688 E2.75537
G1 X91.021 Y131.866 E2.77645
G1 X90.363 Y131.959 E2.79772
G1 X89.699 Y131.963 E2.81898
G1 X89.039 Y131.879 E2.84028
G1 X88.387 Y131.704 E2.86189
G1 X87.783 Y131.451 E2.88285
G1 X87.212 Y131.118 E2.90401
G1 X86.681 Y130.703 E2.92559
G1 X86.216 Y130.226 E2.94691
G1 X85.822 Y129.695 E2.96808
G1 X85.499 Y129.113 E2.98939
G1 X85.26 Y128.501 E3.01042
G1 X85.102 Y127.852 E3.03181
G1 X85.032 Y127.195 E3.05296
G1 X85.05 Y126.53 E3.07425
G1 X85.193 Y125.734 E3.10014
G1 X85.428 Y125.043 E3.12351
G1 X85.729 Y124.453 E3.14471
G1 X86.123 Y123.886 E3.16682
G1 X86.556 Y123.413 E3.18734
G1 X87.087 Y122.971 E3.20946
G0 F3600 X87.299 Y123.249
G1 F300 X87.804 Y122.932 E3.22855
G1 X88.377 Y122.672 E3.24869
G1 X88.971 Y122.494 E3.26854
G1 X89.576 Y122.397 E3.28816
G1 X89.921 Y122.378 E3.29922
G1 X90.548 Y122.41 E3.31932
G1 X91.154 Y122.524 E3.33906
G1 X91.721 Y122.71 E3.35816
G1 X92.295 Y122.986 E3.37855
G1 X92.806 Y123.327 E3.39822
G1 X93.268 Y123.731 E3.41786
G1 X93.675 Y124.196 E3.43765
G1 X94.014 Y124.707 E3.45728
G1 X94.283 Y125.262 E3.47702
G1 X94.48 Y125.857 E3.49709
G1 X94.59 Y126.454 E3.51652
G1 X94.622 Y127.073 E3.53636
G1 X94.561 Y127.748 E3.55806
G1 X94.378 Y128.485 E3.58237
G1 X94.136 Y129.063 E3.60243
G1 X93.834 Y129.582 E3.62165
G1 X93.447 Y130.081 E3.64187
G1 X93.004 Y130.514 E3.6617
G1 X92.512 Y130.881 E3.68135
G1 X92.067 Y131.137 E3.69778
G1 X91.53 Y131.361 E3.71641
G1 X90.94 Y131.525 E3.73601
G1 X90.328 Y131.611 E3.7558
G1 X89.711 Y131.613 E3.77555
G1 X89.097 Y131.533 E3.79537
G1 X88.492 Y131.37 E3.81543
G1 X87.931 Y131.133 E3.83493
G1 X87.4 Y130.823 E3.85461
G1 X86.907 Y130.436 E3.87467
G1 X86.476 Y129.992 E3.89448
G1 X86.111 Y129.498 E3.91415
G1 X85.812 Y128.956 E3.93396
G1 X85.591 Y128.387 E3.9535
G1 X85.445 Y127.783 E3.9734
G1 X85.381 Y127.172 E3.99306
G1 X85.399 Y126.554 E4.01285
G1 X85.535 Y125.811 E4.03704
G1 X85.753 Y125.173 E4.05862
G1 X86.035 Y124.623 E4.07841
G1 X86.401 Y124.099 E4.09887
G1 X86.805 Y123.659 E4.11799
G1 X87.299 Y123.249 E4.13854
G0 F3600 X87.296 Y123.691
G1 F300 X87.751 Y123.367 E4.15642
G1 X88.26 Y123.098 E4.17485
G1 X88.799 Y122.9 E4.19324
G1 X89.354 Y122.777 E4.21143
G1 X89.918 Y122.728 E4.22956
G1 X90.496 Y122.756 E4.24808
G1 X91.057 Y122.86 E4.26635
G1 X91.582 Y123.031 E4.28402
G1 X92.112 Y123.285 E4.30284
G1 X92.586 Y123.598 E4.32102
G1 X93.013 Y123.971 E4.33917
G1 X93.391 Y124.4 E4.35748
G1 X93.705 Y124.872 E4.37562
G1 X93.956 Y125.384 E4.39388
G1 X94.138 Y125.934 E4.41242
G1 X94.242 Y126.486 E4.43041
G1 X94.273 Y127.057 E4.44871
G1 X94.218 Y127.678 E4.46867
G1 X94.05 Y128.362 E4.49122
G1 X93.828 Y128.898 E4.50979
G1 X93.549 Y129.379 E4.52759
G1 X93.193 Y129.84 E4.54624
G1 X92.784 Y130.241 E4.56457
G1 X92.33 Y130.582 E4.58275
G1 X91.828 Y130.864 E4.60118
G1 X91.119 Y131.123 E4.62535
G1 X90.56 Y131.235 E4.6436
G1 X89.986 Y131.273 E4.66201
G1 X89.422 Y131.233 E4.68012
G1 X88.852 Y131.116 E4.69874
G1 X88.319 Y130.928 E4.71684
G1 X87.815 Y130.672 E4.73493
G1 X87.339 Y130.343 E4.75346
G1 X86.914 Y129.955 E4.77188
G1 X86.551 Y129.521 E4.78999
G1 X86.245 Y129.038 E4.8083
G1 X86.008 Y128.523 E4.82644
G1 X85.841 Y127.976 E4.84475
G1 X85.748 Y127.416 E4.86293
G1 X85.73 Y126.841 E4.88134
G1 X85.798 Y126.235 E4.90086
G1 X85.983 Y125.543 E4.92379
G1 X86.205 Y125.036 E4.94151
G1 X86.518 Y124.522 E4.96078
G1 X86.867 Y124.095 E4.97843
G1 X87.296 Y123.691 E4.9973
G0 F3600 X87.509 Y123.969
G1 F300 X87.927 Y123.67 E5.01375
G1 X88.392 Y123.422 E5.03062
G1 X88.887 Y123.238 E5.04753
G1 X89.396 Y123.124 E5.06422
G1 X89.914 Y123.078 E5.08087
G1 X90.444 Y123.102 E5.09786
G1 X90.96 Y123.196 E5.11465
G1 X91.443 Y123.352 E5.1309
G1 X91.929 Y123.583 E5.14812
G1 X92.365 Y123.87 E5.16483
G1 X92.759 Y124.212 E5.18153
G1 X93.106 Y124.605 E5.19832
G1 X93.396 Y125.036 E5.21495
G1 X93.628 Y125.506 E5.23173
G1 X93.796 Y126.01 E5.24873
G1 X93.893 Y126.517 E5.26526
G1 X93.923 Y127.041 E5.28206
G1 X93.875 Y127.609 E5.30031
G1 X93.722 Y128.24 E5.3211
G1 X93.52 Y128.733 E5.33815
G1 X93.264 Y129.176 E5.35453
G1 X92.94 Y129.599 E5.37159
G1 X92.565 Y129.969 E5.38845
G1 X92.148 Y130.283 E5.40516
G1 X91.676 Y130.549 E5.42251
G1 X91.038 Y130.782 E5.44425
G1 X90.525 Y130.887 E5.46101
G1 X89.998 Y130.923 E5.47792
G1 X89.48 Y130.888 E5.49454
G1 X88.957 Y130.782 E5.51163
G1 X88.467 Y130.611 E5.52824
G1 X88.003 Y130.376 E5.54489
G1 X87.565 Y130.077 E5.56187
G1 X87.174 Y129.722 E5.57878
G1 X86.84 Y129.324 E5.59541
G1 X86.558 Y128.881 E5.61222
G1 X86.339 Y128.408 E5.62891
G1 X86.184 Y127.907 E5.6457
G1 X86.097 Y127.393 E5.66238
G1 X86.079 Y126.865 E5.6793
G1 X86.14 Y126.312 E5.69711
G1 X86.308 Y125.673 E5.71826
G1 X86.511 Y125.206 E5.73456
G1 X86.797 Y124.734 E5.75223
G1 X87.116 Y124.341 E5.76843
G1 X87.509 Y123.969 E5.78576
G0 F3600 X87.936 Y124.084
G1 F300 X88.524 Y123.746 E5.80747
G1 X89.234 Y123.51 E5.83142
G1 X89.91 Y123.428 E5.85322
G1 X90.659 Y123.488 E5.87727
G1 X91.304 Y123.673 E5.89875
G1 X91.973 Y124.021 E5.92289
G1 X92.504 Y124.452 E5.94479
G1 X92.976 Y125.023 E5.9685
G1 X93.3 Y125.629 E5.9905
G1 X93.513 Y126.346 E6.01445
G1 X93.573 Y127.026 E6.0363
G1 X93.532 Y127.539 E6.05278
G1 X93.394 Y128.117 E6.0718
G1 X93.085 Y128.802 E6.09586
G1 X92.686 Y129.358 E6.11776
G1 X92.135 Y129.865 E6.14173
G1 X91.611 Y130.191 E6.16149
G1 X90.956 Y130.442 E6.18395
G1 X90.222 Y130.566 E6.20778
G1 X89.538 Y130.543 E6.22969
G1 X88.807 Y130.368 E6.25375
G1 X88.191 Y130.081 E6.2755
G1 X87.587 Y129.636 E6.29952
G1 X87.129 Y129.127 E6.32144
G1 X86.75 Y128.485 E6.34531
G1 X86.527 Y127.838 E6.36721
G1 X86.429 Y127.102 E6.39098
G1 X86.481 Y126.389 E6.41387
G1 X86.633 Y125.802 E6.43328
G1 X86.952 Y125.135 E6.45695
G1 X87.366 Y124.586 E6.47896
G1 X87.936 Y124.084 E6.50328
G0 F3600 X88.148 Y124.362
G1 F300 X88.656 Y124.07 E6.52203
G1 X89.321 Y123.849 E6.54447
G1 X89.906 Y123.778 E6.56333
G1 X90.607 Y123.835 E6.58585
G1 X91.165 Y123.995 E6.60443
G1 X91.791 Y124.319 E6.627
G1 X92.25 Y124.692 E6.64593
G1 X92.692 Y125.227 E6.66815
G1 X92.972 Y125.751 E6.68717
G1 X93.171 Y126.422 E6.70957
G1 X93.224 Y127.01 E6.72847
G1 X93.189 Y127.47 E6.74324
G1 X93.067 Y127.995 E6.76049
G1 X92.777 Y128.637 E6.78305
G1 X92.432 Y129.117 E6.80197
G1 X91.916 Y129.592 E6.82442
G1 X91.459 Y129.876 E6.84165
G1 X90.875 Y130.102 E6.86169
G1 X90.187 Y130.218 E6.88403
G1 X89.596 Y130.198 E6.90296
G1 X88.911 Y130.034 E6.92551
G1 X88.379 Y129.786 E6.9443
G1 X87.813 Y129.369 E6.9668
G1 X87.418 Y128.929 E6.98573
G1 X87.063 Y128.328 E7.00808
G1 X86.87 Y127.769 E7.02701
G1 X86.778 Y127.078 E7.04933
G1 X86.823 Y126.465 E7.069
G1 X86.958 Y125.932 E7.0866
G1 X87.257 Y125.305 E7.10884
G1 X87.615 Y124.832 E7.12783
G1 X88.148 Y124.362 E7.15058
G0 F3600 X88.36 Y124.64
G1 F300 X88.788 Y124.394 E7.16638
G1 X89.409 Y124.188 E7.18733
G1 X89.902 Y124.128 E7.20323
G1 X90.556 Y124.181 E7.22423
G1 X91.026 Y124.316 E7.23989
G1 X91.608 Y124.618 E7.26088
G1 X91.995 Y124.932 E7.27683
G1 X92.408 Y125.432 E7.29759
G1 X92.644 Y125.873 E7.31361
G1 X92.83 Y126.499 E7.33451
G1 X92.874 Y126.995 E7.35045
G1 X92.846 Y127.4 E7.36345
G1 X92.739 Y127.872 E7.37894
G1 X92.468 Y128.471 E7.39999
G1 X92.178 Y128.876 E7.41594
G1 X91.697 Y129.32 E7.43689
G1 X91.219 Y129.603 E7.45467
G1 X90.794 Y129.761 E7.46919
G1 X90.152 Y129.87 E7.49004
G1 X89.655 Y129.853 E7.50595
G1 X89.016 Y129.7 E7.52699
G1 X88.567 Y129.491 E7.54284
G1 X88.04 Y129.102 E7.56381
G1 X87.707 Y128.732 E7.57975
G1 X87.376 Y128.171 E7.6006
G1 X87.213 Y127.7 E7.61656
G1 X87.127 Y127.055 E7.63739
G1 X87.164 Y126.542 E7.65385
G1 X87.283 Y126.061 E7.66972
G1 X87.563 Y125.476 E7.69048
G1 X87.864 Y125.077 E7.70648
G1 X88.36 Y124.64 E7.72764
G0 F3600 X88.573 Y124.919
G1 F300 X88.921 Y124.718 E7.7405
G1 X89.497 Y124.527 E7.75993
G1 X89.898 Y124.478 E7.77286
G1 X90.504 Y124.527 E7.79233
G1 X91.132 Y124.743 E7.81359
G1 X91.482 Y124.957 E7.82672
G1 X91.926 Y125.369 E7.84611
G1 X92.161 Y125.696 E7.859
G1 X92.41 Y126.248 E7.87839
G1 X92.499 Y126.643 E7.89135
G1 X92.512 Y127.249 E7.91075
G1 X92.411 Y127.75 E7.92711
G1 X92.16 Y128.306 E7.94664
G1 X91.924 Y128.635 E7.95961
G1 X91.477 Y129.047 E7.97907
G1 X91.027 Y129.305 E7.99567
G1 X90.453 Y129.483 E8.01491
G1 X90.046 Y129.524 E8.02801
G1 X89.446 Y129.463 E8.04731
G1 X89.057 Y129.341 E8.06036
G1 X88.529 Y129.052 E8.07963
G1 X88.215 Y128.786 E8.09281
G1 X87.845 Y128.313 E8.11203
G1 X87.662 Y127.95 E8.12504
G1 X87.503 Y127.368 E8.14436
G1 X87.476 Y126.96 E8.15745
G1 X87.506 Y126.618 E8.16844
G1 X87.608 Y126.191 E8.18249
G1 X87.869 Y125.646 E8.20184
G1 X88.114 Y125.323 E8.21482
G1 X88.573 Y124.919 E8.23439
G0 F3600 X88.785 Y125.197
G1 F300 X89.303 Y124.94 E8.2529
G1 X89.871 Y124.829 E8.27143
G1 X89.894 Y124.828 E8.27217
G1 X90.452 Y124.873 E8.29009
G1 X90.993 Y125.064 E8.30845
G1 X91.469 Y125.397 E8.32705
G1 X91.84 Y125.841 E8.34557
G1 X92.082 Y126.37 E8.3642
G1 X92.174 Y126.94 E8.38268
G1 X92.16 Y127.261 E8.39297
G1 X92.083 Y127.627 E8.40494
G1 X91.851 Y128.141 E8.42299
G1 X91.485 Y128.589 E8.44151
G1 X91.017 Y128.923 E8.45992
G1 X90.632 Y129.08 E8.47323
G1 X90.082 Y129.173 E8.49109
G1 X89.504 Y129.118 E8.50967
G1 X88.963 Y128.912 E8.5282
G1 X88.493 Y128.568 E8.54685
G1 X88.134 Y128.116 E8.56533
G1 X87.906 Y127.584 E8.58386
G1 X87.825 Y127.008 E8.60248
G1 X87.847 Y126.695 E8.61252
G1 X88.029 Y126.079 E8.63309
G1 X88.349 Y125.585 E8.65193
G1 X88.785 Y125.197 E8.67061
G1 F600 E7.67061
;MESH:ECG_2.75.STL
G0 F3600 X88.509 Y124.793
G0 X87.91 Y125.348
G0 X87.505 Y126.063
G0 X87.338 Y126.879
G0 X87.431 Y127.706
G0 X87.768 Y128.455
G0 X88.322 Y129.071
G0 X89.03 Y129.482
G0 X89.849 Y129.66
G0 X90.877 Y129.515
G0 X90.614 Y128.718
;TYPE:WALL-OUTER
G1 F600 E8.67061
G1 F300 X90.142 Y128.819 E8.68606
G1 X89.648 Y128.791 E8.7019
G1 X89.191 Y128.636 E8.71735
G1 X88.791 Y128.366 E8.7328
G1 X88.468 Y127.992 E8.74862
G1 X88.263 Y127.556 E8.76405
G1 X88.177 Y127.076 E8.77966
G1 X88.217 Y126.606 E8.79476
G1 X88.389 Y126.142 E8.8106
G1 X88.672 Y125.749 E8.8261
G1 X89.06 Y125.436 E8.84206
G1 X89.421 Y125.269 E8.85479
G1 X89.894 Y125.178 E8.87021
G1 X90.391 Y125.217 E8.88617
G1 X90.849 Y125.384 E8.90178
G1 X91.237 Y125.659 E8.917
G1 X91.547 Y126.032 E8.93253
G1 X91.748 Y126.474 E8.94807
G1 X91.825 Y126.957 E8.96373
G1 X91.79 Y127.358 E8.97662
G1 X91.625 Y127.83 E8.99262
G1 X91.405 Y128.165 E9.00545
G1 X91.051 Y128.492 E9.02088
G1 X90.614 Y128.718 E9.03663
G0 F3600 X90.443 Y128.754
G0 X90.493 Y128.386
;TYPE:WALL-INNER
G1 F300 X90.114 Y128.467 E9.04904
G1 X89.715 Y128.445 E9.06183
G1 X89.35 Y128.321 E9.07417
G1 X89.026 Y128.102 E9.08669
G1 X88.765 Y127.8 E9.09947
G1 X88.6 Y127.45 E9.11186
G1 X88.53 Y127.059 E9.12457
G1 X88.562 Y126.682 E9.13668
G1 X88.7 Y126.309 E9.14942
G1 X88.93 Y125.991 E9.16198
G1 X89.244 Y125.737 E9.17491
G1 X89.529 Y125.605 E9.18496
G1 X89.915 Y125.531 E9.19755
G1 X90.315 Y125.562 E9.21039
