;FLAVOR:Marlin
;TIME:9383
;Filament used: 0m, 0.8167m
;Layer height: 0.1
;MINX:65.077
;MINY:114.075
;MINZ:0.2
;MAXX:114.924
;MAXY:139.922
;MAXZ:5.5
;Generated with Cura_SteamEngine 4.12.1
T1
M140 S40
M105
M190 S40
M104 S145
M105
M109 S145
M82 ;absolute extrusion mode
M605 S0 ; set x-carriage mode to independent control
T0 ; Switch to left extruder
G28 ; home all axes
G1 X210 Y40 Z0.1 F10000 ; go to wait position
G92 E0 ; reset extrusion distance
G1 X195 F5000 ; scrape off any ooze from heating
G1 Z7 ; move the bed down to avoid collision
G1 X40 Y6 F10000 ; move toolhead to the unused front edge
G1 Z0.20 F1000 ; move bed to prime start position
G1 X160 F1000 ; prime the nozzle
G1 X170 Z0.05 F5000 ; quick wipe
G1 Z7 ; move the bed down
G1 X-25 F5000 ; move T0 to home position
T1 ; switch to T1
G1 X210 Y40 Z0.1 F10000 ; go to wait position
G92 E0 ; reset extrusion distance
G1 X195 F5000 ; scrape off any ooze from heating
G1 Z7 ; move the bed down to avoid collision
G1 X40 Y7 F10000 ; move toolhead to the unused front edge
G1 Z0.20 F1000 ; move bed to prime start position
G1 X160 F1000 ; prime the nozzle
G1 X170 Z0.05 F5000 ; quick wipe
G1 Z7 ; move the bed down
G28 X ; home T1 toolhead
G92 E0
T0
G1 X-25 F18000 ; park T0
T1
G1 X250 F18000 ; park T1 and start
G92 E0
G1 F600 E-1
;LAYER_COUNT:54
;LAYER:0
M107
G0 F3600 X71.321 Y115.934 Z0.2
;TYPE:SKIRT
G1 F600 E0
G1 F300 X72.01 Y115.546 E0.02531
G1 X72.468 Y115.318 E0.04169
G1 X73.188 Y115.006 E0.06681
G1 X73.667 Y114.823 E0.08323
G1 X74.431 Y114.578 E0.10891
G1 X75.272 Y114.366 E0.13668
G1 X76.128 Y114.212 E0.16452
G1 X76.986 Y114.115 E0.19216
G1 X77.486 Y114.086 E0.2082
G1 X78.292 Y114.078 E0.234
G1 X79.16 Y114.128 E0.26183
G1 X80.023 Y114.235 E0.28967
G1 X80.874 Y114.399 E0.31742
G1 X81.714 Y114.62 E0.34522
G1 X82.536 Y114.898 E0.373
G1 X83.339 Y115.23 E0.40082
G1 X84.116 Y115.614 E0.42856
G1 X84.866 Y116.051 E0.45635
G1 X85.288 Y116.326 E0.47248
G1 X85.934 Y116.798 E0.49809
G1 X86.326 Y117.115 E0.51423
G1 X86.917 Y117.645 E0.53964
G1 X87.274 Y117.998 E0.55571
G1 X87.819 Y118.598 E0.58166
G1 X88.36 Y119.273 E0.60935
G1 X88.855 Y119.986 E0.63714
G1 X89.122 Y120.416 E0.65334
G1 X89.503 Y121.109 E0.67866
G1 X89.724 Y121.561 E0.69477
G1 X90 Y122.203 E0.71714
G1 X90.278 Y121.558 E0.73962
G1 X90.669 Y120.786 E0.76733
G1 X91.11 Y120.04 E0.79507
G1 X91.603 Y119.323 E0.82292
G1 X92.142 Y118.642 E0.85073
G1 X92.72 Y118.004 E0.87829
G1 X93.077 Y117.651 E0.89436
G1 X93.68 Y117.111 E0.92027
G1 X94.07 Y116.794 E0.93636
G1 X94.71 Y116.328 E0.9617
G1 X95.134 Y116.05 E0.97793
G1 X95.824 Y115.647 E1.00352
G1 X96.269 Y115.416 E1.01957
G1 X97 Y115.082 E1.04529
G1 X97.81 Y114.773 E1.07305
G1 X98.292 Y114.618 E1.08926
G1 X99.065 Y114.414 E1.11485
G1 X99.915 Y114.245 E1.14259
G1 X100.411 Y114.173 E1.15864
G1 X101.208 Y114.1 E1.18426
G1 X101.709 Y114.078 E1.20031
G1 X102.077 Y114.075 E1.21209
G1 X102.941 Y114.109 E1.23977
G1 X103.44 Y114.156 E1.25582
G1 X104.238 Y114.271 E1.28163
G1 X104.735 Y114.367 E1.29783
G1 X105.505 Y114.56 E1.32325
G1 X105.986 Y114.705 E1.33933
G1 X106.742 Y114.977 E1.36505
G1 X107.533 Y115.319 E1.39264
G1 X107.983 Y115.543 E1.40873
G1 X108.687 Y115.939 E1.43459
G1 X109.411 Y116.41 E1.46224
G1 X110.103 Y116.93 E1.48995
G1 X110.487 Y117.252 E1.50599
G1 X111.078 Y117.8 E1.53179
G1 X111.675 Y118.43 E1.55958
G1 X112 Y118.81 E1.57558
G1 X112.488 Y119.446 E1.60125
G1 X112.971 Y120.164 E1.62895
G1 X113.404 Y120.914 E1.65667
G1 X113.631 Y121.363 E1.67278
G1 X113.961 Y122.1 E1.69863
G1 X114.262 Y122.913 E1.72638
G1 X114.509 Y123.745 E1.75417
G1 X114.698 Y124.589 E1.78185
G1 X114.782 Y125.082 E1.79786
G1 X114.877 Y125.883 E1.82369
G1 X114.911 Y126.383 E1.83973
G1 X114.924 Y127.185 E1.86541
G1 X114.883 Y128.053 E1.89323
G1 X114.782 Y128.917 E1.92107
G1 X114.625 Y129.768 E1.94878
G1 X114.509 Y130.256 E1.96483
G1 X114.282 Y131.025 E1.9905
G1 X113.985 Y131.839 E2.01824
G1 X113.787 Y132.304 E2.03442
G1 X113.44 Y133.017 E2.0598
G1 X113.196 Y133.46 E2.07599
G1 X112.775 Y134.14 E2.1016
G1 X112.488 Y134.554 E2.11772
G1 X112.001 Y135.188 E2.14332
G1 X111.675 Y135.57 E2.15939
G1 X111.125 Y136.154 E2.18508
G1 X110.762 Y136.502 E2.20117
G1 X110.16 Y137.024 E2.22668
G1 X109.764 Y137.333 E2.24276
G1 X109.107 Y137.796 E2.26849
G1 X108.679 Y138.066 E2.28469
G1 X107.99 Y138.454 E2.31001
G1 X107.532 Y138.682 E2.32638
G1 X106.812 Y138.994 E2.3515
G1 X106.333 Y139.177 E2.36792
G1 X105.569 Y139.422 E2.3936
G1 X104.728 Y139.634 E2.42137
G1 X103.872 Y139.788 E2.44921
G1 X103.014 Y139.885 E2.47685
G1 X102.514 Y139.914 E2.49289
G1 X101.709 Y139.922 E2.51866
G1 X101.208 Y139.9 E2.53471
G1 X100.41 Y139.827 E2.56037
G1 X99.552 Y139.69 E2.58818
G1 X99.058 Y139.586 E2.60434
G1 X98.287 Y139.38 E2.62989
G1 X97.81 Y139.227 E2.64593
G1 X97.06 Y138.943 E2.6716
G1 X96.271 Y138.585 E2.69934
G1 X95.823 Y138.353 E2.71549
G1 X95.131 Y137.947 E2.74117
G1 X94.709 Y137.672 E2.7573
G1 X94.071 Y137.207 E2.78257
G1 X93.673 Y136.885 E2.79896
G1 X93.082 Y136.355 E2.82437
G1 X92.725 Y136.002 E2.84044
G1 X92.18 Y135.403 E2.86637
G1 X91.64 Y134.727 E2.89407
G1 X91.145 Y134.014 E2.92185
G1 X90.88 Y133.586 E2.93797
G1 X90.496 Y132.888 E2.96347
G1 X90.275 Y132.436 E2.97958
G1 X90 Y131.795 E3.00191
G1 X89.72 Y132.444 E3.02453
G1 X89.333 Y133.211 E3.05204
G1 X89.083 Y133.649 E3.06818
G1 X88.65 Y134.322 E3.0938
G1 X88.135 Y135.02 E3.12157
G1 X87.817 Y135.406 E3.13758
G1 X87.281 Y135.996 E3.1631
G1 X86.923 Y136.35 E3.17921
G1 X86.321 Y136.889 E3.20508
G1 X85.931 Y137.206 E3.22117
G1 X85.284 Y137.676 E3.24677
G1 X84.865 Y137.95 E3.2628
G1 X84.179 Y138.352 E3.28825
G1 X83.731 Y138.584 E3.3044
G1 X82.999 Y138.918 E3.33016
G1 X82.19 Y139.227 E3.35788
G1 X81.711 Y139.38 E3.37398
G1 X80.939 Y139.586 E3.39956
G1 X80.449 Y139.69 E3.4156
G1 X79.657 Y139.818 E3.44128
G1 X78.792 Y139.9 E3.46909
G1 X78.292 Y139.922 E3.48512
G1 X77.485 Y139.914 E3.51095
G1 X76.618 Y139.85 E3.53878
G1 X75.762 Y139.729 E3.56646
G1 X75.265 Y139.633 E3.58266
G1 X74.495 Y139.44 E3.60807
G1 X74.014 Y139.295 E3.62416
G1 X73.258 Y139.023 E3.64988
G1 X72.467 Y138.681 E3.67747
G1 X72.017 Y138.457 E3.69356
G1 X71.313 Y138.061 E3.71942
G1 X70.587 Y137.588 E3.74715
G1 X69.895 Y137.069 E3.77485
G1 X69.238 Y136.502 E3.80263
G1 X68.875 Y136.154 E3.81873
G1 X68.325 Y135.57 E3.84441
G1 X67.999 Y135.188 E3.86048
G1 X67.512 Y134.554 E3.88608
G1 X67.029 Y133.836 E3.91378
G1 X66.596 Y133.087 E3.94147
G1 X66.368 Y132.635 E3.95768
G1 X66.04 Y131.902 E3.98339
G1 X65.738 Y131.087 E4.01121
G1 X65.491 Y130.255 E4.039
G1 X65.302 Y129.411 E4.06668
G1 X65.218 Y128.917 E4.08273
G1 X65.123 Y128.114 E4.10861
G1 X65.077 Y127.249 E4.13634
G1 X65.089 Y126.383 E4.16407
G1 X65.123 Y125.884 E4.18008
G1 X65.218 Y125.083 E4.2059
G1 X65.375 Y124.232 E4.2336
G1 X65.491 Y123.744 E4.24966
G1 X65.718 Y122.975 E4.27533
G1 X66.015 Y122.161 E4.30307
G1 X66.213 Y121.696 E4.31925
G1 X66.56 Y120.983 E4.34463
G1 X66.804 Y120.54 E4.36082
G1 X67.225 Y119.86 E4.38643
G1 X67.512 Y119.446 E4.40255
G1 X67.999 Y118.812 E4.42815
G1 X68.325 Y118.43 E4.44422
G1 X68.875 Y117.846 E4.4699
G1 X69.238 Y117.498 E4.486
G1 X69.84 Y116.976 E4.51151
G1 X70.236 Y116.667 E4.52759
G1 X70.893 Y116.204 E4.55332
G1 X71.321 Y115.934 E4.56952
G0 F3600 X71.816 Y116.052
G1 F300 X72.559 Y115.662 E4.59638
G1 X73.321 Y115.33 E4.62299
G1 X74.13 Y115.035 E4.65056
G1 X74.943 Y114.803 E4.67762
G1 X75.765 Y114.625 E4.70455
G1 X76.604 Y114.503 E4.73169
G1 X77.449 Y114.438 E4.75882
G1 X78.289 Y114.428 E4.78571
G1 X79.133 Y114.477 E4.81278
G1 X79.973 Y114.581 E4.83987
G1 X80.801 Y114.741 E4.86687
G1 X81.618 Y114.957 E4.89392
G1 X82.418 Y115.227 E4.92095
G1 X83.199 Y115.551 E4.94802
G1 X83.955 Y115.925 E4.97502
G1 X84.685 Y116.35 E5.00206
G1 X85.389 Y116.826 E5.02927
G1 X86.053 Y117.343 E5.05621
G1 X86.68 Y117.903 E5.08312
G1 X87.273 Y118.508 E5.11024
G1 X87.821 Y119.148 E5.13721
G1 X88.328 Y119.828 E5.16437
G1 X88.786 Y120.536 E5.19136
G1 X89.194 Y121.274 E5.21836
G1 X89.555 Y122.042 E5.24552
G1 X89.862 Y122.829 E5.27257
G1 X90.005 Y123.229 E5.28617
G1 X90.266 Y122.482 E5.3115
G1 X90.597 Y121.701 E5.33865
G1 X90.978 Y120.95 E5.36561
G1 X91.408 Y120.224 E5.39262
G1 X91.887 Y119.527 E5.4197
G1 X92.412 Y118.865 E5.44674
G1 X92.976 Y118.243 E5.47362
G1 X93.586 Y117.656 E5.50072
G1 X94.23 Y117.113 E5.52769
G1 X94.912 Y116.613 E5.55476
G1 X95.632 Y116.158 E5.58203
G1 X96.372 Y115.755 E5.609
G1 X97.14 Y115.403 E5.63605
G1 X97.929 Y115.103 E5.66307
G1 X98.742 Y114.855 E5.69028
G1 X99.558 Y114.665 E5.7171
G1 X100.392 Y114.528 E5.74416
G1 X101.234 Y114.449 E5.77123
G1 X102.08 Y114.425 E5.79833
G1 X102.921 Y114.459 E5.82527
G1 X103.762 Y114.549 E5.85235
G1 X104.592 Y114.694 E5.87932
G1 X105.415 Y114.898 E5.90646
G1 X106.222 Y115.155 E5.93358
G1 X107.009 Y115.466 E5.96067
G1 X107.772 Y115.828 E5.9877
G1 X108.51 Y116.241 E6.01478
G1 X109.214 Y116.7 E6.04168
G1 X109.888 Y117.206 E6.06866
G1 X110.528 Y117.758 E6.09572
G1 X111.132 Y118.354 E6.12288
G1 X111.69 Y118.984 E6.14982
G1 X112.207 Y119.654 E6.17691
G1 X112.676 Y120.354 E6.20389
G1 X113.098 Y121.084 E6.23088
G1 X113.471 Y121.847 E6.25807
G1 X113.792 Y122.631 E6.28519
G1 X114.059 Y123.435 E6.31231
G1 X114.271 Y124.253 E6.33936
G1 X114.428 Y125.079 E6.36628
G1 X114.529 Y125.918 E6.39333
G1 X114.573 Y126.763 E6.42042
G1 X114.561 Y127.605 E6.44738
G1 X114.492 Y128.448 E6.47445
G1 X114.366 Y129.285 E6.50155
G1 X114.185 Y130.109 E6.52856
G1 X113.948 Y130.921 E6.55564
G1 X113.659 Y131.713 E6.58263
G1 X113.313 Y132.489 E6.60983
G1 X112.922 Y133.233 E6.63673
G1 X112.481 Y133.951 E6.66371
G1 X111.987 Y134.642 E6.6909
G1 X111.451 Y135.296 E6.71797
G1 X110.874 Y135.91 E6.74494
G1 X110.254 Y136.487 E6.77206
G1 X109.599 Y137.02 E6.79909
G1 X108.91 Y137.507 E6.8261
G1 X108.184 Y137.948 E6.85329
G1 X107.441 Y138.338 E6.88016
G1 X106.679 Y138.67 E6.90676
G1 X105.87 Y138.965 E6.93433
G1 X105.057 Y139.197 E6.9614
G1 X104.235 Y139.375 E6.98832
G1 X103.396 Y139.497 E7.01546
G1 X102.551 Y139.562 E7.04259
G1 X101.712 Y139.572 E7.06945
G1 X100.867 Y139.523 E7.09655
G1 X100.027 Y139.419 E7.12365
G1 X99.203 Y139.26 E7.15051
G1 X98.383 Y139.043 E7.17767
G1 X97.581 Y138.772 E7.20477
G1 X96.798 Y138.448 E7.23189
G1 X96.045 Y138.075 E7.25879
G1 X95.313 Y137.648 E7.28592
G1 X94.609 Y137.172 E7.31313
G1 X93.946 Y136.657 E7.34
G1 X93.319 Y136.097 E7.36692
G1 X92.726 Y135.492 E7.39404
G1 X92.177 Y134.85 E7.42108
G1 X91.672 Y134.172 E7.44814
G1 X91.214 Y133.464 E7.47514
G1 X90.805 Y132.724 E7.5022
G1 X90.445 Y131.956 E7.52936
G1 X90.138 Y131.173 E7.55628
G1 X89.995 Y130.77 E7.56997
G1 X89.733 Y131.519 E7.59537
G1 X89.401 Y132.301 E7.62257
G1 X89.024 Y133.048 E7.64935
G1 X88.591 Y133.778 E7.67653
G1 X88.113 Y134.472 E7.7035
G1 X87.588 Y135.135 E7.73058
G1 X87.025 Y135.757 E7.75743
G1 X86.414 Y136.345 E7.78458
G1 X85.771 Y136.887 E7.8115
G1 X85.083 Y137.389 E7.83877
G1 X84.367 Y137.842 E7.86589
G1 X83.627 Y138.245 E7.89286
G1 X82.859 Y138.597 E7.91991
G1 X82.071 Y138.897 E7.9469
G1 X81.259 Y139.145 E7.97408
G1 X80.439 Y139.336 E8.00103
G1 X79.607 Y139.472 E8.02802
G1 X78.765 Y139.551 E8.0551
G1 X77.921 Y139.575 E8.08213
G1 X77.079 Y139.541 E8.1091
G1 X76.238 Y139.451 E8.13618
G1 X75.408 Y139.306 E8.16315
G1 X74.585 Y139.102 E8.1903
G1 X73.778 Y138.845 E8.21741
G1 X72.991 Y138.534 E8.2445
G1 X72.228 Y138.172 E8.27153
G1 X71.49 Y137.759 E8.29861
G1 X70.784 Y137.299 E8.32558
G1 X70.11 Y136.793 E8.35256
G1 X69.471 Y136.241 E8.3796
G1 X68.868 Y135.645 E8.40674
G1 X68.309 Y135.015 E8.4337
G1 X67.793 Y134.346 E8.46075
G1 X67.323 Y133.646 E8.48774
G1 X66.902 Y132.917 E8.51469
G1 X66.528 Y132.151 E8.54198
G1 X66.208 Y131.369 E8.56903
G1 X65.941 Y130.565 E8.59615
G1 X65.729 Y129.747 E8.6232
G1 X65.572 Y128.92 E8.65015
G1 X65.471 Y128.079 E8.67726
G1 X65.427 Y127.237 E8.70425
G1 X65.439 Y126.395 E8.73121
G1 X65.508 Y125.552 E8.75829
G1 X65.634 Y124.715 E8.78538
G1 X65.815 Y123.891 E8.81239
G1 X66.052 Y123.079 E8.83947
G1 X66.341 Y122.287 E8.86646
G1 X66.687 Y121.511 E8.89366
G1 X67.078 Y120.767 E8.92057
G1 X67.519 Y120.049 E8.94754
G1 X68.013 Y119.358 E8.97473
G1 X68.549 Y118.704 E9.0018
G1 X69.126 Y118.09 E9.02878
G1 X69.746 Y117.513 E9.05589
G1 X70.401 Y116.98 E9.08292
G1 X71.09 Y116.493 E9.10993
G1 X71.816 Y116.052 E9.13713
G0 F3600 X71.991 Y116.354
G1 F300 X72.715 Y115.975 E9.16329
G1 X73.455 Y115.653 E9.18912
G1 X74.243 Y115.367 E9.21596
G1 X75.033 Y115.141 E9.24226
G1 X75.832 Y114.969 E9.26843
G1 X76.647 Y114.851 E9.29479
G1 X77.469 Y114.787 E9.32118
G1 X77.917 Y114.775 E9.33553
G1 X78.698 Y114.795 E9.36054
G1 X79.514 Y114.869 E9.38677
G1 X80.326 Y114.999 E9.4131
G1 X81.127 Y115.182 E9.4394
G1 X81.913 Y115.419 E9.46568
G1 X82.682 Y115.707 E9.49197
G1 X83.43 Y116.048 E9.51829
G1 X84.157 Y116.44 E9.54473
G1 X84.845 Y116.871 E9.57072
G1 X85.512 Y117.356 E9.59712
G1 X86.144 Y117.885 E9.6235
G1 X86.737 Y118.45 E9.64972
G1 X87.293 Y119.06 E9.67614
G1 X87.805 Y119.699 E9.70236
G1 X88.273 Y120.374 E9.72865
G1 X88.696 Y121.084 E9.75511
G1 X89.067 Y121.809 E9.78118
G1 X89.39 Y122.563 E9.80744
G1 X89.663 Y123.34 E9.8338
G1 X89.882 Y124.133 E9.86014
G1 X90 Y124.678 E9.87799
G1 X90.108 Y124.171 E9.89459
G1 X90.324 Y123.382 E9.92077
G1 X90.594 Y122.603 E9.94717
G1 X90.917 Y121.845 E9.97355
G1 X91.287 Y121.114 E9.99977
G1 X91.705 Y120.408 E10.02604
G1 X92.172 Y119.731 E10.05237
G1 X92.682 Y119.087 E10.07867
G1 X93.231 Y118.482 E10.10482
G1 X93.825 Y117.912 E10.13117
G1 X94.451 Y117.385 E10.15737
G1 X95.114 Y116.899 E10.18369
G1 X95.813 Y116.457 E10.21016
G1 X96.533 Y116.066 E10.23639
G1 X97.28 Y115.723 E10.2627
G1 X98.047 Y115.432 E10.28897
G1 X98.837 Y115.192 E10.3154
G1 X99.632 Y115.007 E10.34153
G1 X100.442 Y114.875 E10.3678
G1 X101.261 Y114.798 E10.39413
G1 X102.083 Y114.775 E10.42046
G1 X102.901 Y114.808 E10.44667
G1 X103.719 Y114.897 E10.47301
G1 X104.526 Y115.038 E10.49923
G1 X105.325 Y115.236 E10.52559
G1 X106.109 Y115.487 E10.55194
G1 X106.874 Y115.789 E10.57827
G1 X107.616 Y116.141 E10.60456
G1 X108.333 Y116.543 E10.63087
G1 X109.018 Y116.989 E10.65704
G1 X109.673 Y117.482 E10.68328
G1 X110.295 Y118.019 E10.70959
G1 X110.881 Y118.599 E10.73599
G1 X111.424 Y119.212 E10.7622
G1 X111.926 Y119.863 E10.78852
G1 X112.382 Y120.544 E10.81475
G1 X112.792 Y121.254 E10.841
G1 X113.154 Y121.995 E10.8674
G1 X113.466 Y122.757 E10.89376
G1 X113.725 Y123.538 E10.9201
G1 X113.93 Y124.334 E10.94642
G1 X114.083 Y125.137 E10.97259
G1 X114.181 Y125.953 E10.9989
G1 X114.223 Y126.774 E11.02521
G1 X114.211 Y127.594 E11.05147
G1 X114.144 Y128.413 E11.07777
G1 X114.021 Y129.226 E11.10409
G1 X113.845 Y130.028 E11.13038
G1 X113.614 Y130.816 E11.15667
G1 X113.333 Y131.587 E11.18294
G1 X112.997 Y132.34 E11.20933
G1 X112.616 Y133.064 E11.23553
G1 X112.186 Y133.762 E11.26177
G1 X111.706 Y134.433 E11.28818
G1 X111.184 Y135.069 E11.31452
G1 X110.624 Y135.666 E11.34072
G1 X110.021 Y136.226 E11.36707
G1 X109.383 Y136.744 E11.39338
G1 X108.714 Y137.217 E11.41961
G1 X108.009 Y137.646 E11.44603
G1 X107.285 Y138.025 E11.47219
G1 X106.545 Y138.347 E11.49802
G1 X105.757 Y138.633 E11.52486
G1 X104.967 Y138.859 E11.55116
G1 X104.168 Y139.031 E11.57733
G1 X103.353 Y139.149 E11.60369
G1 X102.531 Y139.213 E11.63008
G1 X101.715 Y139.222 E11.65621
G1 X100.893 Y139.174 E11.68257
G1 X100.077 Y139.072 E11.70889
G1 X99.275 Y138.918 E11.73504
G1 X98.479 Y138.706 E11.76141
G1 X97.699 Y138.443 E11.78776
G1 X96.938 Y138.127 E11.81414
G1 X96.206 Y137.765 E11.84028
G1 X95.495 Y137.349 E11.86665
G1 X94.812 Y136.886 E11.89306
G1 X94.167 Y136.385 E11.91921
G1 X93.556 Y135.84 E11.94542
G1 X92.98 Y135.252 E11.97177
G1 X92.447 Y134.627 E11.99807
G1 X91.956 Y133.969 E12.02435
G1 X91.511 Y133.279 E12.05063
G1 X91.114 Y132.56 E12.07693
G1 X90.765 Y131.814 E12.10329
G1 X90.466 Y131.052 E12.1295
G1 X90.22 Y130.265 E12.15589
G1 X90.028 Y129.469 E12.18211
G1 X90 Y129.32 E12.18696
G1 X89.894 Y129.826 E12.20351
G1 X89.676 Y130.62 E12.22987
G1 X89.405 Y131.398 E12.25624
G1 X89.082 Y132.157 E12.28265
G1 X88.715 Y132.884 E12.30872
G1 X88.294 Y133.593 E12.33512
G1 X87.829 Y134.269 E12.36138
G1 X87.318 Y134.912 E12.38768
G1 X86.77 Y135.517 E12.41381
G1 X86.176 Y136.088 E12.44018
G1 X85.55 Y136.616 E12.4664
