;FLAVOR:Marlin
;TIME:4082
;Filament used: 0.408398m, 0m
;Layer height: 0.1
;MINX:77.201
;MINY:114.203
;MINZ:0.2
;MAXX:102.798
;MAXY:139.799
;MAXZ:5.5
;Generated with Cura_SteamEngine 4.12.1
T0
M140 S40
M105
M190 S40
M104 S145
M105
M109 S145
M82 ;absolute extrusion mode
M605 S0 ; set x-carriage mode to independent control
T0 ; Switch to left extruder
G28 ; home all axes
G1 X210 Y40 Z0.1 F10000 ; go to wait position
G92 E0 ; reset extrusion distance
G1 X195 F5000 ; scrape off any ooze from heating
G1 Z7 ; move the bed down to avoid collision
G1 X40 Y6 F10000 ; move toolhead to the unused front edge
G1 Z0.20 F1000 ; move bed to prime start position
G1 X160 F1000 ; prime the nozzle
G1 X170 Z0.05 F5000 ; quick wipe
G1 Z7 ; move the bed down
G1 X-25 F5000 ; move T0 to home position
T1 ; switch to T1
G1 X210 Y40 Z0.1 F10000 ; go to wait position
G92 E0 ; reset extrusion distance
G1 X195 F5000 ; scrape off any ooze from heating
G1 Z7 ; move the bed down to avoid collision
G1 X40 Y7 F10000 ; move toolhead to the unused front edge
G1 Z0.20 F1000 ; move bed to prime start position
G1 X160 F1000 ; prime the nozzle
G1 X170 Z0.05 F5000 ; quick wipe
G1 Z7 ; move the bed down
G28 X ; home T1 toolhead
G92 E0
T1
G1 X250 F18000 ; park T1
T0
G1 X-25 F18000 ; maker sure T0 is parked
G92 E0
G1 F600 E-1
;LAYER_COUNT:54
;LAYER:0
M107
G0 F3600 X82.335 Y116.749 Z0.2
;TYPE:SKIRT
G1 F600 E0
G1 F300 X82.941 Y116.323 E0.0271
G1 X83.039 Y116.259 E0.03138
G1 X83.667 Y115.876 E0.0583
G1 X83.776 Y115.815 E0.06287
G1 X84.434 Y115.474 E0.08998
G1 X84.545 Y115.421 E0.09448
G1 X85.206 Y115.134 E0.12084
G1 X85.309 Y115.093 E0.1249
G1 X86.02 Y114.835 E0.15257
G1 X86.144 Y114.795 E0.15734
G1 X86.855 Y114.594 E0.18437
G1 X86.969 Y114.566 E0.18867
G1 X87.699 Y114.41 E0.21598
G1 X87.82 Y114.388 E0.22048
G1 X88.547 Y114.284 E0.24735
G1 X88.666 Y114.271 E0.25173
G1 X89.407 Y114.215 E0.27891
G1 X89.526 Y114.21 E0.28327
G1 X90.258 Y114.203 E0.31005
G1 X90.38 Y114.206 E0.31452
G1 X91.117 Y114.249 E0.34153
G1 X91.24 Y114.261 E0.34605
G1 X91.975 Y114.355 E0.37316
G1 X92.094 Y114.374 E0.37757
G1 X92.827 Y114.518 E0.4049
G1 X92.943 Y114.545 E0.40926
G1 X93.657 Y114.735 E0.43629
G1 X93.772 Y114.769 E0.44067
G1 X94.465 Y115.004 E0.46745
G1 X94.582 Y115.049 E0.47203
G1 X95.27 Y115.337 E0.49932
G1 X95.377 Y115.386 E0.50363
G1 X96.038 Y115.715 E0.53064
G1 X96.148 Y115.774 E0.53521
G1 X96.779 Y116.145 E0.56199
G1 X96.876 Y116.206 E0.56618
G1 X97.489 Y116.621 E0.59326
G1 X97.59 Y116.695 E0.59784
G1 X98.171 Y117.15 E0.62484
G1 X98.261 Y117.225 E0.62913
G1 X98.811 Y117.717 E0.65613
G1 X98.902 Y117.805 E0.66076
G1 X99.418 Y118.336 E0.68785
G1 X99.504 Y118.427 E0.69243
G1 X99.978 Y118.983 E0.71916
G1 X100.056 Y119.082 E0.72377
G1 X100.499 Y119.682 E0.75106
G1 X100.565 Y119.778 E0.75532
G1 X100.961 Y120.394 E0.78211
G1 X101.023 Y120.498 E0.78654
G1 X101.384 Y121.153 E0.81391
G1 X101.438 Y121.259 E0.81826
G1 X101.747 Y121.919 E0.84492
G1 X101.796 Y122.032 E0.84943
G1 X102.063 Y122.722 E0.87649
G1 X102.103 Y122.837 E0.88095
G1 X102.323 Y123.544 E0.90804
G1 X102.354 Y123.657 E0.91233
G1 X102.527 Y124.374 E0.93931
G1 X102.552 Y124.497 E0.9439
G1 X102.675 Y125.226 E0.97095
G1 X102.691 Y125.345 E0.97534
G1 X102.765 Y126.081 E1.00241
G1 X102.773 Y126.2 E1.00677
G1 X102.798 Y126.938 E1.03379
G1 X102.798 Y127.062 E1.03832
G1 X102.772 Y127.81 E1.06571
G1 X102.764 Y127.927 E1.07
G1 X102.691 Y128.655 E1.09677
G1 X102.674 Y128.78 E1.10138
G1 X102.548 Y129.514 E1.12863
G1 X102.525 Y129.627 E1.13285
G1 X102.355 Y130.339 E1.15963
G1 X102.322 Y130.457 E1.16411
G1 X102.102 Y131.162 E1.19113
G1 X102.064 Y131.272 E1.19539
G1 X101.799 Y131.961 E1.2224
G1 X101.748 Y132.081 E1.22717
G1 X101.433 Y132.751 E1.25425
G1 X101.38 Y132.854 E1.25849
G1 X101.024 Y133.5 E1.28548
G1 X100.965 Y133.6 E1.28973
G1 X100.567 Y134.223 E1.31677
G1 X100.494 Y134.329 E1.32148
G1 X100.052 Y134.923 E1.34857
G1 X99.977 Y135.016 E1.35294
G1 X99.501 Y135.574 E1.37978
G1 X99.422 Y135.662 E1.3841
G1 X98.903 Y136.195 E1.41132
G1 X98.815 Y136.279 E1.41577
G1 X98.264 Y136.773 E1.44285
G1 X98.17 Y136.851 E1.44731
G1 X97.584 Y137.309 E1.47453
G1 X97.486 Y137.381 E1.47897
G1 X96.878 Y137.793 E1.50585
G1 X96.78 Y137.855 E1.51009
G1 X96.15 Y138.225 E1.53682
G1 X95.64 Y138.489 E1.55783
G1 X94.978 Y138.791 E1.58445
G1 X94.867 Y138.837 E1.58885
G1 X94.168 Y139.101 E1.61618
G1 X94.053 Y139.14 E1.62063
G1 X93.352 Y139.352 E1.64742
G1 X93.235 Y139.383 E1.65185
G1 X92.509 Y139.55 E1.6791
G1 X92.393 Y139.573 E1.68343
G1 X91.671 Y139.69 E1.71019
G1 X91.551 Y139.705 E1.71461
G1 X90.813 Y139.774 E1.74173
G1 X90.689 Y139.781 E1.74628
G1 X89.95 Y139.799 E1.77332
G1 X89.829 Y139.798 E1.77775
G1 X89.082 Y139.766 E1.8051
G1 X88.96 Y139.757 E1.80958
G1 X88.233 Y139.676 E1.83634
G1 X88.118 Y139.659 E1.8406
G1 X87.39 Y139.53 E1.86764
G1 X87.268 Y139.504 E1.87221
G1 X86.547 Y139.324 E1.8994
G1 X86.433 Y139.292 E1.90373
G1 X85.735 Y139.068 E1.93055
G1 X85.619 Y139.026 E1.93506
G1 X84.924 Y138.749 E1.96244
G1 X84.815 Y138.702 E1.96678
G1 X84.15 Y138.385 E1.99373
G1 X84.041 Y138.328 E1.99823
G1 X83.397 Y137.965 E2.02528
G1 X83.297 Y137.904 E2.02956
G1 X82.683 Y137.503 E2.05639
G1 X82.58 Y137.43 E2.06101
G1 X81.985 Y136.979 E2.08833
G1 X81.895 Y136.907 E2.09254
G1 X81.343 Y136.43 E2.11924
G1 X81.249 Y136.341 E2.12397
G1 X80.722 Y135.819 E2.15111
G1 X80.637 Y135.728 E2.15567
G1 X80.15 Y135.174 E2.18265
G1 X80.073 Y135.08 E2.1871
G1 X79.629 Y134.5 E2.21382
G1 X79.561 Y134.405 E2.2181
G1 X79.146 Y133.783 E2.24545
G1 X79.082 Y133.68 E2.24989
G1 X78.715 Y133.041 E2.27685
G1 X78.657 Y132.931 E2.2814
G1 X78.333 Y132.264 E2.30853
G1 X78.284 Y132.155 E2.3129
G1 X78.007 Y131.473 E2.33983
G1 X77.966 Y131.36 E2.34423
G1 X77.734 Y130.657 E2.37132
G1 X77.699 Y130.539 E2.37582
G1 X77.516 Y129.823 E2.40286
G1 X77.491 Y129.708 E2.40716
G1 X77.355 Y128.98 E2.43426
G1 X77.336 Y128.861 E2.43867
G1 X77.25 Y128.135 E2.46541
G1 X77.24 Y128.013 E2.46989
G1 X77.203 Y127.275 E2.49693
G1 X77.201 Y127.156 E2.50128
G1 X77.213 Y126.419 E2.52825
G1 X77.219 Y126.298 E2.53268
G1 X77.281 Y125.559 E2.55981
G1 X77.296 Y125.436 E2.56435
G1 X77.408 Y124.706 E2.59137
G1 X77.43 Y124.59 E2.59569
G1 X77.59 Y123.867 E2.62278
G1 X77.62 Y123.748 E2.62727
G1 X77.828 Y123.041 E2.65423
G1 X77.866 Y122.927 E2.65863
G1 X78.124 Y122.227 E2.68592
G1 X78.17 Y122.114 E2.69039
G1 X78.472 Y121.439 E2.71744
G1 X78.525 Y121.331 E2.72184
G1 X78.867 Y120.686 E2.74855
G1 X78.925 Y120.584 E2.75284
G1 X79.313 Y119.955 E2.77988
G1 X79.381 Y119.852 E2.7844
G1 X79.812 Y119.25 E2.81149
G1 X79.888 Y119.151 E2.81605
G1 X80.359 Y118.581 E2.8431
G1 X80.436 Y118.494 E2.84736
G1 X80.947 Y117.951 E2.87464
G1 X81.036 Y117.863 E2.87921
G1 X81.576 Y117.364 E2.90611
G1 X81.664 Y117.288 E2.91037
G1 X82.236 Y116.824 E2.93732
G1 X82.335 Y116.749 E2.94186
G0 F3600 X82.565 Y117.077
G1 F300 X83.171 Y116.651 E2.96896
G1 X83.247 Y116.601 E2.97229
G1 X83.875 Y116.218 E2.9992
G1 X83.96 Y116.17 E3.00277
G1 X84.618 Y115.829 E3.02989
G1 X84.704 Y115.788 E3.03337
G1 X85.365 Y115.501 E3.05974
G1 X85.445 Y115.469 E3.06289
G1 X86.156 Y115.211 E3.09056
G1 X86.253 Y115.18 E3.09429
G1 X86.964 Y114.979 E3.12132
G1 X87.052 Y114.957 E3.12464
G1 X87.782 Y114.801 E3.15195
G1 X87.877 Y114.784 E3.15548
G1 X88.604 Y114.68 E3.18235
G1 X88.696 Y114.67 E3.18574
G1 X89.437 Y114.614 E3.21292
G1 X89.53 Y114.61 E3.21633
G1 X90.262 Y114.603 E3.24311
G1 X90.357 Y114.605 E3.24659
G1 X91.094 Y114.648 E3.2736
G1 X91.19 Y114.657 E3.27712
G1 X91.925 Y114.751 E3.30423
G1 X92.017 Y114.766 E3.30764
G1 X92.75 Y114.91 E3.33498
G1 X92.84 Y114.931 E3.33836
G1 X93.554 Y115.121 E3.36539
G1 X93.644 Y115.148 E3.36883
G1 X94.337 Y115.383 E3.3956
G1 X94.428 Y115.418 E3.39917
G1 X95.116 Y115.706 E3.42645
G1 X95.199 Y115.744 E3.42979
G1 X95.86 Y116.073 E3.45681
G1 X95.946 Y116.119 E3.46037
G1 X96.577 Y116.49 E3.48715
G1 X96.652 Y116.538 E3.49041
G1 X97.265 Y116.953 E3.5175
G1 X97.343 Y117.01 E3.52103
G1 X97.924 Y117.465 E3.54803
G1 X97.994 Y117.524 E3.55138
G1 X98.544 Y118.016 E3.57838
G1 X98.615 Y118.083 E3.58195
G1 X99.131 Y118.614 E3.60904
G1 X99.199 Y118.687 E3.61269
G1 X99.673 Y119.243 E3.63942
G1 X99.734 Y119.319 E3.64298
G1 X100.177 Y119.919 E3.67027
G1 X100.229 Y119.994 E3.67361
G1 X100.625 Y120.61 E3.7004
G1 X100.673 Y120.691 E3.70385
G1 X101.034 Y121.346 E3.73121
G1 X101.076 Y121.428 E3.73458
G1 X101.385 Y122.088 E3.76124
G1 X101.423 Y122.177 E3.76478
G1 X101.69 Y122.867 E3.79185
G1 X101.721 Y122.956 E3.7953
G1 X101.941 Y123.663 E3.82239
G1 X101.965 Y123.751 E3.82573
G1 X102.138 Y124.468 E3.85271
G1 X102.157 Y124.563 E3.85626
G1 X102.28 Y125.292 E3.8833
G1 X102.293 Y125.385 E3.88674
G1 X102.367 Y126.121 E3.9138
G1 X102.373 Y126.214 E3.91721
G1 X102.398 Y126.952 E3.94423
G1 X102.398 Y127.048 E3.94774
G1 X102.372 Y127.796 E3.97512
G1 X102.366 Y127.887 E3.97846
G1 X102.293 Y128.615 E4.00523
G1 X102.28 Y128.712 E4.00881
G1 X102.154 Y129.446 E4.03606
G1 X102.136 Y129.534 E4.03934
G1 X101.966 Y130.246 E4.06612
G1 X101.94 Y130.338 E4.06962
G1 X101.72 Y131.043 E4.09664
G1 X101.691 Y131.129 E4.09996
G1 X101.426 Y131.818 E4.12697
G1 X101.386 Y131.911 E4.13067
G1 X101.071 Y132.581 E4.15776
G1 X101.03 Y132.661 E4.16105
G1 X100.674 Y133.307 E4.18804
G1 X100.628 Y133.385 E4.19135
G1 X100.23 Y134.008 E4.2184
G1 X100.173 Y134.09 E4.22205
G1 X99.731 Y134.684 E4.24914
G1 X99.673 Y134.757 E4.25255
G1 X99.197 Y135.315 E4.27938
G1 X99.135 Y135.383 E4.28275
G1 X98.616 Y135.916 E4.30997
G1 X98.548 Y135.981 E4.31341
G1 X97.997 Y136.475 E4.34048
G1 X97.924 Y136.536 E4.34397
G1 X97.338 Y136.994 E4.37118
G1 X97.261 Y137.05 E4.37466
G1 X96.653 Y137.462 E4.40153
G1 X96.577 Y137.51 E4.40482
G1 X95.947 Y137.88 E4.43155
G1 X95.474 Y138.125 E4.45104
G1 X94.812 Y138.427 E4.47766
G1 X94.726 Y138.463 E4.48107
G1 X94.027 Y138.727 E4.50841
G1 X93.937 Y138.757 E4.51188
G1 X93.236 Y138.969 E4.53867
G1 X93.145 Y138.993 E4.54212
G1 X92.419 Y139.16 E4.56937
G1 X92.329 Y139.178 E4.57273
G1 X91.607 Y139.295 E4.59949
G1 X91.513 Y139.307 E4.60296
G1 X90.775 Y139.376 E4.63007
G1 X90.679 Y139.382 E4.63359
G1 X89.94 Y139.4 E4.66064
G1 X89.846 Y139.399 E4.66408
G1 X89.099 Y139.367 E4.69143
G1 X89.004 Y139.359 E4.69492
G1 X88.277 Y139.278 E4.72168
G1 X88.188 Y139.266 E4.72497
G1 X87.46 Y139.137 E4.75202
G1 X87.365 Y139.116 E4.75558
G1 X86.644 Y138.936 E4.78277
G1 X86.555 Y138.911 E4.78615
G1 X85.857 Y138.687 E4.81297
G1 X85.767 Y138.655 E4.81646
G1 X85.072 Y138.378 E4.84384
G1 X84.988 Y138.341 E4.84719
G1 X84.323 Y138.024 E4.87415
G1 X84.238 Y137.98 E4.87765
G1 X83.594 Y137.617 E4.90469
G1 X83.515 Y137.569 E4.90808
G1 X82.901 Y137.168 E4.93491
G1 X82.821 Y137.112 E4.93848
G1 X82.226 Y136.661 E4.9658
G1 X82.157 Y136.604 E4.96907
G1 X81.605 Y136.127 E4.99576
G1 X81.531 Y136.057 E4.99949
G1 X81.004 Y135.535 E5.02663
G1 X80.938 Y135.464 E5.03017
G1 X80.451 Y134.91 E5.05716
G1 X80.39 Y134.837 E5.06064
G1 X79.946 Y134.257 E5.08736
G1 X79.893 Y134.183 E5.09069
G1 X79.478 Y133.561 E5.11805
G1 X79.429 Y133.481 E5.12148
G1 X79.062 Y132.842 E5.14844
G1 X79.017 Y132.757 E5.15196
G1 X78.693 Y132.09 E5.17909
G1 X78.655 Y132.005 E5.1825
G1 X78.378 Y131.323 E5.20943
G1 X78.346 Y131.235 E5.21285
G1 X78.114 Y130.532 E5.23994
G1 X78.087 Y130.44 E5.24345
G1 X77.904 Y129.724 E5.27048
G1 X77.884 Y129.634 E5.27386
G1 X77.748 Y128.906 E5.30095
G1 X77.734 Y128.814 E5.30436
G1 X77.648 Y128.088 E5.33111
G1 X77.64 Y127.993 E5.33459
G1 X77.603 Y127.255 E5.36163
G1 X77.601 Y127.162 E5.36503
G1 X77.613 Y126.425 E5.392
G1 X77.618 Y126.331 E5.39544
G1 X77.68 Y125.592 E5.42257
G1 X77.691 Y125.497 E5.42607
G1 X77.803 Y124.767 E5.45309
G1 X77.82 Y124.676 E5.45648
G1 X77.98 Y123.953 E5.48357
G1 X78.004 Y123.861 E5.48705
G1 X78.212 Y123.154 E5.51401
G1 X78.241 Y123.065 E5.51744
G1 X78.499 Y122.365 E5.54473
G1 X78.535 Y122.277 E5.54821
G1 X78.837 Y121.602 E5.57527
G1 X78.878 Y121.518 E5.57869
G1 X79.22 Y120.873 E5.6054
G1 X79.265 Y120.794 E5.60872
G1 X79.653 Y120.165 E5.63576
G1 X79.707 Y120.085 E5.63929
G1 X80.138 Y119.483 E5.66638
G1 X80.197 Y119.406 E5.66993
G1 X80.668 Y118.836 E5.69698
G1 X80.727 Y118.769 E5.70025
G1 X81.238 Y118.226 E5.72753
G1 X81.308 Y118.157 E5.73112
G1 X81.848 Y117.658 E5.75802
G1 X81.916 Y117.599 E5.76132
G1 X82.488 Y117.135 E5.78826
G1 X82.565 Y117.077 E5.79179
G0 F3600 X82.795 Y117.404
G1 F300 X83.401 Y116.978 E5.81889
G1 X83.455 Y116.942 E5.82127
G1 X84.083 Y116.559 E5.84818
G1 X84.144 Y116.525 E5.85073
G1 X84.802 Y116.184 E5.87785
G1 X84.864 Y116.155 E5.88035
G1 X85.525 Y115.868 E5.90672
G1 X85.582 Y115.845 E5.90897
G1 X86.293 Y115.587 E5.93664
G1 X86.362 Y115.565 E5.93929
G1 X87.073 Y115.364 E5.96632
G1 X87.136 Y115.348 E5.9687
G1 X87.866 Y115.192 E5.99601
G1 X87.933 Y115.18 E5.9985
G1 X88.66 Y115.076 E6.02537
G1 X88.727 Y115.069 E6.02783
G1 X89.468 Y115.013 E6.05502
G1 X89.533 Y115.01 E6.0574
G1 X90.265 Y115.003 E6.08418
G1 X90.333 Y115.005 E6.08667
G1 X91.07 Y115.048 E6.11368
G1 X91.139 Y115.054 E6.11622
G1 X91.874 Y115.148 E6.14333
G1 X91.94 Y115.159 E6.14577
G1 X92.673 Y115.303 E6.1731
G1 X92.737 Y115.318 E6.17551
G1 X93.451 Y115.508 E6.20254
G1 X93.515 Y115.527 E6.20498
G1 X94.208 Y115.762 E6.23176
G1 X94.273 Y115.787 E6.2343
G1 X94.961 Y116.075 E6.26159
G1 X95.021 Y116.102 E6.264
G1 X95.682 Y116.431 E6.29101
G1 X95.743 Y116.464 E6.29355
G1 X96.374 Y116.835 E6.32033
G1 X96.428 Y116.869 E6.32266
G1 X97.041 Y117.284 E6.34975
G1 X97.097 Y117.325 E6.35229
G1 X97.678 Y117.78 E6.37929
G1 X97.728 Y117.822 E6.38168
G1 X98.278 Y118.314 E6.40867
G1 X98.328 Y118.362 E6.41121
G1 X98.844 Y118.893 E6.4383
G1 X98.895 Y118.946 E6.44099
G1 X99.369 Y119.502 E6.46772
G1 X99.412 Y119.557 E6.47028
G1 X99.855 Y120.157 E6.49756
G1 X99.892 Y120.21 E6.49993
G1 X100.288 Y120.826 E6.52672
G1 X100.323 Y120.884 E6.5292
G1 X100.684 Y121.539 E6.55656
G1 X100.714 Y121.598 E6.55898
G1 X101.023 Y122.258 E6.58564
G1 X101.05 Y122.321 E6.58815
G1 X101.317 Y123.011 E6.61522
G1 X101.339 Y123.075 E6.6177
G1 X101.559 Y123.782 E6.64479
G1 X101.576 Y123.844 E6.64714
G1 X101.749 Y124.561 E6.67412
G1 X101.763 Y124.63 E6.6767
G1 X101.886 Y125.359 E6.70375
G1 X101.895 Y125.425 E6.70618
G1 X101.969 Y126.161 E6.73325
G1 X101.973 Y126.227 E6.73567
G1 X101.998 Y126.965 E6.76268
G1 X101.998 Y127.034 E6.76521
G1 X101.972 Y127.782 E6.79259
G1 X101.968 Y127.847 E6.79497
G1 X101.895 Y128.575 E6.82174
G1 X101.886 Y128.644 E6.82429
G1 X101.76 Y129.378 E6.85153
G1 X101.747 Y129.441 E6.85389
G1 X101.577 Y130.153 E6.88067
G1 X101.559 Y130.219 E6.88317
G1 X101.339 Y130.924 E6.91019
G1 X101.052 Y131.674 E6.93957
G1 X101.024 Y131.74 E6.94219
G1 X100.709 Y132.41 E6.96928
G1 X100.68 Y132.468 E6.97165
G1 X100.324 Y133.114 E6.99864
G1 X100.291 Y133.169 E7.00099
G1 X99.893 Y133.792 E7.02803
G1 X99.852 Y133.851 E7.03066
G1 X99.41 Y134.445 E7.05775
G1 X99.369 Y134.497 E7.06017
G1 X98.893 Y135.055 E7.08701
G1 X98.848 Y135.104 E7.08944
G1 X98.329 Y135.637 E7.11666
G1 X98.281 Y135.684 E7.11912
G1 X97.73 Y136.178 E7.14619
G1 X97.678 Y136.221 E7.14866
G1 X97.092 Y136.679 E7.17587
G1 X97.037 Y136.719 E7.17836
G1 X96.429 Y137.131 E7.20523
G1 X95.744 Y137.535 E7.23433
G1 X95.308 Y137.761 E7.25229
G1 X94.646 Y138.063 E7.27891
G1 X94.584 Y138.089 E7.28137
G1 X93.885 Y138.353 E7.30871
G1 X93.821 Y138.374 E7.31118
G1 X93.12 Y138.586 E7.33797
G1 X93.055 Y138.604 E7.34044
G1 X92.329 Y138.771 E7.36769
G1 X92.265 Y138.783 E7.37007
G1 X91.543 Y138.9 E7.39683
G1 X91.476 Y138.909 E7.39931
G1 X90.738 Y138.978 E7.42643
G1 X90.669 Y138.982 E7.42895
G1 X89.93 Y139 E7.456
G1 X89.863 Y138.999 E7.45845
G1 X89.116 Y138.967 E7.48581
G1 X89.048 Y138.962 E7.4883
G1 X88.321 Y138.881 E7.51506
G1 X88.258 Y138.872 E7.51739
G1 X87.53 Y138.743 E7.54444
G1 X87.462 Y138.728 E7.54699
G1 X86.741 Y138.548 E7.57418
G1 X86.677 Y138.53 E7.57661
G1 X85.979 Y138.306 E7.60343
G1 X85.915 Y138.283 E7.60592
G1 X85.22 Y138.006 E7.63329
G1 X85.16 Y137.98 E7.63568
G1 X84.495 Y137.663 E7.66264
G1 X84.434 Y137.631 E7.66516
G1 X83.79 Y137.268 E7.6922
G1 X83.734 Y137.234 E7.6946
G1 X83.12 Y136.833 E7.72143
G1 X83.063 Y136.793 E7.72398
G1 X82.468 Y136.342 E7.75129
G1 X82.418 Y136.302 E7.75364
G1 X81.866 Y135.825 E7.78033
