;FLAVOR:Marlin
;TIME:2712
;Filament used: 0m, 0.241932m
;Layer height: 0.1
;MINX:69.578
;MINY:119.577
;MINZ:0.2
;MAXX:97.425
;MAXY:134.42
;MAXZ:5.5
;Generated with Cura_SteamEngine 4.12.1
T1
M140 S40
M105
M190 S40
M104 S145
M105
M109 S145
M82 ;absolute extrusion mode
M605 S0 ; set x-carriage mode to independent control
T0 ; Switch to left extruder
G28 ; home all axes
G1 X210 Y40 Z0.1 F10000 ; go to wait position
G92 E0 ; reset extrusion distance
G1 X195 F5000 ; scrape off any ooze from heating
G1 Z7 ; move the bed down to avoid collision
G1 X40 Y6 F10000 ; move toolhead to the unused front edge
G1 Z0.20 F1000 ; move bed to prime start position
G1 X160 F1000 ; prime the nozzle
G1 X170 Z0.05 F5000 ; quick wipe
G1 Z7 ; move the bed down
G1 X-25 F5000 ; move T0 to home position
T1 ; switch to T1
G1 X210 Y40 Z0.1 F10000 ; go to wait position
G92 E0 ; reset extrusion distance
G1 X195 F5000 ; scrape off any ooze from heating
G1 Z7 ; move the bed down to avoid collision
G1 X40 Y7 F10000 ; move toolhead to the unused front edge
G1 Z0.20 F1000 ; move bed to prime start position
G1 X160 F1000 ; prime the nozzle
G1 X170 Z0.05 F5000 ; quick wipe
G1 Z7 ; move the bed down
G28 X ; home T1 toolhead
G92 E0
T0
G1 X-25 F18000 ; park T0
T1
G1 X250 F18000 ; park T1 and start
G92 E0
G1 F600 E-1
;LAYER_COUNT:54
;LAYER:0
M107
G0 F3600 X73.014 Y120.736 Z0.2
;TYPE:SKIRT
G1 F600 E0
G1 F300 X73.452 Y120.478 E0.01627
G1 X73.907 Y120.25 E0.03257
G1 X74.38 Y120.053 E0.04897
G1 X74.945 Y119.866 E0.06802
G1 X75.593 Y119.709 E0.08937
G1 X76.112 Y119.629 E0.10618
G1 X76.618 Y119.586 E0.12243
G1 X77.126 Y119.577 E0.1387
G1 X77.63 Y119.602 E0.15485
G1 X78.142 Y119.664 E0.17136
G1 X78.641 Y119.759 E0.18762
G1 X79.132 Y119.888 E0.20388
G1 X79.617 Y120.052 E0.22027
G1 X80.091 Y120.25 E0.23671
G1 X80.54 Y120.474 E0.25277
G1 X80.984 Y120.736 E0.26928
G1 X81.401 Y121.022 E0.28547
G1 X81.803 Y121.339 E0.30185
G1 X82.179 Y121.68 E0.3181
G1 X82.532 Y122.049 E0.33445
G1 X82.86 Y122.442 E0.35084
G1 X83.159 Y122.857 E0.36721
G1 X83.426 Y123.283 E0.38331
G1 X83.504 Y123.406 E0.38797
G1 X83.768 Y122.964 E0.40445
G1 X84.064 Y122.542 E0.42095
G1 X84.379 Y122.15 E0.43705
G1 X84.727 Y121.774 E0.45345
G1 X85.098 Y121.424 E0.46978
G1 X85.491 Y121.102 E0.48605
G1 X85.909 Y120.806 E0.50244
G1 X86.341 Y120.541 E0.51867
G1 X86.794 Y120.304 E0.53503
G1 X87.391 Y120.048 E0.55583
G1 X87.871 Y119.888 E0.57203
G1 X88.355 Y119.761 E0.58804
G1 X88.858 Y119.664 E0.60444
G1 X89.371 Y119.602 E0.62099
G1 X89.874 Y119.577 E0.63711
G1 X90.384 Y119.586 E0.65344
G1 X90.894 Y119.63 E0.66982
G1 X91.399 Y119.709 E0.68619
G1 X91.89 Y119.821 E0.70231
G1 X92.382 Y119.968 E0.71875
G1 X92.857 Y120.147 E0.735
G1 X93.324 Y120.361 E0.75144
G1 X93.768 Y120.603 E0.76763
G1 X94.198 Y120.876 E0.78394
G1 X94.61 Y121.18 E0.80033
G1 X95 Y121.511 E0.8167
G1 X95.365 Y121.868 E0.83305
G1 X95.701 Y122.244 E0.84919
G1 X96.016 Y122.649 E0.86561
G1 X96.3 Y123.071 E0.8819
G1 X96.554 Y123.511 E0.89816
G1 X96.78 Y123.972 E0.9146
G1 X96.971 Y124.444 E0.9309
G1 X97.13 Y124.928 E0.94721
G1 X97.255 Y125.421 E0.96349
G1 X97.346 Y125.924 E0.97985
G1 X97.402 Y126.426 E0.99602
G1 X97.425 Y126.942 E1.01256
G1 X97.411 Y127.446 E1.0287
G1 X97.363 Y127.955 E1.04507
G1 X97.28 Y128.459 E1.06142
G1 X97.162 Y128.957 E1.0778
G1 X97.012 Y129.439 E1.09396
G1 X96.827 Y129.917 E1.11037
G1 X96.612 Y130.377 E1.12663
G1 X96.363 Y130.827 E1.14309
G1 X96.087 Y131.251 E1.15929
G1 X95.782 Y131.657 E1.17554
G1 X95.448 Y132.044 E1.19191
G1 X95.087 Y132.408 E1.20832
G1 X94.707 Y132.742 E1.22451
G1 X94.3 Y133.053 E1.24091
G1 X93.875 Y133.333 E1.2572
G1 X93.432 Y133.584 E1.2735
G1 X92.97 Y133.805 E1.2899
G1 X92.495 Y133.992 E1.30624
G1 X91.861 Y134.187 E1.32748
G1 X91.262 Y134.317 E1.3471
G1 X90.76 Y134.385 E1.36332
G1 X90.25 Y134.42 E1.37968
G1 X89.748 Y134.42 E1.39575
G1 X89.232 Y134.385 E1.41231
G1 X88.731 Y134.315 E1.4285
G1 X88.232 Y134.211 E1.44482
G1 X87.743 Y134.073 E1.46108
G1 X87.252 Y133.897 E1.47778
G1 X86.462 Y133.527 E1.50571
G1 X86.016 Y133.264 E1.52228
G1 X85.596 Y132.977 E1.53857
G1 X85.196 Y132.66 E1.55491
G1 X84.82 Y132.319 E1.57116
G1 X84.467 Y131.95 E1.58751
G1 X84.139 Y131.557 E1.60389
G1 X83.841 Y131.146 E1.62014
G1 X83.57 Y130.709 E1.63661
G1 X83.493 Y130.599 E1.6409
G1 X83.23 Y131.038 E1.65729
G1 X82.939 Y131.455 E1.67356
G1 X82.621 Y131.85 E1.6898
G1 X82.273 Y132.226 E1.7062
G1 X81.902 Y132.576 E1.72253
G1 X81.509 Y132.898 E1.73879
G1 X81.091 Y133.194 E1.75519
G1 X80.66 Y133.459 E1.77139
G1 X80.204 Y133.697 E1.78785
G1 X79.744 Y133.899 E1.80394
G1 X79.259 Y134.072 E1.82042
G1 X78.768 Y134.211 E1.83676
G1 X78.271 Y134.315 E1.85301
G1 X77.767 Y134.385 E1.8693
G1 X77.253 Y134.42 E1.88579
G1 X76.749 Y134.42 E1.90193
G1 X76.239 Y134.385 E1.91829
G1 X75.733 Y134.315 E1.93465
G1 X75.232 Y134.21 E1.95103
G1 X74.747 Y134.074 E1.96716
G1 X74.264 Y133.902 E1.98357
G1 X73.798 Y133.699 E1.99984
G1 X73.343 Y133.461 E2.01628
G1 X72.911 Y133.197 E2.03249
G1 X72.496 Y132.903 E2.04877
G1 X72.1 Y132.578 E2.06517
G1 X71.728 Y132.228 E2.08152
G1 X71.381 Y131.852 E2.0979
G1 X71.064 Y131.46 E2.11404
G1 X70.771 Y131.04 E2.13043
G1 X70.508 Y130.603 E2.14676
G1 X70.277 Y130.152 E2.16298
G1 X70.075 Y129.679 E2.17945
G1 X69.908 Y129.198 E2.19575
G1 X69.774 Y128.707 E2.21204
G1 X69.674 Y128.208 E2.22833
G1 X69.609 Y127.702 E2.24466
G1 X69.578 Y127.196 E2.26089
G1 X69.582 Y126.681 E2.27738
G1 X69.621 Y126.178 E2.29353
G1 X69.695 Y125.672 E2.3099
G1 X69.804 Y125.172 E2.32628
G1 X69.947 Y124.682 E2.34262
G1 X70.121 Y124.207 E2.35882
G1 X70.33 Y123.74 E2.3752
G1 X70.568 Y123.291 E2.39147
G1 X70.84 Y122.855 E2.40792
G1 X71.137 Y122.445 E2.42412
G1 X71.462 Y122.055 E2.44038
G1 X71.816 Y121.685 E2.45677
G1 X72.194 Y121.341 E2.47313
G1 X72.591 Y121.026 E2.48935
G1 X73.014 Y120.736 E2.50577
G0 F3600 X72.896 Y121.238
G1 F300 X73.627 Y120.781 E2.53337
G1 X74.162 Y120.52 E2.55243
G1 X74.962 Y120.226 E2.57971
G1 X75.67 Y120.051 E2.60306
G1 X76.267 Y119.964 E2.62237
G1 X77.128 Y119.927 E2.64996
G1 X77.722 Y119.962 E2.66901
G1 X78.572 Y120.103 E2.69659
G1 X79.146 Y120.259 E2.71563
G1 X79.952 Y120.572 E2.74331
G1 X80.479 Y120.841 E2.76226
G1 X81.201 Y121.309 E2.7898
G1 X81.664 Y121.681 E2.80881
G1 X82.278 Y122.289 E2.83648
G1 X82.656 Y122.751 E2.85559
G1 X83.128 Y123.466 E2.88301
G1 X83.405 Y123.996 E2.90216
G1 X83.5 Y124.214 E2.90977
G1 X83.814 Y123.567 E2.93279
G1 X84.128 Y123.054 E2.95205
G1 X84.65 Y122.371 E2.97957
G1 X85.059 Y121.937 E2.99866
G1 X85.711 Y121.375 E3.02621
G1 X86.198 Y121.035 E3.04523
G1 X86.953 Y120.616 E3.07287
G1 X87.505 Y120.379 E3.0921
G1 X88.324 Y120.128 E3.11952
G1 X88.903 Y120.011 E3.13843
G1 X89.767 Y119.93 E3.16621
G1 X89.872 Y119.927 E3.16958
G1 X90.734 Y119.964 E3.1972
G1 X91.324 Y120.051 E3.21629
G1 X92.156 Y120.262 E3.24377
G1 X92.714 Y120.467 E3.2628
G1 X93.492 Y120.848 E3.29053
G1 X93.993 Y121.16 E3.30942
G1 X94.676 Y121.691 E3.33712
G1 X95.106 Y122.103 E3.35618
G1 X95.662 Y122.758 E3.38369
G1 X95.998 Y123.249 E3.40273
G1 X96.41 Y124.005 E3.4303
G1 X96.639 Y124.556 E3.4494
G1 X96.887 Y125.382 E3.47701
G1 X96.999 Y125.966 E3.49604
G1 X97.073 Y126.823 E3.52358
G1 X97.062 Y127.417 E3.5426
G1 X96.959 Y128.274 E3.57023
G1 X96.827 Y128.856 E3.58934
G1 X96.551 Y129.67 E3.61685
G1 X96.305 Y130.21 E3.63585
G1 X95.865 Y130.956 E3.66357
G1 X95.515 Y131.431 E3.68246
G1 X94.933 Y132.071 E3.71015
G1 X94.492 Y132.466 E3.72911
G1 X93.79 Y132.973 E3.75683
G1 X93.278 Y133.27 E3.77578
G1 X92.488 Y133.622 E3.80346
G1 X91.963 Y133.796 E3.82117
G1 X91.33 Y133.949 E3.84202
G1 X90.733 Y134.036 E3.86133
G1 X89.873 Y134.073 E3.88889
G1 X89.277 Y134.038 E3.908
G1 X88.429 Y133.898 E3.93552
G1 X87.858 Y133.742 E3.95446
G1 X87.046 Y133.427 E3.98235
G1 X86.521 Y133.159 E4.00122
G1 X85.797 Y132.69 E4.02883
G1 X85.335 Y132.318 E4.04782
G1 X84.721 Y131.71 E4.07548
G1 X84.345 Y131.251 E4.09448
G1 X83.869 Y130.527 E4.12221
G1 X83.597 Y130.006 E4.14103
G1 X83.5 Y129.786 E4.14873
G1 X83.183 Y130.438 E4.17194
G1 X82.873 Y130.944 E4.19093
G1 X82.35 Y131.629 E4.21852
G1 X81.941 Y132.063 E4.23761
G1 X81.289 Y132.625 E4.26517
G1 X80.803 Y132.964 E4.28414
G1 X80.045 Y133.385 E4.3119
G1 X79.501 Y133.618 E4.33084
G1 X78.676 Y133.873 E4.35848
G1 X78.097 Y133.989 E4.37739
G1 X77.233 Y134.07 E4.40517
G1 X76.643 Y134.065 E4.42406
G1 X75.784 Y133.969 E4.45173
G1 X75.207 Y133.843 E4.47063
G1 X74.385 Y133.573 E4.49833
G1 X73.841 Y133.33 E4.5174
G1 X73.096 Y132.9 E4.54494
G1 X72.614 Y132.551 E4.56399
G1 X71.971 Y131.975 E4.59163
G1 X71.573 Y131.538 E4.61055
G1 X71.06 Y130.842 E4.63823
G1 X70.759 Y130.332 E4.65719
G1 X70.399 Y129.544 E4.68492
G1 X70.209 Y128.983 E4.70388
G1 X70.018 Y128.142 E4.73149
G1 X69.947 Y127.555 E4.75042
G1 X69.932 Y126.688 E4.77818
G1 X69.983 Y126.099 E4.7971
G1 X70.145 Y125.249 E4.82481
G1 X70.316 Y124.684 E4.8437
G1 X70.648 Y123.885 E4.8714
G1 X70.932 Y123.362 E4.89045
G1 X71.419 Y122.653 E4.91799
G1 X71.803 Y122.2 E4.937
G1 X72.427 Y121.602 E4.96467
G1 X72.896 Y121.238 E4.98367
G0 F3600 X73.475 Y121.273
G1 F300 X74.215 Y120.879 E5.01051
G1 X74.723 Y120.673 E5.02806
G1 X75.323 Y120.488 E5.04816
G1 X75.838 Y120.376 E5.06503
G1 X76.671 Y120.284 E5.09186
G1 X77.212 Y120.279 E5.10918
G1 X78.052 Y120.358 E5.13619
G1 X78.584 Y120.465 E5.15356
G1 X79.387 Y120.713 E5.18047
G1 X79.887 Y120.927 E5.19788
G1 X80.623 Y121.335 E5.22482
G1 X81.07 Y121.647 E5.24227
G1 X81.703 Y122.194 E5.26905
G1 X82.079 Y122.593 E5.2866
G1 X82.588 Y123.261 E5.31349
G1 X82.872 Y123.724 E5.33087
G1 X83.235 Y124.482 E5.35778
G1 X83.418 Y124.993 E5.37516
G1 X83.501 Y125.285 E5.38487
G1 X83.733 Y124.562 E5.40918
G1 X83.951 Y124.064 E5.42658
G1 X84.365 Y123.33 E5.45356
G1 X84.682 Y122.885 E5.47105
G1 X85.236 Y122.254 E5.49793
G1 X85.636 Y121.884 E5.51538
G1 X86.309 Y121.38 E5.54229
G1 X86.775 Y121.1 E5.5597
G1 X87.528 Y120.745 E5.58635
G1 X88.054 Y120.564 E5.60416
G1 X88.864 Y120.372 E5.6308
G1 X89.411 Y120.301 E5.64846
G1 X89.869 Y120.277 E5.66314
G1 X90.707 Y120.313 E5.69
G1 X91.249 Y120.392 E5.70753
G1 X92.058 Y120.598 E5.73425
G1 X92.571 Y120.786 E5.75175
G1 X93.327 Y121.157 E5.7787
G1 X93.788 Y121.444 E5.79609
G1 X94.452 Y121.959 E5.82299
G1 X94.846 Y122.338 E5.84049
G1 X95.387 Y122.975 E5.86724
G1 X95.697 Y123.426 E5.88476
G1 X96.097 Y124.162 E5.91158
G1 X96.308 Y124.668 E5.92913
G1 X96.549 Y125.471 E5.95597
G1 X96.651 Y126.008 E5.97347
G1 X96.723 Y126.841 E6.00023
G1 X96.714 Y127.387 E6.01772
G1 X96.613 Y128.22 E6.04458
G1 X96.492 Y128.755 E6.06214
G1 X96.224 Y129.547 E6.0889
G1 X95.997 Y130.043 E6.10637
G1 X95.57 Y130.768 E6.1333
G1 X95.248 Y131.205 E6.15068
G1 X94.682 Y131.827 E6.1776
G1 X94.277 Y132.19 E6.19501
G1 X93.595 Y132.683 E6.22195
G1 X93.124 Y132.955 E6.23936
G1 X92.357 Y133.298 E6.26626
G1 X91.871 Y133.459 E6.28265
G1 X91.254 Y133.608 E6.30297
G1 X90.707 Y133.687 E6.32066
G1 X89.87 Y133.723 E6.34748
G1 X89.323 Y133.691 E6.36502
G1 X88.497 Y133.554 E6.39183
G1 X87.972 Y133.412 E6.40924
G1 X87.184 Y133.106 E6.4363
G1 X86.701 Y132.86 E6.45365
G1 X85.997 Y132.403 E6.48052
G1 X85.573 Y132.061 E6.49796
G1 X84.976 Y131.47 E6.52485
G1 X84.631 Y131.048 E6.5423
G1 X84.168 Y130.345 E6.56925
G1 X83.917 Y129.865 E6.58659
G1 X83.607 Y129.083 E6.61352
G1 X83.501 Y128.715 E6.62578
G1 X83.265 Y129.441 E6.65022
G1 X83.047 Y129.94 E6.66765
G1 X82.633 Y130.672 E6.69457
G1 X82.318 Y131.115 E6.71197
G1 X81.764 Y131.746 E6.73885
G1 X81.364 Y132.116 E6.7563
G1 X80.691 Y132.62 E6.78321
G1 X80.223 Y132.902 E6.8007
G1 X79.467 Y133.256 E6.82743
G1 X78.948 Y133.436 E6.84501
G1 X78.133 Y133.628 E6.87182
G1 X77.589 Y133.699 E6.88938
G1 X76.754 Y133.72 E6.91612
G1 X76.208 Y133.678 E6.93365
G1 X75.382 Y133.527 E6.96053
G1 X74.86 Y133.375 E6.97794
G1 X74.084 Y133.06 E7.00475
G1 X73.602 Y132.803 E7.02223
G1 X72.906 Y132.335 E7.04908
G1 X72.485 Y131.984 E7.06663
G1 X71.9 Y131.382 E7.0935
G1 X71.561 Y130.955 E7.11096
G1 X71.111 Y130.248 E7.13779
G1 X70.867 Y129.759 E7.15528
G1 X70.571 Y128.974 E7.18214
G1 X70.433 Y128.447 E7.19958
G1 X70.304 Y127.618 E7.22644
G1 X70.275 Y127.071 E7.24397
G1 X70.318 Y126.237 E7.27071
G1 X70.403 Y125.696 E7.28824
G1 X70.617 Y124.884 E7.31512
G1 X70.809 Y124.374 E7.33256
G1 X71.183 Y123.625 E7.35936
G1 X71.477 Y123.164 E7.37687
G1 X71.996 Y122.507 E7.40367
G1 X72.379 Y122.114 E7.42124
G1 X73.021 Y121.578 E7.44801
G1 X73.475 Y121.273 E7.46552
G0 F3600 X73.236 Y121.855
G1 F300 X73.977 Y121.387 E7.49358
G1 X74.775 Y121.026 E7.52162
G1 X75.415 Y120.826 E7.54308
G1 X76.262 Y120.668 E7.57066
G1 X77.134 Y120.627 E7.59861
G1 X78.006 Y120.705 E7.62664
G1 X78.857 Y120.902 E7.6546
G1 X79.676 Y121.215 E7.68267
G1 X80.442 Y121.635 E7.71063
G1 X81.144 Y122.157 E7.73864
G1 X81.768 Y122.769 E7.76662
G1 X82.302 Y123.463 E7.79465
G1 X82.737 Y124.221 E7.82263
G1 X83.063 Y125.032 E7.85061
G1 X83.276 Y125.881 E7.87863
G1 X83.369 Y126.751 E7.90664
G1 X83.343 Y127.626 E7.93467
G1 X83.199 Y128.488 E7.96264
G1 X82.936 Y129.323 E7.99067
G1 X82.562 Y130.114 E8.01868
G1 X82.083 Y130.846 E8.04668
G1 X81.509 Y131.506 E8.07469
G1 X80.85 Y132.08 E8.10266
G1 X80.118 Y132.56 E8.13068
G1 X79.329 Y132.934 E8.15864
G1 X78.493 Y133.197 E8.18669
G1 X77.631 Y133.344 E8.21469
G1 X76.757 Y133.37 E8.24268
G1 X75.886 Y133.277 E8.27072
G1 X75.039 Y133.066 E8.29866
G1 X74.226 Y132.74 E8.3267
G1 X73.466 Y132.306 E8.35472
G1 X72.772 Y131.772 E8.38275
G1 X72.159 Y131.147 E8.41078
G1 X71.637 Y130.446 E8.43876
G1 X71.216 Y129.681 E8.46671
G1 X70.903 Y128.862 E8.49478
G1 X70.706 Y128.01 E8.52277
G1 X70.626 Y127.14 E8.55074
G1 X70.667 Y126.267 E8.57872
G1 X70.828 Y125.405 E8.60679
G1 X71.104 Y124.576 E8.63476
G1 X71.491 Y123.792 E8.66275
G1 X71.983 Y123.068 E8.69078
G1 X72.568 Y122.417 E8.7188
G1 X73.236 Y121.855 E8.74674
G0 F3600 X73.451 Y122.131
G1 F300 X74.152 Y121.69 E8.77325
G1 X74.907 Y121.351 E8.79975
G1 X75.508 Y121.164 E8.8199
G1 X76.312 Y121.014 E8.84608
G1 X77.137 Y120.977 E8.87252
G1 X77.961 Y121.052 E8.899
G1 X78.765 Y121.239 E8.92543
G1 X79.538 Y121.537 E8.95195
G1 X80.262 Y121.935 E8.9784
G1 X80.924 Y122.429 E9.00484
G1 X81.513 Y123.009 E9.03131
G1 X82.017 Y123.666 E9.05781
G1 X82.426 Y124.383 E9.08424
G1 X82.733 Y125.15 E9.11069
G1 X82.933 Y125.953 E9.13718
G1 X83.02 Y126.775 E9.16364
G1 X82.994 Y127.602 E9.19013
G1 X82.856 Y128.416 E9.21656
G1 X82.606 Y129.205 E9.24305
G1 X82.252 Y129.953 E9.26955
G1 X81.798 Y130.643 E9.29599
G1 X81.254 Y131.266 E9.32246
G1 X80.63 Y131.808 E9.34892
G1 X79.938 Y132.26 E9.37538
G1 X79.191 Y132.612 E9.40182
G1 X78.401 Y132.86 E9.42833
G1 X77.586 Y132.997 E9.45478
G1 X76.76 Y133.02 E9.48124
G1 X75.937 Y132.93 E9.50774
G1 X75.136 Y132.729 E9.53418
G1 X74.369 Y132.42 E9.56065
G1 X73.651 Y132.009 E9.58713
G1 X72.997 Y131.503 E9.6136
G1 X72.418 Y130.912 E9.64009
G1 X71.926 Y130.249 E9.66652
G1 X71.529 Y129.524 E9.69298
G1 X71.235 Y128.75 E9.71949
G1 X71.049 Y127.945 E9.74594
G1 X70.976 Y127.122 E9.77239
G1 X71.016 Y126.296 E9.79886
G1 X71.169 Y125.482 E9.82537
G1 X71.432 Y124.699 E9.85182
G1 X71.798 Y123.959 E9.87825
G1 X72.264 Y123.276 E9.90471
G1 X72.819 Y122.662 E9.93121
G1 X73.451 Y122.131 E9.95764
G0 F3600 X73.666 Y122.407
G1 F300 X74.327 Y121.993 E9.9826
G1 X75.038 Y121.675 E10.00754
G1 X75.6 Y121.501 E10.02637
G1 X76.362 Y121.361 E10.05117
G1 X77.14 Y121.327 E10.0761
G1 X77.916 Y121.399 E10.10105
G1 X78.674 Y121.577 E10.12598
G1 X79.4 Y121.858 E10.1509
G1 X80.081 Y122.235 E10.17582
G1 X80.705 Y122.702 E10.20077
G1 X81.258 Y123.249 E10.22567
G1 X81.731 Y123.868 E10.25061
G1 X82.116 Y124.545 E10.27554
G1 X82.404 Y125.268 E10.30046
G1 X82.59 Y126.024 E10.32538
G1 X82.671 Y126.799 E10.35032
G1 X82.645 Y127.578 E10.37528
G1 X82.513 Y128.345 E10.40019
G1 X82.277 Y129.087 E10.42512
G1 X81.941 Y129.791 E10.45009
G1 X81.513 Y130.44 E10.47498
G1 X80.999 Y131.026 E10.49993
G1 X80.411 Y131.535 E10.52483
G1 X79.757 Y131.96 E10.5498
G1 X79.053 Y132.291 E10.5747
G1 X78.309 Y132.522 E10.59964
G1 X77.541 Y132.65 E10.62456
G1 X76.763 Y132.67 E10.64948
G1 X75.988 Y132.584 E10.67444
G1 X75.233 Y132.393 E10.69937
G1 X74.512 Y132.101 E10.72427
G1 X73.836 Y131.712 E10.74924
G1 X73.221 Y131.234 E10.77418
G1 X72.677 Y130.677 E10.7991
G1 X72.215 Y130.051 E10.82401
