;FLAVOR:Marlin
;TIME:1263
;Filament used: 0m, 0.110764m
;Layer height: 0.1
;MINX:82.853
;MINY:119.855
;MINZ:0.2
;MAXX:97.14
;MAXY:134.144
;MAXZ:5.5
;Generated with Cura_SteamEngine 4.12.1
T1
M140 S40
M105
M190 S40
M104 S145
M105
M109 S145
M82 ;absolute extrusion mode
M605 S0 ; set x-carriage mode to independent control
T0 ; Switch to left extruder
G28 ; home all axes
G1 X210 Y40 Z0.1 F10000 ; go to wait position
G92 E0 ; reset extrusion distance
G1 X195 F5000 ; scrape off any ooze from heating
G1 Z7 ; move the bed down to avoid collision
G1 X40 Y6 F10000 ; move toolhead to the unused front edge
G1 Z0.20 F1000 ; move bed to prime start position
G1 X160 F1000 ; prime the nozzle
G1 X170 Z0.05 F5000 ; quick wipe
G1 Z7 ; move the bed down
G1 X-25 F5000 ; move T0 to home position
T1 ; switch to T1
G1 X210 Y40 Z0.1 F10000 ; go to wait position
G92 E0 ; reset extrusion distance
G1 X195 F5000 ; scrape off any ooze from heating
G1 Z7 ; move the bed down to avoid collision
G1 X40 Y7 F10000 ; move toolhead to the unused front edge
G1 Z0.20 F1000 ; move bed to prime start position
G1 X160 F1000 ; prime the nozzle
G1 X170 Z0.05 F5000 ; quick wipe
G1 Z7 ; move the bed down
G28 X ; home T1 toolhead
G92 E0
T0
G1 X-25 F18000 ; park T0
T1
G1 X250 F18000 ; park T1 and start
G92 E0
G1 F600 E-1
;LAYER_COUNT:54
;LAYER:0
M107
G0 F3600 X84.237 Y120.639 Z0.2
;TYPE:SKIRT
G1 F600 E0
G1 F300 X84.724 Y120.314 E0.01874
G1 X85.361 Y120.037 E0.04098
G1 X86.107 Y119.877 E0.0654
G1 X86.585 Y119.855 E0.08072
G1 X87.278 Y119.937 E0.10306
G1 X87.908 Y120.137 E0.12422
G1 X88.531 Y120.47 E0.14684
G1 X89.031 Y120.876 E0.16746
G1 X89.485 Y121.405 E0.18977
G1 X89.783 Y121.911 E0.20857
G1 X89.997 Y122.461 E0.22746
G1 X90.12 Y123.067 E0.24726
G1 X90.142 Y123.358 E0.2566
G1 X90.778 Y123.437 E0.27712
G1 X91.403 Y123.635 E0.29811
G1 X92.022 Y123.965 E0.32056
G1 X92.531 Y124.376 E0.34151
G1 X92.985 Y124.905 E0.36382
G1 X93.283 Y125.411 E0.38262
G1 X93.497 Y125.961 E0.40151
G1 X93.62 Y126.567 E0.42131
G1 X93.642 Y126.858 E0.43065
G1 X94.278 Y126.937 E0.45117
G1 X94.919 Y127.142 E0.47271
G1 X95.533 Y127.472 E0.49503
G1 X96.028 Y127.873 E0.51542
G1 X96.478 Y128.395 E0.53748
G1 X96.783 Y128.911 E0.55667
G1 X96.997 Y129.461 E0.57557
G1 X97.12 Y130.067 E0.59536
G1 X97.14 Y130.734 E0.61672
G1 X97.055 Y131.32 E0.63568
G1 X96.87 Y131.897 E0.65508
G1 X96.565 Y132.474 E0.67597
G1 X96.218 Y132.935 E0.69444
G1 X95.743 Y133.373 E0.71513
G1 X95.244 Y133.703 E0.73428
G1 X94.673 Y133.953 E0.75423
G1 X93.978 Y134.114 E0.77707
G1 X93.34 Y134.144 E0.79752
G1 X92.781 Y134.076 E0.81554
G1 X92.122 Y133.875 E0.8376
G1 X91.521 Y133.563 E0.85928
G1 X91.065 Y133.216 E0.87762
G1 X90.662 Y132.791 E0.89637
G1 X90.277 Y132.202 E0.9189
G1 X90.028 Y131.616 E0.93928
G1 X89.895 Y131.049 E0.95792
G1 X89.857 Y130.641 E0.97104
G1 X89.281 Y130.576 E0.9896
G1 X88.622 Y130.375 E1.01165
G1 X88.021 Y130.063 E1.03333
G1 X87.557 Y129.709 E1.05202
G1 X87.159 Y129.287 E1.07059
G1 X86.777 Y128.702 E1.09295
G1 X86.528 Y128.116 E1.11334
G1 X86.395 Y127.546 E1.13207
G1 X86.357 Y127.141 E1.14509
G1 X85.781 Y127.076 E1.16365
G1 X85.122 Y126.875 E1.18571
G1 X84.521 Y126.563 E1.20739
G1 X84.065 Y126.216 E1.22573
G1 X83.662 Y125.791 E1.24448
G1 X83.277 Y125.202 E1.267
G1 X83.028 Y124.616 E1.28739
G1 X82.895 Y124.049 E1.30603
G1 X82.853 Y123.476 E1.32442
G1 X82.923 Y122.795 E1.34634
G1 X83.104 Y122.172 E1.36711
G1 X83.415 Y121.557 E1.38917
G1 X83.813 Y121.034 E1.41021
G1 X84.237 Y120.639 E1.42876
G0 F3600 X84.299 Y121.044
G1 F300 X84.712 Y120.73 E1.44537
G1 X85.227 Y120.46 E1.46398
G1 X85.858 Y120.269 E1.48509
G1 X86.564 Y120.204 E1.50779
G1 X87.192 Y120.276 E1.52802
G1 X87.76 Y120.455 E1.54709
G1 X88.328 Y120.755 E1.56765
G1 X88.778 Y121.118 E1.58616
G1 X89.193 Y121.597 E1.60645
G1 X89.464 Y122.054 E1.62346
G1 X89.658 Y122.551 E1.64054
G1 X89.772 Y123.096 E1.65836
G1 X89.792 Y123.702 E1.67777
G1 X90.333 Y123.72 E1.6951
G1 X90.921 Y123.834 E1.71427
G1 X91.511 Y124.071 E1.73463
G1 X92.003 Y124.381 E1.75325
G1 X92.477 Y124.826 E1.77406
G1 X92.813 Y125.279 E1.79211
G1 X93.056 Y125.76 E1.80937
G1 X93.213 Y126.258 E1.82608
G1 X93.294 Y126.866 E1.84572
G1 X93.291 Y127.217 E1.85695
G1 X93.833 Y127.22 E1.87431
G1 X94.421 Y127.334 E1.89348
G1 X95.034 Y127.584 E1.91467
G1 X95.504 Y127.881 E1.93247
G1 X95.97 Y128.318 E1.95292
G1 X96.31 Y128.775 E1.97116
G1 X96.556 Y129.26 E1.98857
G1 X96.713 Y129.758 E2.00528
G1 X96.794 Y130.366 E2.02492
G1 X96.771 Y130.926 E2.04286
G1 X96.663 Y131.439 E2.05964
G1 X96.454 Y131.966 E2.07779
G1 X96.116 Y132.504 E2.09813
G1 X95.724 Y132.932 E2.11671
G1 X95.253 Y133.292 E2.13569
G1 X94.771 Y133.542 E2.15307
G1 X94.201 Y133.72 E2.17219
G1 X93.564 Y133.797 E2.19273
G1 X93.042 Y133.766 E2.20947
G1 X92.515 Y133.644 E2.22679
G1 X91.902 Y133.384 E2.2481
G1 X91.452 Y133.085 E2.2654
G1 X91.07 Y132.729 E2.28211
G1 X90.727 Y132.279 E2.30023
G1 X90.429 Y131.7 E2.32107
G1 X90.28 Y131.208 E2.33753
G1 X90.208 Y130.681 E2.35456
G1 X90.215 Y130.287 E2.36717
G1 X89.542 Y130.266 E2.38873
G1 X89.015 Y130.144 E2.40605
G1 X88.402 Y129.884 E2.42736
G1 X87.949 Y129.582 E2.44479
G1 X87.564 Y129.222 E2.46166
G1 X87.227 Y128.779 E2.47948
G1 X86.929 Y128.2 E2.50033
G1 X86.78 Y127.706 E2.51685
G1 X86.707 Y127.142 E2.53505
G1 X86.714 Y126.787 E2.54642
G1 X86.042 Y126.766 E2.56794
G1 X85.515 Y126.644 E2.58526
G1 X84.902 Y126.384 E2.60658
G1 X84.452 Y126.085 E2.62387
G1 X84.07 Y125.729 E2.64059
G1 X83.727 Y125.279 E2.6587
G1 X83.429 Y124.7 E2.67955
G1 X83.28 Y124.208 E2.696
G1 X83.208 Y123.681 E2.71303
G1 X83.226 Y123.121 E2.73097
G1 X83.356 Y122.509 E2.751
G1 X83.582 Y121.968 E2.76977
G1 X83.925 Y121.442 E2.78987
G1 X84.299 Y121.044 E2.80735
G0 F3600 X84.688 Y121.175
G1 F300 X85.084 Y120.915 E2.82252
G1 X85.603 Y120.694 E2.84058
G1 X86.213 Y120.569 E2.86051
G1 X86.544 Y120.554 E2.87112
G1 X87.106 Y120.615 E2.88921
G1 X87.613 Y120.772 E2.90621
G1 X88.124 Y121.04 E2.92468
G1 X88.525 Y121.36 E2.9411
G1 X88.901 Y121.79 E2.95939
G1 X89.236 Y122.403 E2.98175
G1 X89.375 Y122.848 E2.99667
G1 X89.445 Y123.394 E3.0143
G1 X89.422 Y123.893 E3.03029
G1 X89.382 Y124.122 E3.03773
G1 X90.044 Y124.054 E3.05903
G1 X90.606 Y124.115 E3.07713
G1 X91.109 Y124.271 E3.09399
G1 X91.616 Y124.535 E3.11229
G1 X92.025 Y124.86 E3.12901
G1 X92.401 Y125.29 E3.1473
G1 X92.736 Y125.903 E3.16966
G1 X92.875 Y126.348 E3.18459
G1 X92.945 Y126.894 E3.20221
G1 X92.922 Y127.393 E3.2182
G1 X92.882 Y127.622 E3.22564
G1 X93.544 Y127.554 E3.24695
G1 X94.106 Y127.615 E3.26504
G1 X94.62 Y127.776 E3.28229
G1 X95.127 Y128.042 E3.30061
G1 X95.523 Y128.358 E3.31683
G1 X95.895 Y128.782 E3.33489
G1 X96.144 Y129.197 E3.35038
G1 X96.375 Y129.848 E3.3725
G1 X96.445 Y130.394 E3.39012
G1 X96.422 Y130.893 E3.40611
G1 X96.324 Y131.351 E3.4211
G1 X96.135 Y131.821 E3.43732
G1 X95.83 Y132.303 E3.45558
G1 X95.499 Y132.664 E3.47126
G1 X95.076 Y132.99 E3.48836
G1 X94.648 Y133.214 E3.50382
G1 X94.142 Y133.375 E3.52082
G1 X93.568 Y133.447 E3.53934
G1 X92.9 Y133.386 E3.56081
G1 X92.36 Y133.216 E3.57894
G1 X91.882 Y132.963 E3.59625
G1 X91.517 Y132.681 E3.61102
G1 X91.194 Y132.336 E3.62615
G1 X90.882 Y131.85 E3.64463
G1 X90.688 Y131.383 E3.66082
G1 X90.583 Y130.922 E3.67596
G1 X90.552 Y130.46 E3.69078
G1 X90.614 Y129.905 E3.70866
G1 X89.888 Y129.944 E3.73193
G1 X89.4 Y129.886 E3.74767
G1 X88.86 Y129.716 E3.76579
G1 X88.382 Y129.463 E3.7831
G1 X88.01 Y129.175 E3.79816
G1 X87.692 Y128.833 E3.81311
G1 X87.382 Y128.35 E3.83149
G1 X87.188 Y127.883 E3.84768
G1 X87.083 Y127.42 E3.86287
G1 X87.056 Y126.872 E3.88044
G1 X87.119 Y126.38 E3.89632
G1 X86.67 Y126.441 E3.91082
G1 X86.102 Y126.421 E3.92902
G1 X85.634 Y126.315 E3.94438
G1 X85.083 Y126.084 E3.96351
G1 X84.517 Y125.681 E3.98575
G1 X84.194 Y125.336 E4.00088
G1 X83.882 Y124.85 E4.01937
G1 X83.688 Y124.383 E4.03555
G1 X83.583 Y123.922 E4.05069
G1 X83.552 Y123.46 E4.06551
G1 X83.614 Y122.905 E4.08339
G1 X83.764 Y122.406 E4.10007
G1 X84.021 Y121.908 E4.11801
G1 X84.344 Y121.491 E4.1349
G1 X84.688 Y121.175 E4.14985
G0 F3600 X84.913 Y121.443
G1 F300 X85.469 Y121.117 E4.17048
G1 X85.964 Y120.961 E4.1871
G1 X86.523 Y120.903 E4.20509
G1 X87.02 Y120.954 E4.22108
G1 X87.465 Y121.089 E4.23597
G1 X87.921 Y121.325 E4.25241
G1 X88.272 Y121.602 E4.26672
G1 X88.609 Y121.983 E4.28301
G1 X88.917 Y122.545 E4.30352
G1 X89.074 Y123.153 E4.32362
G1 X89.095 Y123.636 E4.3391
G1 X88.985 Y124.262 E4.35945
G1 X88.806 Y124.695 E4.37445
G1 X89.224 Y124.523 E4.38892
G1 X89.766 Y124.415 E4.40661
G1 X90.292 Y124.419 E4.42345
G1 X90.749 Y124.512 E4.43838
G1 X91.217 Y124.706 E4.4546
G1 X91.597 Y124.951 E4.46907
G1 X91.971 Y125.31 E4.48567
G1 X92.325 Y125.839 E4.50604
G1 X92.537 Y126.437 E4.52635
G1 X92.596 Y126.923 E4.54203
G1 X92.539 Y127.555 E4.56234
G1 X92.415 Y127.961 E4.57593
G1 X92.306 Y128.195 E4.5842
G1 X92.724 Y128.023 E4.59867
G1 X93.266 Y127.915 E4.61636
G1 X93.792 Y127.919 E4.6332
G1 X94.249 Y128.012 E4.64813
G1 X94.736 Y128.217 E4.66504
G1 X95.098 Y128.451 E4.67884
G1 X95.465 Y128.803 E4.69512
G1 X95.825 Y129.339 E4.71579
G1 X96.037 Y129.937 E4.7361
G1 X96.096 Y130.423 E4.75177
G1 X96.039 Y131.055 E4.77209
G1 X95.915 Y131.461 E4.78568
G1 X95.705 Y131.871 E4.80042
G1 X95.39 Y132.285 E4.81708
G1 X94.899 Y132.688 E4.83741
G1 X94.525 Y132.887 E4.85097
G1 X94.082 Y133.03 E4.86588
G1 X93.573 Y133.097 E4.88231
G1 X92.96 Y133.041 E4.90202
G1 X92.479 Y132.887 E4.91819
G1 X92.062 Y132.664 E4.93332
G1 X91.602 Y132.274 E4.95263
G1 X91.332 Y131.927 E4.96671
G1 X91.089 Y131.467 E4.98336
G1 X90.927 Y130.858 E5.00353
G1 X90.917 Y130.231 E5.02361
G1 X91.015 Y129.743 E5.03954
G1 X91.195 Y129.306 E5.05467
G1 X90.608 Y129.525 E5.07473
G1 X90.166 Y129.591 E5.08904
G1 X89.662 Y129.576 E5.10518
G1 X89.253 Y129.486 E5.11858
G1 X88.763 Y129.285 E5.13554
G1 X88.236 Y128.908 E5.15628
G1 X87.832 Y128.427 E5.17639
G1 X87.589 Y127.967 E5.19305
G1 X87.427 Y127.357 E5.21325
G1 X87.406 Y126.871 E5.22882
G1 X87.515 Y126.243 E5.24923
G1 X87.691 Y125.808 E5.26425
G1 X87.108 Y126.025 E5.28416
G1 X86.666 Y126.091 E5.29847
G1 X86.162 Y126.076 E5.31461
G1 X85.753 Y125.986 E5.32802
G1 X85.263 Y125.785 E5.34497
G1 X84.743 Y125.414 E5.36542
G1 X84.332 Y124.927 E5.38582
G1 X84.089 Y124.467 E5.40248
G1 X83.927 Y123.858 E5.42265
G1 X83.917 Y123.231 E5.44273
G1 X84.015 Y122.743 E5.45866
G1 X84.188 Y122.318 E5.47335
G1 X84.455 Y121.898 E5.48928
G1 X84.913 Y121.443 E5.50995
G0 F3600 X85.138 Y121.711
G1 F300 X85.59 Y121.445 E5.52674
G1 X86.016 Y121.307 E5.54107
G1 X86.502 Y121.253 E5.55673
G1 X86.934 Y121.294 E5.57062
G1 X87.317 Y121.407 E5.5834
G1 X87.717 Y121.609 E5.59775
G1 X88.019 Y121.844 E5.61
G1 X88.317 Y122.175 E5.62426
G1 X88.597 Y122.688 E5.64297
G1 X88.725 Y123.181 E5.65927
G1 X88.746 Y123.604 E5.67283
G1 X88.647 Y124.174 E5.69135
G1 X88.418 Y124.67 E5.70884
G1 X88.049 Y125.128 E5.72767
G1 X87.716 Y125.39 E5.74123
G1 X87.178 Y125.643 E5.76026
G1 X86.662 Y125.741 E5.77708
G1 X86.222 Y125.731 E5.79117
G1 X85.872 Y125.657 E5.80262
G1 X85.444 Y125.485 E5.81739
G1 X84.968 Y125.146 E5.83609
G1 X84.634 Y124.752 E5.85263
G1 X84.419 Y124.35 E5.86722
G1 X84.272 Y123.795 E5.8856
G1 X84.263 Y123.286 E5.9019
G1 X84.345 Y122.86 E5.91579
G1 X84.491 Y122.494 E5.9284
G1 X84.721 Y122.126 E5.94229
G1 X85.138 Y121.711 E5.96113
G0 F3600 X85.363 Y121.979
G1 F300 X85.711 Y121.773 E5.97407
G1 X86.069 Y121.653 E5.98616
G1 X86.481 Y121.602 E5.99945
G1 X86.848 Y121.633 E6.01124
G1 X87.17 Y121.724 E6.02195
G1 X87.513 Y121.894 E6.03421
G1 X87.766 Y122.086 E6.04438
G1 X88.024 Y122.368 E6.05661
G1 X88.277 Y122.831 E6.0735
G1 X88.376 Y123.209 E6.08601
G1 X88.377 Y123.795 E6.10477
G1 X88.278 Y124.171 E6.11722
G1 X88.132 Y124.469 E6.12784
G1 X87.824 Y124.86 E6.14378
G1 X87.542 Y125.086 E6.15535
G1 X87.056 Y125.315 E6.17254
G1 X86.659 Y125.391 E6.18548
G1 X86.281 Y125.386 E6.19759
G1 X85.717 Y125.229 E6.21633
G1 X85.355 Y125.015 E6.22979
G1 X84.992 Y124.653 E6.2462
G1 X84.749 Y124.234 E6.26171
G1 X84.616 Y123.731 E6.27836
G1 X84.608 Y123.341 E6.29085
G1 X84.675 Y122.977 E6.3027
G1 X84.794 Y122.669 E6.31327
G1 X84.986 Y122.355 E6.32505
G1 X85.363 Y121.979 E6.3421
G0 F3600 X85.588 Y122.247
G1 F300 X85.832 Y122.102 E6.35118
G1 X86.122 Y121.999 E6.36104
G1 X86.46 Y121.951 E6.37196
G1 X86.762 Y121.972 E6.38166
G1 X87.022 Y122.041 E6.39027
G1 X87.489 Y122.307 E6.40747
G1 X87.732 Y122.561 E6.41873
G1 X87.967 Y123 E6.43467
G1 X88.049 Y123.508 E6.45114
G1 X87.969 Y123.997 E6.467
G1 X87.845 Y124.268 E6.47654
G1 X87.599 Y124.592 E6.48956
G1 X87.167 Y124.898 E6.50651
G1 X86.687 Y125.038 E6.52252
G1 X86.341 Y125.041 E6.5336
G1 X85.836 Y124.9 E6.55038
G1 X85.42 Y124.612 E6.56658
G1 X85.24 Y124.4 E6.57548
G1 X85.008 Y123.916 E6.59266
G1 X84.952 Y123.427 E6.60842
G1 X85.005 Y123.094 E6.61921
G1 X85.233 Y122.609 E6.63637
G1 X85.588 Y122.247 E6.6526
G1 F600 E5.6526
G0 F3600 X85.412 Y121.776
G0 X86.104 Y121.499
G0 X86.821 Y121.485
G0 X87.552 Y121.751
G0 X88.106 Y122.244
G0 X88.49 Y123.226
G0 X88.638 Y125.211
G1 F600 E6.6526
G1 F300 X89.09 Y124.945 E6.66939
G1 X89.516 Y124.807 E6.68373
G1 X90.002 Y124.753 E6.69938
G1 X90.434 Y124.794 E6.71327
G1 X90.815 Y124.906 E6.72599
G1 X91.21 Y125.105 E6.74014
G1 X91.519 Y125.344 E6.75265
G1 X91.817 Y125.675 E6.76691
G1 X92.097 Y126.188 E6.78562
G1 X92.225 Y126.681 E6.80192
G1 X92.246 Y127.104 E6.81548
G1 X92.147 Y127.674 E6.834
G1 X91.918 Y128.17 E6.85149
G1 X91.549 Y128.628 E6.87032
G1 X91.036 Y128.995 E6.89051
G1 X90.541 Y129.182 E6.90745
G1 X90.162 Y129.241 E6.91973
G1 X89.722 Y129.231 E6.93382
G1 X89.372 Y129.157 E6.94527
G1 X88.944 Y128.985 E6.96004
G1 X88.463 Y128.641 E6.97897
G1 X88.134 Y128.252 E6.99528
G1 X87.919 Y127.85 E7.00987
G1 X87.771 Y127.293 E7.02832
G1 X87.77 Y126.709 E7.04702
G1 X87.923 Y126.14 E7.06588
G1 X88.221 Y125.626 E7.0849
G1 X88.638 Y125.211 E7.10373
G0 F3600 X88.863 Y125.479
G1 F300 X89.211 Y125.273 E7.11668
G1 X89.569 Y125.153 E7.12877
G1 X89.981 Y125.102 E7.14206
G1 X90.348 Y125.133 E7.15385
G1 X90.668 Y125.224 E7.1645
G1 X91.007 Y125.39 E7.17658
G1 X91.266 Y125.586 E7.18698
G1 X91.524 Y125.868 E7.19922
G1 X91.777 Y126.331 E7.21611
G1 X91.876 Y126.709 E7.22862
G1 X91.877 Y127.295 E7.24737
G1 X91.778 Y127.671 E7.25982
G1 X91.632 Y127.969 E7.27045
G1 X91.324 Y128.36 E7.28638
G1 X90.859 Y128.693 E7.30469
G1 X90.474 Y128.838 E7.31786
G1 X90.159 Y128.891 E7.32808
G1 X89.781 Y128.886 E7.34019
G1 X89.217 Y128.729 E7.35893
G1 X88.854 Y128.514 E7.37243
G1 X88.491 Y128.152 E7.38885
G1 X88.249 Y127.734 E7.40431
G1 X88.116 Y127.23 E7.42099
G1 X88.115 Y126.772 E7.43566
G1 X88.253 Y126.257 E7.45272
G1 X88.486 Y125.855 E7.4676
G1 X88.863 Y125.479 E7.48464
G0 F3600 X88.905 Y125.904
G1 F300 X89.303 Y125.616 E7.50037
G1 X89.622 Y125.499 E7.51125
G1 X89.96 Y125.451 E7.52218
G1 X90.262 Y125.472 E7.53187
G1 X90.521 Y125.541 E7.54045
G1 X90.988 Y125.806 E7.55764
G1 X91.232 Y126.061 E7.56894
G1 X91.467 Y126.5 E7.58488
G1 X91.549 Y127.008 E7.60135
G1 X91.469 Y127.497 E7.61721
G1 X91.345 Y127.768 E7.62675
G1 X91.099 Y128.092 E7.63978
G1 X90.682 Y128.391 E7.6562
G1 X90.187 Y128.538 E7.67273
G1 X89.841 Y128.541 E7.68381
G1 X89.336 Y128.4 E7.7006
G1 X88.916 Y128.107 E7.71699
G1 X88.74 Y127.9 E7.72569
G1 X88.508 Y127.416 E7.74287
G1 X88.457 Y127.136 E7.75198
G1 X88.498 Y126.621 E7.76852
G1 X88.597 Y126.344 E7.77794
G1 X88.905 Y125.904 E7.79513
G1 F600 E6.79513
G0 F3600 X88.578 Y125.538
G0 X89.715 Y124.98
G0 X90.454 Y125.01
G0 X91.606 Y125.744
G0 X91.99 Y126.726
G0 X92.138 Y128.711
G1 F600 E7.79513
G1 F300 X92.59 Y128.445 E7.81192
G1 X93.016 Y128.307 E7.82626
G1 X93.502 Y128.253 E7.84191
G1 X93.934 Y128.294 E7.8558
G1 X94.321 Y128.409 E7.86873
G1 X94.721 Y128.612 E7.88308
G1 X95.018 Y128.843 E7.89513
G1 X95.311 Y129.168 E7.90914
G1 X95.597 Y129.688 E7.92814
G1 X95.725 Y130.181 E7.94444
G1 X95.746 Y130.604 E7.958
G1 X95.647 Y131.174 E7.97652
G1 X95.418 Y131.67 E7.99401
G1 X95.049 Y132.128 E8.01284
G1 X94.536 Y132.495 E8.03303
G1 X94.022 Y132.685 E8.05057
G1 X93.578 Y132.747 E8.06493
G1 X93.02 Y132.696 E8.08286
G1 X92.444 Y132.485 E8.1025
G1 X91.968 Y132.146 E8.12121
G1 X91.634 Y131.752 E8.13774
G1 X91.419 Y131.35 E8.15234
G1 X91.272 Y130.795 E8.17072
G1 X91.263 Y130.286 E8.18701
