;FLAVOR:Marlin
;TIME:1189
;Filament used: 0.122893m, 0m
;Layer height: 0.1
;MINX:82.304
;MINY:119.302
;MINZ:0.2
;MAXX:97.699
;MAXY:134.695
;MAXZ:5.5
;Generated with Cura_SteamEngine 4.12.1
T0
M140 S40
M105
M190 S40
M104 S145
M105
M109 S145
M82 ;absolute extrusion mode
M605 S0 ; set x-carriage mode to independent control
T0 ; Switch to left extruder
G28 ; home all axes
G1 X210 Y40 Z0.1 F10000 ; go to wait position
G92 E0 ; reset extrusion distance
G1 X195 F5000 ; scrape off any ooze from heating
G1 Z7 ; move the bed down to avoid collision
G1 X40 Y6 F10000 ; move toolhead to the unused front edge
G1 Z0.20 F1000 ; move bed to prime start position
G1 X160 F1000 ; prime the nozzle
G1 X170 Z0.05 F5000 ; quick wipe
G1 Z7 ; move the bed down
G1 X-25 F5000 ; move T0 to home position
T1 ; switch to T1
G1 X210 Y40 Z0.1 F10000 ; go to wait position
G92 E0 ; reset extrusion distance
G1 X195 F5000 ; scrape off any ooze from heating
G1 Z7 ; move the bed down to avoid collision
G1 X40 Y7 F10000 ; move toolhead to the unused front edge
G1 Z0.20 F1000 ; move bed to prime start position
G1 X160 F1000 ; prime the nozzle
G1 X170 Z0.05 F5000 ; quick wipe
G1 Z7 ; move the bed down
G28 X ; home T1 toolhead
G92 E0
T1
G1 X250 F18000 ; park T1
T0
G1 X-25 F18000 ; maker sure T0 is parked
G92 E0
G1 F600 E-1
;LAYER_COUNT:54
;LAYER:0
M107
G0 F3600 X85.501 Y120.753 Z0.2
;TYPE:SKIRT
G1 F600 E0
G1 F300 X85.693 Y120.619 E0.00857
G1 X86.175 Y120.32 E0.02932
G1 X86.371 Y120.212 E0.03751
G1 X86.884 Y119.962 E0.05838
G1 X87.087 Y119.876 E0.06645
G1 X87.621 Y119.679 E0.08727
G1 X87.841 Y119.611 E0.0957
G1 X88.373 Y119.476 E0.11578
G1 X88.593 Y119.431 E0.124
G1 X89.17 Y119.346 E0.14533
G1 X89.401 Y119.325 E0.15382
G1 X89.961 Y119.302 E0.17433
G1 X90.186 Y119.304 E0.18256
G1 X90.755 Y119.339 E0.20341
G1 X90.979 Y119.365 E0.21166
G1 X91.541 Y119.458 E0.23251
G1 X91.757 Y119.505 E0.24059
G1 X92.285 Y119.648 E0.26061
G1 X92.511 Y119.722 E0.26931
G1 X93.048 Y119.932 E0.2904
G1 X93.248 Y120.022 E0.29843
G1 X93.753 Y120.28 E0.31917
G1 X93.946 Y120.391 E0.32732
G1 X94.421 Y120.698 E0.34801
G1 X94.604 Y120.83 E0.35627
G1 X95.045 Y121.184 E0.37696
G1 X95.218 Y121.338 E0.38543
G1 X95.612 Y121.729 E0.40574
G1 X95.764 Y121.897 E0.41403
G1 X96.134 Y122.349 E0.4354
G1 X96.267 Y122.529 E0.44359
G1 X96.576 Y122.996 E0.46407
G1 X96.691 Y123.192 E0.47239
G1 X96.954 Y123.696 E0.49319
G1 X97.052 Y123.912 E0.50187
G1 X97.26 Y124.443 E0.52273
G1 X97.329 Y124.647 E0.53061
G1 X97.481 Y125.185 E0.55106
G1 X97.532 Y125.407 E0.5594
G1 X97.629 Y125.966 E0.58015
G1 X97.656 Y126.191 E0.58844
G1 X97.695 Y126.757 E0.6092
G1 X97.699 Y126.989 E0.61769
G1 X97.678 Y127.561 E0.63863
G1 X97.658 Y127.782 E0.64675
G1 X97.581 Y128.337 E0.66725
G1 X97.538 Y128.562 E0.67563
G1 X97.401 Y129.117 E0.69655
G1 X97.337 Y129.329 E0.70465
G1 X97.15 Y129.853 E0.725
G1 X97.064 Y130.06 E0.7332
G1 X96.824 Y130.564 E0.75363
G1 X96.713 Y130.769 E0.76216
G1 X96.411 Y131.261 E0.78328
G1 X96.286 Y131.443 E0.79136
G1 X95.95 Y131.884 E0.81164
G1 X95.806 Y132.054 E0.81979
G1 X95.411 Y132.476 E0.84094
G1 X95.242 Y132.639 E0.84953
G1 X94.814 Y133.008 E0.8702
G1 X94.633 Y133.148 E0.87858
G1 X94.167 Y133.472 E0.89934
G1 X93.981 Y133.588 E0.90736
G1 X93.485 Y133.864 E0.92813
G1 X93.277 Y133.966 E0.9366
G1 X92.751 Y134.19 E0.95752
G1 X92.532 Y134.27 E0.96605
G1 X91.989 Y134.436 E0.98682
G1 X91.78 Y134.489 E0.99471
G1 X91.223 Y134.601 E1.0155
G1 X90.988 Y134.635 E1.02419
G1 X90.426 Y134.686 E1.04483
G1 X90.204 Y134.695 E1.05296
G1 X89.638 Y134.689 E1.07367
G1 X89.413 Y134.675 E1.08192
G1 X88.857 Y134.612 E1.10239
G1 X88.634 Y134.575 E1.11066
G1 X88.077 Y134.453 E1.13152
G1 X87.864 Y134.395 E1.1396
G1 X87.323 Y134.218 E1.16042
G1 X87.103 Y134.133 E1.16905
G1 X86.586 Y133.9 E1.1898
G1 X86.389 Y133.798 E1.19792
G1 X85.91 Y133.521 E1.21816
G1 X85.718 Y133.397 E1.22652
G1 X85.25 Y133.057 E1.24769
G1 X85.075 Y132.916 E1.25591
G1 X84.654 Y132.539 E1.27658
G1 X84.492 Y132.378 E1.28494
G1 X84.112 Y131.959 E1.30564
G1 X83.97 Y131.785 E1.31385
G1 X83.633 Y131.327 E1.33466
G1 X83.507 Y131.135 E1.34306
G1 X83.221 Y130.647 E1.36375
G1 X83.118 Y130.449 E1.37192
G1 X82.885 Y129.939 E1.39243
G1 X82.8 Y129.723 E1.40092
G1 X82.619 Y129.182 E1.4218
G1 X82.561 Y128.976 E1.42963
G1 X82.436 Y128.431 E1.45008
G1 X82.395 Y128.199 E1.4587
G1 X82.328 Y127.636 E1.47945
G1 X82.313 Y127.411 E1.4877
G1 X82.304 Y126.845 E1.50841
G1 X82.312 Y126.62 E1.51664
G1 X82.361 Y126.056 E1.53736
G1 X82.391 Y125.838 E1.54541
G1 X82.496 Y125.282 E1.56611
G1 X82.551 Y125.057 E1.57458
G1 X82.716 Y124.508 E1.59556
G1 X82.792 Y124.294 E1.60386
G1 X83.003 Y123.788 E1.62392
G1 X83.101 Y123.584 E1.6322
G1 X83.379 Y123.073 E1.65349
G1 X83.499 Y122.878 E1.66186
G1 X83.817 Y122.415 E1.68241
G1 X83.95 Y122.241 E1.69042
G1 X84.316 Y121.808 E1.71117
G1 X84.478 Y121.636 E1.71981
G1 X84.887 Y121.246 E1.74049
G1 X85.053 Y121.102 E1.74853
G1 X85.501 Y120.753 E1.76931
G0 F3600 X85.747 Y121.069
G1 F300 X85.904 Y120.959 E1.77632
G1 X86.386 Y120.66 E1.79707
G1 X86.546 Y120.572 E1.80375
G1 X87.059 Y120.322 E1.82463
G1 X87.225 Y120.251 E1.83124
G1 X87.759 Y120.054 E1.85206
G1 X87.939 Y119.998 E1.85896
G1 X88.471 Y119.863 E1.87904
G1 X88.652 Y119.827 E1.88579
G1 X89.229 Y119.742 E1.90713
G1 X89.417 Y119.725 E1.91403
G1 X89.977 Y119.702 E1.93454
G1 X90.162 Y119.703 E1.94131
G1 X90.731 Y119.738 E1.96216
G1 X90.914 Y119.759 E1.9689
G1 X91.476 Y119.852 E1.98974
G1 X91.653 Y119.891 E1.99638
G1 X92.181 Y120.034 E2.01639
G1 X92.366 Y120.095 E2.02352
G1 X92.903 Y120.305 E2.04461
G1 X93.066 Y120.378 E2.05115
G1 X93.571 Y120.636 E2.07189
G1 X93.729 Y120.727 E2.07856
G1 X94.204 Y121.034 E2.09926
G1 X94.354 Y121.142 E2.10602
G1 X94.795 Y121.496 E2.12671
G1 X94.936 Y121.622 E2.13363
G1 X95.33 Y122.013 E2.15394
G1 X95.455 Y122.151 E2.16075
G1 X95.825 Y122.603 E2.18212
G1 X95.933 Y122.75 E2.18879
G1 X96.242 Y123.217 E2.20928
G1 X96.337 Y123.377 E2.21609
G1 X96.6 Y123.881 E2.23689
G1 X96.68 Y124.057 E2.24396
G1 X96.888 Y124.588 E2.26482
G1 X96.944 Y124.756 E2.2713
G1 X97.096 Y125.294 E2.29176
G1 X97.137 Y125.475 E2.29855
G1 X97.234 Y126.034 E2.3193
G1 X97.257 Y126.218 E2.32609
G1 X97.296 Y126.784 E2.34685
G1 X97.299 Y126.974 E2.3538
G1 X97.278 Y127.546 E2.37474
G1 X97.262 Y127.727 E2.38139
G1 X97.185 Y128.282 E2.40189
G1 X97.15 Y128.466 E2.40874
G1 X97.013 Y129.021 E2.42965
G1 X96.96 Y129.195 E2.43631
G1 X96.773 Y129.719 E2.45666
G1 X96.703 Y129.888 E2.46336
G1 X96.463 Y130.392 E2.48378
G1 X96.372 Y130.56 E2.49077
G1 X96.07 Y131.052 E2.51189
G1 X95.968 Y131.201 E2.5185
G1 X95.632 Y131.642 E2.53878
G1 X95.514 Y131.781 E2.54545
G1 X95.119 Y132.203 E2.5666
G1 X94.98 Y132.336 E2.57364
G1 X94.552 Y132.705 E2.59431
G1 X94.405 Y132.82 E2.60114
G1 X93.939 Y133.144 E2.62191
G1 X93.786 Y133.239 E2.6285
G1 X93.29 Y133.515 E2.64926
G1 X93.12 Y133.598 E2.65618
G1 X92.594 Y133.822 E2.6771
G1 X92.415 Y133.887 E2.68407
G1 X91.872 Y134.053 E2.70484
G1 X91.701 Y134.097 E2.7113
G1 X91.144 Y134.209 E2.73209
G1 X90.952 Y134.237 E2.73919
G1 X90.39 Y134.288 E2.75983
G1 X90.208 Y134.295 E2.7665
G1 X89.642 Y134.289 E2.78721
G1 X89.458 Y134.278 E2.79395
G1 X88.902 Y134.215 E2.81442
G1 X88.72 Y134.184 E2.82118
G1 X88.163 Y134.062 E2.84204
G1 X87.988 Y134.015 E2.84867
G1 X87.447 Y133.838 E2.86949
G1 X87.267 Y133.768 E2.87656
G1 X86.75 Y133.535 E2.89731
G1 X86.589 Y133.452 E2.90393
G1 X86.11 Y133.175 E2.92418
G1 X85.953 Y133.073 E2.93103
G1 X85.485 Y132.733 E2.95219
G1 X85.342 Y132.618 E2.9589
G1 X84.921 Y132.241 E2.97958
G1 X84.789 Y132.109 E2.98641
G1 X84.409 Y131.69 E3.0071
G1 X84.292 Y131.548 E3.01384
G1 X83.955 Y131.09 E3.03464
G1 X83.852 Y130.933 E3.04151
G1 X83.566 Y130.445 E3.0622
G1 X83.482 Y130.283 E3.06888
G1 X83.249 Y129.773 E3.08939
G1 X83.179 Y129.596 E3.09636
G1 X82.998 Y129.055 E3.11723
G1 X82.951 Y128.886 E3.12365
G1 X82.826 Y128.341 E3.1441
G1 X82.793 Y128.152 E3.15112
G1 X82.726 Y127.589 E3.17187
G1 X82.713 Y127.405 E3.17862
G1 X82.704 Y126.839 E3.19933
G1 X82.711 Y126.654 E3.2061
G1 X82.76 Y126.09 E3.22681
G1 X82.784 Y125.912 E3.23338
G1 X82.889 Y125.356 E3.25408
G1 X82.934 Y125.172 E3.26102
G1 X83.099 Y124.623 E3.28199
G1 X83.162 Y124.448 E3.28879
G1 X83.373 Y123.942 E3.30885
G1 X83.453 Y123.775 E3.31563
G1 X83.731 Y123.264 E3.33691
G1 X83.828 Y123.105 E3.34372
G1 X84.146 Y122.642 E3.36427
G1 X84.255 Y122.499 E3.37085
G1 X84.621 Y122.066 E3.39159
G1 X84.754 Y121.925 E3.39869
G1 X85.163 Y121.535 E3.41936
G1 X85.299 Y121.418 E3.42593
G1 X85.747 Y121.069 E3.4467
G0 F3600 X85.993 Y121.385
G1 F300 X86.115 Y121.299 E3.45216
G1 X86.597 Y121 E3.47292
G1 X86.722 Y120.931 E3.47814
G1 X87.235 Y120.681 E3.49902
G1 X87.363 Y120.627 E3.5041
G1 X87.897 Y120.43 E3.52493
G1 X88.038 Y120.386 E3.53033
G1 X88.57 Y120.251 E3.55041
G1 X88.71 Y120.223 E3.55563
G1 X89.287 Y120.138 E3.57697
G1 X89.434 Y120.124 E3.58237
G1 X89.994 Y120.101 E3.60288
G1 X90.137 Y120.103 E3.60811
G1 X90.706 Y120.138 E3.62897
G1 X90.849 Y120.154 E3.63423
G1 X91.411 Y120.247 E3.65507
G1 X91.548 Y120.277 E3.66021
G1 X92.076 Y120.42 E3.68022
G1 X92.22 Y120.467 E3.68576
G1 X92.757 Y120.677 E3.70686
G1 X92.884 Y120.734 E3.71195
G1 X93.389 Y120.992 E3.7327
G1 X93.512 Y121.063 E3.73789
G1 X93.987 Y121.37 E3.75858
G1 X94.103 Y121.454 E3.76382
G1 X94.544 Y121.808 E3.78451
G1 X94.654 Y121.906 E3.7899
G1 X95.048 Y122.297 E3.81021
G1 X95.145 Y122.404 E3.8155
G1 X95.515 Y122.856 E3.83687
G1 X95.6 Y122.97 E3.84207
G1 X95.909 Y123.437 E3.86256
G1 X95.982 Y123.562 E3.86785
G1 X96.245 Y124.066 E3.88865
G1 X96.308 Y124.203 E3.89417
G1 X96.516 Y124.734 E3.91503
G1 X96.559 Y124.864 E3.92004
G1 X96.711 Y125.402 E3.9405
G1 X96.743 Y125.544 E3.94582
G1 X96.84 Y126.103 E3.96658
G1 X96.858 Y126.246 E3.97185
G1 X96.897 Y126.812 E3.99261
G1 X96.899 Y126.959 E3.99799
G1 X96.878 Y127.531 E4.01893
G1 X96.866 Y127.672 E4.02411
G1 X96.789 Y128.227 E4.04461
G1 X96.761 Y128.371 E4.04997
G1 X96.624 Y128.926 E4.07089
G1 X96.584 Y129.061 E4.07604
G1 X96.397 Y129.585 E4.0964
G1 X96.342 Y129.716 E4.10159
G1 X96.102 Y130.22 E4.12202
G1 X96.031 Y130.35 E4.12744
G1 X95.729 Y130.842 E4.14856
G1 X95.65 Y130.958 E4.15369
G1 X95.314 Y131.399 E4.17398
G1 X95.222 Y131.508 E4.17919
G1 X94.827 Y131.93 E4.20034
G1 X94.719 Y132.033 E4.2058
G1 X94.291 Y132.402 E4.22648
G1 X94.176 Y132.491 E4.2318
G1 X93.71 Y132.815 E4.25256
G1 X93.592 Y132.889 E4.25766
G1 X93.096 Y133.165 E4.27843
G1 X92.964 Y133.23 E4.28381
G1 X92.438 Y133.454 E4.30473
G1 X92.298 Y133.505 E4.31018
G1 X91.755 Y133.671 E4.33095
G1 X91.622 Y133.705 E4.33597
G1 X91.065 Y133.817 E4.35676
G1 X90.916 Y133.838 E4.36226
G1 X90.354 Y133.889 E4.38291
G1 X90.212 Y133.895 E4.38811
G1 X89.646 Y133.889 E4.40882
G1 X89.503 Y133.88 E4.41406
G1 X88.947 Y133.817 E4.43453
G1 X88.805 Y133.794 E4.4398
G1 X88.248 Y133.672 E4.46066
G1 X88.113 Y133.635 E4.46578
G1 X87.572 Y133.458 E4.4866
G1 X87.432 Y133.403 E4.49211
G1 X86.915 Y133.17 E4.51286
G1 X86.789 Y133.106 E4.51803
G1 X86.31 Y132.829 E4.53827
G1 X86.188 Y132.75 E4.54359
G1 X85.72 Y132.41 E4.56475
G1 X85.609 Y132.32 E4.56998
G1 X85.188 Y131.943 E4.59066
G1 X85.085 Y131.841 E4.59596
G1 X84.705 Y131.422 E4.61665
G1 X84.614 Y131.311 E4.62191
G1 X84.277 Y130.853 E4.64271
G1 X84.197 Y130.731 E4.64805
G1 X83.911 Y130.243 E4.66874
G1 X83.846 Y130.117 E4.67393
G1 X83.613 Y129.607 E4.69444
G1 X83.558 Y129.469 E4.69988
G1 X83.377 Y128.928 E4.72075
G1 X83.34 Y128.797 E4.72573
G1 X83.215 Y128.252 E4.74619
G1 X83.19 Y128.104 E4.75168
G1 X83.123 Y127.541 E4.77242
G1 X83.113 Y127.398 E4.77767
G1 X83.104 Y126.832 E4.79838
G1 X83.109 Y126.689 E4.80361
G1 X83.158 Y126.125 E4.82432
G1 X83.177 Y125.986 E4.82946
G1 X83.282 Y125.43 E4.85016
G1 X83.317 Y125.287 E4.85554
G1 X83.482 Y124.738 E4.87652
G1 X83.531 Y124.602 E4.88181
G1 X83.742 Y124.096 E4.90186
G1 X83.804 Y123.966 E4.90713
G1 X84.082 Y123.455 E4.92842
G1 X84.158 Y123.331 E4.93374
G1 X84.476 Y122.868 E4.95429
G1 X84.561 Y122.757 E4.9594
G1 X84.927 Y122.324 E4.98014
G1 X85.03 Y122.215 E4.98563
G1 X85.439 Y121.825 E5.00631
G1 X85.545 Y121.734 E5.01142
G1 X85.993 Y121.385 E5.0322
G0 F3600 X86.238 Y121.7
G1 F300 X86.326 Y121.639 E5.03611
G1 X86.808 Y121.34 E5.05687
G1 X86.897 Y121.291 E5.06058
G1 X87.41 Y121.041 E5.08146
G1 X87.502 Y121.002 E5.08512
G1 X88.036 Y120.805 E5.10594
G1 X88.136 Y120.774 E5.10977
G1 X88.668 Y120.639 E5.12985
G1 X88.768 Y120.619 E5.13358
G1 X89.345 Y120.534 E5.15492
G1 X89.45 Y120.524 E5.15878
G1 X90.01 Y120.501 E5.17929
G1 X90.112 Y120.502 E5.18302
G1 X90.681 Y120.537 E5.20387
G1 X90.783 Y120.548 E5.20763
G1 X91.345 Y120.641 E5.22847
G1 X91.443 Y120.663 E5.23214
G1 X91.971 Y120.806 E5.25216
G1 X92.074 Y120.84 E5.25613
G1 X92.611 Y121.05 E5.27722
G1 X92.702 Y121.09 E5.28086
G1 X93.207 Y121.348 E5.30161
G1 X93.295 Y121.399 E5.30533
G1 X93.77 Y121.706 E5.32602
G1 X93.853 Y121.766 E5.32977
G1 X94.294 Y122.12 E5.35046
G1 X94.372 Y122.19 E5.35429
G1 X94.766 Y122.581 E5.3746
G1 X94.836 Y122.658 E5.37841
G1 X95.206 Y123.11 E5.39978
G1 X95.266 Y123.191 E5.40346
G1 X95.575 Y123.658 E5.42395
G1 X95.628 Y123.747 E5.42774
G1 X95.891 Y124.251 E5.44854
G1 X95.935 Y124.349 E5.45247
G1 X96.143 Y124.88 E5.47334
G1 X96.174 Y124.973 E5.47692
G1 X96.326 Y125.511 E5.49738
G1 X96.349 Y125.612 E5.50117
G1 X96.446 Y126.171 E5.52192
G1 X96.459 Y126.273 E5.52568
G1 X96.498 Y126.839 E5.54644
G1 X96.499 Y126.945 E5.55032
G1 X96.478 Y127.517 E5.57126
G1 X96.47 Y127.617 E5.57493
G1 X96.393 Y128.172 E5.59543
G1 X96.373 Y128.275 E5.59927
G1 X96.236 Y128.83 E5.62019
G1 X96.207 Y128.926 E5.62385
G1 X96.02 Y129.45 E5.64421
G1 X95.981 Y129.544 E5.64793
G1 X95.741 Y130.048 E5.66836
G1 X95.69 Y130.141 E5.67224
G1 X95.388 Y130.633 E5.69336
G1 X95.331 Y130.716 E5.69704
G1 X94.995 Y131.157 E5.71733
G1 X94.93 Y131.234 E5.72101
G1 X94.535 Y131.656 E5.74216
G1 X94.458 Y131.73 E5.74607
G1 X94.03 Y132.099 E5.76674
G1 X93.948 Y132.163 E5.77055
G1 X93.482 Y132.487 E5.79131
G1 X93.397 Y132.54 E5.79498
G1 X92.901 Y132.816 E5.81574
G1 X92.807 Y132.862 E5.81957
G1 X92.281 Y133.086 E5.84049
G1 X92.181 Y133.122 E5.84438
G1 X91.638 Y133.288 E5.86515
G1 X91.543 Y133.312 E5.86874
G1 X90.986 Y133.424 E5.88952
G1 X90.879 Y133.44 E5.89348
G1 X90.317 Y133.491 E5.91413
G1 X90.216 Y133.495 E5.91783
G1 X89.65 Y133.489 E5.93853
G1 X89.548 Y133.483 E5.94227
G1 X88.992 Y133.42 E5.96275
G1 X88.891 Y133.403 E5.96649
G1 X88.334 Y133.281 E5.98735
G1 X88.237 Y133.254 E5.99104
G1 X87.696 Y133.077 E6.01186
G1 X87.596 Y133.039 E6.01578
G1 X87.079 Y132.806 E6.03652
G1 X86.989 Y132.76 E6.04022
G1 X86.51 Y132.483 E6.06047
G1 X86.423 Y132.426 E6.06427
G1 X85.955 Y132.086 E6.08544
G1 X85.876 Y132.022 E6.08916
G1 X85.455 Y131.645 E6.10983
G1 X85.381 Y131.572 E6.11363
G1 X85.001 Y131.153 E6.13433
G1 X84.937 Y131.074 E6.13805
G1 X84.6 Y130.616 E6.15885
G1 X84.542 Y130.529 E6.16268
G1 X84.256 Y130.041 E6.18337
G1 X84.209 Y129.951 E6.18709
G1 X83.976 Y129.441 E6.2076
G1 X83.938 Y129.342 E6.21148
G1 X83.757 Y128.801 E6.23235
G1 X83.73 Y128.708 E6.2359
G1 X83.605 Y128.163 E6.25635
G1 X83.587 Y128.057 E6.26029
G1 X83.52 Y127.494 E6.28103
G1 X83.513 Y127.392 E6.28477
G1 X83.504 Y126.826 E6.30548
G1 X83.508 Y126.723 E6.30925
G1 X83.557 Y126.159 E6.32996
G1 X83.57 Y126.06 E6.33362
G1 X83.675 Y125.504 E6.35432
G1 X83.7 Y125.402 E6.35816
G1 X83.865 Y124.853 E6.37913
G1 X83.9 Y124.756 E6.38291
G1 X84.111 Y124.25 E6.40296
G1 X84.156 Y124.157 E6.40674
G1 X84.434 Y123.646 E6.42803
G1 X84.488 Y123.558 E6.4318
G1 X84.806 Y123.095 E6.45235
G1 X84.866 Y123.015 E6.45601
G1 X85.232 Y122.582 E6.47676
G1 X85.306 Y122.504 E6.48069
G1 X85.715 Y122.114 E6.50137
G1 X85.79 Y122.049 E6.505
G1 X86.238 Y121.7 E6.52577
G0 F3600 X86.484 Y122.016
G1 F300 X86.537 Y121.979 E6.52814
G1 X87.019 Y121.68 E6.54889
G1 X87.072 Y121.651 E6.5511
G1 X87.585 Y121.401 E6.57198
G1 X87.64 Y121.377 E6.57418
G1 X88.174 Y121.18 E6.595
G1 X88.234 Y121.161 E6.5973
G1 X88.766 Y121.026 E6.61738
G1 X88.827 Y121.014 E6.61966
G1 X89.404 Y120.929 E6.641
G1 X89.466 Y120.924 E6.64327
G1 X90.026 Y120.901 E6.66378
G1 X90.088 Y120.901 E6.66605
G1 X90.657 Y120.936 E6.6869
G1 X90.718 Y120.943 E6.68915
G1 X91.28 Y121.036 E6.70999
G1 X91.339 Y121.049 E6.7122
