;FLAVOR:Marlin
;TIME:1366
;Filament used: 0m, 0.123064m
;Layer height: 0.1
;MINX:82.229
;MINY:119.227
;MINZ:0.2
;MAXX:97.775
;MAXY:134.77
;MAXZ:5.5
;Generated with Cura_SteamEngine 4.12.1
T1
M140 S40
M105
M190 S40
M104 S145
M105
M109 S145
M82 ;absolute extrusion mode
M605 S0 ; set x-carriage mode to independent control
T0 ; Switch to left extruder
G28 ; home all axes
G1 X210 Y40 Z0.1 F10000 ; go to wait position
G92 E0 ; reset extrusion distance
G1 X195 F5000 ; scrape off any ooze from heating
G1 Z7 ; move the bed down to avoid collision
G1 X40 Y6 F10000 ; move toolhead to the unused front edge
G1 Z0.20 F1000 ; move bed to prime start position
G1 X160 F1000 ; prime the nozzle
G1 X170 Z0.05 F5000 ; quick wipe
G1 Z7 ; move the bed down
G1 X-25 F5000 ; move T0 to home position
T1 ; switch to T1
G1 X210 Y40 Z0.1 F10000 ; go to wait position
G92 E0 ; reset extrusion distance
G1 X195 F5000 ; scrape off any ooze from heating
G1 Z7 ; move the bed down to avoid collision
G1 X40 Y7 F10000 ; move toolhead to the unused front edge
G1 Z0.20 F1000 ; move bed to prime start position
G1 X160 F1000 ; prime the nozzle
G1 X170 Z0.05 F5000 ; quick wipe
G1 Z7 ; move the bed down
G28 X ; home T1 toolhead
G92 E0
T0
G1 X-25 F18000 ; park T0
T1
G1 X250 F18000 ; park T1 and start
G92 E0
G1 F600 E-1
;LAYER_COUNT:54
;LAYER:0
M107
G0 F3600 X85.398 Y120.734 Z0.2
;TYPE:SKIRT
G1 F600 E0
G1 F300 X85.838 Y120.435 E0.01703
G1 X86.298 Y120.165 E0.03411
G1 X86.764 Y119.932 E0.05078
G1 X87.278 Y119.717 E0.06862
G1 X87.78 Y119.55 E0.08556
G1 X88.285 Y119.418 E0.10227
G1 X88.813 Y119.317 E0.11948
G1 X89.35 Y119.253 E0.13679
G1 X89.877 Y119.227 E0.15368
G1 X90.41 Y119.237 E0.17075
G1 X90.945 Y119.283 E0.18794
G1 X91.474 Y119.367 E0.20508
G1 X91.987 Y119.485 E0.22193
G1 X92.502 Y119.639 E0.23914
G1 X92.999 Y119.828 E0.25616
G1 X93.489 Y120.053 E0.27342
G1 X93.953 Y120.306 E0.29034
G1 X94.403 Y120.593 E0.30743
G1 X94.835 Y120.911 E0.3246
G1 X95.242 Y121.258 E0.34172
G1 X95.624 Y121.632 E0.35884
G1 X95.975 Y122.026 E0.37573
G1 X96.305 Y122.451 E0.39296
G1 X96.601 Y122.893 E0.40999
G1 X96.867 Y123.354 E0.42702
G1 X97.103 Y123.838 E0.44426
G1 X97.302 Y124.332 E0.46131
G1 X97.468 Y124.839 E0.47839
G1 X97.598 Y125.355 E0.49542
G1 X97.694 Y125.882 E0.51257
G1 X97.752 Y126.408 E0.52951
G1 X97.775 Y126.948 E0.54682
G1 X97.76 Y127.476 E0.56373
G1 X97.709 Y128.009 E0.58087
G1 X97.621 Y128.537 E0.598
G1 X97.497 Y129.059 E0.61518
G1 X97.34 Y129.562 E0.63205
G1 X97.146 Y130.063 E0.64925
G1 X96.92 Y130.543 E0.66623
G1 X96.658 Y131.015 E0.68351
G1 X96.369 Y131.459 E0.70047
G1 X96.049 Y131.884 E0.7175
G1 X95.699 Y132.288 E0.73461
G1 X95.321 Y132.669 E0.7518
G1 X94.922 Y133.018 E0.76877
G1 X94.495 Y133.343 E0.78594
G1 X94.05 Y133.636 E0.803
G1 X93.586 Y133.898 E0.82006
G1 X93.101 Y134.129 E0.83726
G1 X92.604 Y134.325 E0.85436
G1 X91.954 Y134.525 E0.87613
G1 X91.312 Y134.664 E0.89716
G1 X90.787 Y134.734 E0.91411
G1 X90.253 Y134.77 E0.93125
G1 X89.728 Y134.769 E0.94805
G1 X89.186 Y134.732 E0.96545
G1 X88.663 Y134.658 E0.98236
G1 X88.14 Y134.548 E0.99946
G1 X87.628 Y134.404 E1.01649
G1 X87.113 Y134.219 E1.03401
G1 X86.641 Y134.01 E1.05053
G1 X86.16 Y133.759 E1.0679
G1 X85.707 Y133.481 E1.08492
G1 X85.27 Y133.169 E1.10211
G1 X84.86 Y132.832 E1.1191
G1 X84.471 Y132.465 E1.13622
G1 X84.108 Y132.071 E1.15337
G1 X83.775 Y131.656 E1.1704
G1 X83.467 Y131.213 E1.18767
G1 X83.198 Y130.761 E1.20451
G1 X82.956 Y130.287 E1.22155
G1 X82.745 Y129.792 E1.23878
G1 X82.571 Y129.289 E1.25581
G1 X82.433 Y128.779 E1.27273
G1 X82.327 Y128.247 E1.29009
G1 X82.26 Y127.722 E1.30704
G1 X82.229 Y127.19 E1.3241
G1 X82.234 Y126.656 E1.34119
G1 X82.276 Y126.126 E1.35821
G1 X82.355 Y125.593 E1.37546
G1 X82.469 Y125.075 E1.39244
G1 X82.618 Y124.564 E1.40948
G1 X82.804 Y124.058 E1.42674
G1 X83.019 Y123.581 E1.44349
G1 X83.272 Y123.104 E1.46077
G1 X83.559 Y122.647 E1.47805
G1 X83.87 Y122.22 E1.49496
G1 X84.213 Y121.809 E1.5121
G1 X84.584 Y121.423 E1.52924
G1 X84.977 Y121.067 E1.54621
G1 X85.398 Y120.734 E1.5634
G0 F3600 X85.491 Y121.102
G1 F300 X85.909 Y120.806 E1.57979
G1 X86.341 Y120.541 E1.59602
G1 X86.794 Y120.304 E1.61238
G1 X87.391 Y120.048 E1.63318
G1 X87.871 Y119.888 E1.64938
G1 X88.355 Y119.761 E1.66539
G1 X88.858 Y119.664 E1.68179
G1 X89.371 Y119.602 E1.69834
G1 X89.874 Y119.577 E1.71446
G1 X90.384 Y119.586 E1.73079
G1 X90.894 Y119.63 E1.74717
G1 X91.399 Y119.709 E1.76354
G1 X91.89 Y119.821 E1.77966
G1 X92.382 Y119.968 E1.7961
G1 X92.857 Y120.147 E1.81235
G1 X93.324 Y120.361 E1.82879
G1 X93.768 Y120.603 E1.84498
G1 X94.198 Y120.876 E1.86129
G1 X94.61 Y121.18 E1.87768
G1 X95 Y121.511 E1.89405
G1 X95.365 Y121.868 E1.9104
G1 X95.701 Y122.244 E1.92654
G1 X96.016 Y122.649 E1.94296
G1 X96.3 Y123.071 E1.95925
G1 X96.554 Y123.511 E1.97551
G1 X96.78 Y123.972 E1.99195
G1 X96.971 Y124.444 E2.00825
G1 X97.13 Y124.928 E2.02456
G1 X97.255 Y125.421 E2.04084
G1 X97.346 Y125.924 E2.0572
G1 X97.402 Y126.426 E2.07337
G1 X97.425 Y126.942 E2.08991
G1 X97.411 Y127.446 E2.10605
G1 X97.363 Y127.955 E2.12242
G1 X97.28 Y128.459 E2.13877
G1 X97.162 Y128.957 E2.15515
G1 X97.012 Y129.439 E2.17131
G1 X96.827 Y129.917 E2.18772
G1 X96.612 Y130.377 E2.20398
G1 X96.363 Y130.827 E2.22044
G1 X96.087 Y131.251 E2.23664
G1 X95.782 Y131.657 E2.25289
G1 X95.448 Y132.044 E2.26926
G1 X95.087 Y132.408 E2.28567
G1 X94.707 Y132.742 E2.30186
G1 X94.3 Y133.053 E2.31826
G1 X93.875 Y133.333 E2.33455
G1 X93.432 Y133.584 E2.35085
G1 X92.97 Y133.805 E2.36725
G1 X92.495 Y133.992 E2.38359
G1 X91.861 Y134.187 E2.40483
G1 X91.262 Y134.317 E2.42445
G1 X90.76 Y134.385 E2.44067
G1 X90.25 Y134.42 E2.45703
G1 X89.748 Y134.42 E2.4731
G1 X89.232 Y134.385 E2.48966
G1 X88.731 Y134.315 E2.50585
G1 X88.232 Y134.211 E2.52217
G1 X87.743 Y134.073 E2.53843
G1 X87.252 Y133.897 E2.55513
G1 X86.462 Y133.527 E2.58306
G1 X86.016 Y133.264 E2.59963
G1 X85.596 Y132.977 E2.61592
G1 X85.196 Y132.66 E2.63226
G1 X84.82 Y132.319 E2.64851
G1 X84.467 Y131.95 E2.66486
G1 X84.139 Y131.557 E2.68124
G1 X83.841 Y131.146 E2.69749
G1 X83.57 Y130.709 E2.71396
G1 X83.333 Y130.264 E2.7301
G1 X83.125 Y129.803 E2.74629
G1 X82.947 Y129.317 E2.76285
G1 X82.806 Y128.832 E2.77902
G1 X82.697 Y128.337 E2.79525
G1 X82.623 Y127.824 E2.81184
G1 X82.584 Y127.323 E2.82793
G1 X82.579 Y126.812 E2.84429
G1 X82.61 Y126.302 E2.86065
G1 X82.674 Y125.8 E2.87685
G1 X82.775 Y125.294 E2.89336
G1 X82.908 Y124.806 E2.90956
G1 X83.073 Y124.328 E2.92574
G1 X83.277 Y123.853 E2.94229
G1 X83.504 Y123.406 E2.95834
G1 X83.768 Y122.964 E2.97482
G1 X84.064 Y122.542 E2.99133
G1 X84.379 Y122.15 E3.00742
G1 X84.727 Y121.774 E3.02383
G1 X85.098 Y121.424 E3.04015
G1 X85.491 Y121.102 E3.05642
G0 F3600 X85.711 Y121.375
G1 F300 X86.198 Y121.035 E3.07543
G1 X86.953 Y120.616 E3.10307
G1 X87.505 Y120.379 E3.12231
G1 X88.324 Y120.128 E3.14973
G1 X88.903 Y120.011 E3.16864
G1 X89.767 Y119.93 E3.19642
G1 X89.872 Y119.927 E3.19978
G1 X90.734 Y119.964 E3.2274
G1 X91.324 Y120.051 E3.24649
G1 X92.156 Y120.262 E3.27397
G1 X92.714 Y120.467 E3.293
G1 X93.492 Y120.848 E3.32073
G1 X93.993 Y121.16 E3.33963
G1 X94.676 Y121.691 E3.36732
G1 X95.106 Y122.103 E3.38639
G1 X95.662 Y122.758 E3.41389
G1 X95.998 Y123.249 E3.43294
G1 X96.41 Y124.005 E3.4605
G1 X96.639 Y124.556 E3.4796
G1 X96.887 Y125.382 E3.50721
G1 X96.999 Y125.966 E3.52625
G1 X97.073 Y126.823 E3.55378
G1 X97.062 Y127.417 E3.5728
G1 X96.959 Y128.274 E3.60044
G1 X96.827 Y128.856 E3.61954
G1 X96.551 Y129.67 E3.64706
G1 X96.305 Y130.21 E3.66605
G1 X95.865 Y130.956 E3.69378
G1 X95.515 Y131.431 E3.71267
G1 X94.933 Y132.071 E3.74036
G1 X94.492 Y132.466 E3.75931
G1 X93.79 Y132.973 E3.78703
G1 X93.278 Y133.27 E3.80598
G1 X92.488 Y133.622 E3.83367
G1 X91.963 Y133.796 E3.85138
G1 X91.33 Y133.949 E3.87222
G1 X90.733 Y134.036 E3.89154
G1 X89.873 Y134.073 E3.91909
G1 X89.277 Y134.038 E3.93821
G1 X88.429 Y133.898 E3.96572
G1 X87.858 Y133.742 E3.98467
G1 X87.046 Y133.427 E4.01255
G1 X86.521 Y133.159 E4.03142
G1 X85.797 Y132.69 E4.05904
G1 X85.335 Y132.318 E4.07802
G1 X84.721 Y131.71 E4.10569
G1 X84.345 Y131.251 E4.12468
G1 X83.869 Y130.527 E4.15242
G1 X83.597 Y130.006 E4.17123
G1 X83.277 Y129.2 E4.199
G1 X83.118 Y128.635 E4.21779
G1 X82.969 Y127.777 E4.24566
G1 X82.929 Y127.19 E4.2645
G1 X82.959 Y126.326 E4.29218
G1 X83.04 Y125.737 E4.31121
G1 X83.245 Y124.901 E4.33876
G1 X83.445 Y124.34 E4.35783
G1 X83.814 Y123.567 E4.38525
G1 X84.128 Y123.054 E4.40451
G1 X84.65 Y122.371 E4.43203
G1 X85.059 Y121.937 E4.45112
G1 X85.711 Y121.375 E4.47867
G0 F3600 X85.93 Y121.647
G1 F300 X86.378 Y121.335 E4.49615
G1 X87.112 Y120.928 E4.52302
G1 X87.618 Y120.71 E4.54066
G1 X88.416 Y120.466 E4.56737
G1 X88.949 Y120.358 E4.58478
G1 X89.787 Y120.279 E4.61172
G1 X89.869 Y120.277 E4.61435
G1 X90.707 Y120.313 E4.6412
G1 X91.249 Y120.392 E4.65874
G1 X92.058 Y120.598 E4.68546
G1 X92.571 Y120.786 E4.70295
G1 X93.327 Y121.157 E4.72991
G1 X93.788 Y121.444 E4.74729
G1 X94.452 Y121.959 E4.7742
G1 X94.846 Y122.338 E4.7917
G1 X95.387 Y122.975 E4.81845
G1 X95.697 Y123.426 E4.83597
G1 X96.097 Y124.162 E4.86279
G1 X96.308 Y124.668 E4.88034
G1 X96.549 Y125.471 E4.90718
G1 X96.651 Y126.008 E4.92467
G1 X96.723 Y126.841 E4.95144
G1 X96.714 Y127.387 E4.96892
G1 X96.613 Y128.22 E4.99578
G1 X96.492 Y128.755 E5.01334
G1 X96.224 Y129.547 E5.04011
G1 X95.997 Y130.043 E5.05757
G1 X95.57 Y130.768 E5.08451
G1 X95.248 Y131.205 E5.10189
G1 X94.682 Y131.827 E5.12881
G1 X94.277 Y132.19 E5.14622
G1 X93.595 Y132.683 E5.17316
G1 X93.124 Y132.955 E5.19057
G1 X92.357 Y133.298 E5.21747
G1 X91.871 Y133.459 E5.23386
G1 X91.254 Y133.608 E5.25418
G1 X90.707 Y133.687 E5.27187
G1 X89.87 Y133.723 E5.29869
G1 X89.323 Y133.691 E5.31623
G1 X88.497 Y133.554 E5.34303
G1 X87.972 Y133.412 E5.36044
G1 X87.184 Y133.106 E5.38751
G1 X86.701 Y132.86 E5.40486
G1 X85.997 Y132.403 E5.43173
G1 X85.573 Y132.061 E5.44917
G1 X84.976 Y131.47 E5.47606
G1 X84.631 Y131.048 E5.49351
G1 X84.168 Y130.345 E5.52046
G1 X83.917 Y129.865 E5.5378
G1 X83.607 Y129.083 E5.56472
G1 X83.46 Y128.563 E5.58202
G1 X83.316 Y127.73 E5.60909
G1 X83.279 Y127.19 E5.62641
G1 X83.308 Y126.35 E5.65332
G1 X83.382 Y125.809 E5.6708
G1 X83.582 Y124.996 E5.6976
G1 X83.765 Y124.48 E5.71513
G1 X84.125 Y123.728 E5.74182
G1 X84.413 Y123.257 E5.75949
G1 X84.921 Y122.593 E5.78626
G1 X85.297 Y122.194 E5.80381
G1 X85.93 Y121.647 E5.83059
G0 F3600 X86.509 Y121.667
G1 F300 X87.271 Y121.24 E5.85855
G1 X87.731 Y121.041 E5.8746
G1 X88.507 Y120.803 E5.90058
G1 X89.37 Y120.656 E5.92861
G1 X89.866 Y120.627 E5.94451
G1 X90.68 Y120.662 E5.9706
G1 X91.543 Y120.815 E5.99865
G1 X92.374 Y121.084 E6.02661
G1 X93.162 Y121.465 E6.05464
G1 X93.889 Y121.949 E6.08259
G1 X94.545 Y122.53 E6.11065
G1 X95.113 Y123.193 E6.1386
G1 X95.587 Y123.93 E6.16665
G1 X95.955 Y124.724 E6.19466
G1 X96.21 Y125.56 E6.22264
G1 X96.349 Y126.423 E6.25063
G1 X96.368 Y127.299 E6.27868
G1 X96.268 Y128.166 E6.30662
G1 X96.157 Y128.654 E6.32264
G1 X95.896 Y129.424 E6.34866
G1 X95.509 Y130.208 E6.37665
G1 X95.017 Y130.932 E6.40468
G1 X94.432 Y131.583 E6.43269
G1 X93.764 Y132.145 E6.46064
G1 X93.023 Y132.613 E6.4887
G1 X92.225 Y132.974 E6.51674
G1 X91.585 Y133.174 E6.5382
G1 X90.738 Y133.332 E6.56578
G1 X89.867 Y133.373 E6.5937
G1 X88.994 Y133.295 E6.62176
G1 X88.143 Y133.098 E6.64972
G1 X87.668 Y132.933 E6.66582
G1 X86.937 Y132.59 E6.69167
G1 X86.508 Y132.333 E6.70768
G1 X85.855 Y131.842 E6.73383
G1 X85.231 Y131.23 E6.76181
G1 X84.697 Y130.537 E6.78982
G1 X84.263 Y129.778 E6.81781
G1 X83.937 Y128.965 E6.84585
G1 X83.725 Y128.12 E6.87374
G1 X83.631 Y127.251 E6.90172
G1 X83.657 Y126.374 E6.92981
G1 X83.803 Y125.51 E6.95786
G1 X84.063 Y124.68 E6.9857
G1 X84.436 Y123.889 E7.0137
G1 X84.698 Y123.46 E7.02979
G1 X85.192 Y122.815 E7.0558
G1 X85.811 Y122.195 E7.08385
G1 X86.509 Y121.667 E7.11186
G0 F3600 X86.709 Y121.954
G1 F300 X87.43 Y121.551 E7.13831
G1 X88.204 Y121.249 E7.1649
G1 X89.003 Y121.058 E7.1912
G1 X89.828 Y120.978 E7.21774
G1 X89.863 Y120.977 E7.21886
G1 X90.653 Y121.011 E7.24417
G1 X91.468 Y121.157 E7.27068
G1 X92.253 Y121.412 E7.2971
G1 X92.997 Y121.774 E7.32359
G1 X93.684 Y122.232 E7.35002
G1 X94.302 Y122.782 E7.3765
G1 X94.839 Y123.411 E7.40298
G1 X95.285 Y124.108 E7.42947
G1 X95.632 Y124.859 E7.45595
G1 X95.872 Y125.649 E7.48238
G1 X96.001 Y126.465 E7.50883
G1 X96.018 Y127.293 E7.53534
G1 X95.922 Y128.113 E7.56177
G1 X95.713 Y128.914 E7.58827
G1 X95.397 Y129.678 E7.61474
G1 X94.98 Y130.391 E7.64118
G1 X94.47 Y131.04 E7.66761
G1 X93.874 Y131.615 E7.69412
G1 X93.205 Y132.102 E7.72061
G1 X92.477 Y132.493 E7.74706
G1 X91.711 Y132.776 E7.77321
G1 X91.101 Y132.924 E7.7933
G1 X90.275 Y133.018 E7.81991
G1 X89.451 Y133 E7.8463
G1 X88.634 Y132.868 E7.87279
G1 X87.843 Y132.626 E7.89927
G1 X87.095 Y132.278 E7.92568
G1 X86.398 Y131.829 E7.95223
G1 X85.771 Y131.291 E7.97867
G1 X85.223 Y130.671 E8.00516
G1 X84.766 Y129.981 E8.03166
G1 X84.407 Y129.24 E8.05802
G1 X84.154 Y128.452 E8.08451
G1 X84.01 Y127.636 E8.11104
G1 X83.979 Y126.812 E8.13743
G1 X84.061 Y125.99 E8.16388
G1 X84.256 Y125.185 E8.1904
G1 X84.558 Y124.416 E8.21684
G1 X84.962 Y123.695 E8.2433
G1 X85.463 Y123.036 E8.2698
G1 X86.049 Y122.452 E8.29629
G1 X86.709 Y121.954 E8.32276
G0 F3600 X86.909 Y122.241
G1 F300 X87.589 Y121.863 E8.34766
G1 X88.317 Y121.58 E8.37267
G1 X89.072 Y121.401 E8.39751
G1 X89.849 Y121.327 E8.42249
G1 X90.639 Y121.361 E8.44781
G1 X91.393 Y121.499 E8.47234
G1 X92.132 Y121.741 E8.49724
G1 X92.832 Y122.083 E8.52218
G1 X93.479 Y122.516 E8.5471
G1 X94.06 Y123.035 E8.57204
G1 X94.565 Y123.628 E8.59698
G1 X94.984 Y124.285 E8.62192
G1 X95.309 Y124.993 E8.64686
G1 X95.533 Y125.738 E8.67176
G1 X95.654 Y126.507 E8.69669
G1 X95.668 Y127.286 E8.72163
G1 X95.576 Y128.059 E8.74655
G1 X95.378 Y128.813 E8.7715
G1 X95.079 Y129.532 E8.79643
G1 X94.685 Y130.203 E8.82134
G1 X94.203 Y130.814 E8.84626
G1 X93.641 Y131.354 E8.87121
G1 X93.01 Y131.811 E8.89615
G1 X92.323 Y132.178 E8.92108
G1 X91.602 Y132.443 E8.94567
G1 X91.025 Y132.583 E8.96468
G1 X90.248 Y132.669 E8.98971
G1 X89.472 Y132.651 E9.01455
G1 X88.703 Y132.525 E9.0395
G1 X87.958 Y132.295 E9.06446
G1 X87.254 Y131.966 E9.08934
G1 X86.598 Y131.542 E9.11434
G1 X86.008 Y131.034 E9.13927
G1 X85.494 Y130.449 E9.1642
G1 X85.065 Y129.799 E9.18913
G1 X84.728 Y129.099 E9.214
G1 X84.491 Y128.357 E9.23893
G1 X84.357 Y127.589 E9.26389
G1 X84.329 Y126.8 E9.28917
G1 X84.408 Y126.037 E9.31372
G1 X84.593 Y125.28 E9.33867
G1 X84.879 Y124.557 E9.36356
G1 X85.261 Y123.878 E9.3885
G1 X85.734 Y123.258 E9.41346
G1 X86.286 Y122.709 E9.43839
G1 X86.909 Y122.241 E9.46333
G1 F600 E8.46333
;MESH:ECG_11mm.STL
G0 F3600 X86.637 Y121.835
G0 X85.661 Y122.622
G0 X84.856 Y123.603
G0 X84.271 Y124.726
G0 X83.926 Y125.946
G0 X83.84 Y127.212
G0 X84.013 Y128.467
G0 X84.439 Y129.661
G0 X85.102 Y130.742
G0 X85.97 Y131.665
G0 X87.011 Y132.391
G0 X88.178 Y132.89
G0 X89.419 Y133.137
G0 X90.137 Y133.132
G0 X90.882 Y133.1
G0 X90.774 Y132.269
;TYPE:WALL-OUTER
G1 F600 E9.46333
G1 F300 X90.226 Y132.32 E9.48095
G1 X89.683 Y132.315 E9.49833
G1 X89.139 Y132.255 E9.51586
G1 X88.603 Y132.138 E9.53342
G1 X88.083 Y131.968 E9.55093
G1 X87.581 Y131.743 E9.56854
G1 X87.102 Y131.467 E9.58624
G1 X86.658 Y131.145 E9.6038
G1 X86.249 Y130.779 E9.62137
G1 X85.881 Y130.374 E9.63889
G1 X85.559 Y129.937 E9.65626
G1 X85.278 Y129.46 E9.67399
G1 X85.052 Y128.966 E9.69138
G1 X84.875 Y128.442 E9.70908
G1 X84.753 Y127.907 E9.72665
G1 X84.688 Y127.369 E9.744
G1 X84.679 Y126.819 E9.76161
G1 X84.725 Y126.274 E9.77912
G1 X84.827 Y125.736 E9.79665
G1 X84.985 Y125.21 E9.81423
G1 X85.195 Y124.705 E9.83174
G1 X85.458 Y124.222 E9.84934
G1 X85.767 Y123.77 E9.86687
G1 X86.126 Y123.347 E9.88463
G1 X86.522 Y122.968 E9.90218
G1 X86.955 Y122.632 E9.91973
G1 X87.415 Y122.345 E9.93708
G1 X87.913 Y122.102 E9.95482
G1 X88.428 Y121.912 E9.97239
G1 X88.954 Y121.779 E9.98976
G1 X89.495 Y121.699 E10.00727
G1 X90.045 Y121.675 E10.02489
G1 X90.591 Y121.708 E10.0424
G1 X91.138 Y121.798 E10.06015
G1 X91.66 Y121.94 E10.07747
G1 X92.172 Y122.138 E10.09504
G1 X92.66 Y122.387 E10.11258
G1 X93.126 Y122.689 E10.13036
G1 X93.553 Y123.033 E10.14791
G1 X93.937 Y123.414 E10.16523
G1 X94.285 Y123.838 E10.18279
G1 X94.591 Y124.301 E10.20056
