;FLAVOR:Marlin
;TIME:1347
;Filament used: 0.138584m, 0m
;Layer height: 0.1
;MINX:85.459
;MINY:115.557
;MINZ:0.2
;MAXX:94.544
;MAXY:138.442
;MAXZ:5.5
;Generated with Cura_SteamEngine 4.12.1
T0
M140 S40
M105
M190 S40
M104 S145
M105
M109 S145
M82 ;absolute extrusion mode
M605 S0 ; set x-carriage mode to independent control
T0 ; Switch to left extruder
G28 ; home all axes
G1 X210 Y40 Z0.1 F10000 ; go to wait position
G92 E0 ; reset extrusion distance
G1 X195 F5000 ; scrape off any ooze from heating
G1 Z7 ; move the bed down to avoid collision
G1 X40 Y6 F10000 ; move toolhead to the unused front edge
G1 Z0.20 F1000 ; move bed to prime start position
G1 X160 F1000 ; prime the nozzle
G1 X170 Z0.05 F5000 ; quick wipe
G1 Z7 ; move the bed down
G1 X-25 F5000 ; move T0 to home position
T1 ; switch to T1
G1 X210 Y40 Z0.1 F10000 ; go to wait position
G92 E0 ; reset extrusion distance
G1 X195 F5000 ; scrape off any ooze from heating
G1 Z7 ; move the bed down to avoid collision
G1 X40 Y7 F10000 ; move toolhead to the unused front edge
G1 Z0.20 F1000 ; move bed to prime start position
G1 X160 F1000 ; prime the nozzle
G1 X170 Z0.05 F5000 ; quick wipe
G1 Z7 ; move the bed down
G28 X ; home T1 toolhead
G92 E0
T1
G1 X250 F18000 ; park T1
T0
G1 X-25 F18000 ; maker sure T0 is parked
G92 E0
G1 F600 E-1
;LAYER_COUNT:54
;LAYER:0
M107
G0 F3600 X87.225 Y116.502 Z0.2
;TYPE:SKIRT
G1 F600 E0
G1 F300 X87.551 Y116.273 E0.01458
G1 X88.085 Y115.98 E0.03686
G1 X88.475 Y115.82 E0.05228
G1 X89.033 Y115.66 E0.07352
G1 X89.457 Y115.589 E0.08925
G1 X90.047 Y115.557 E0.11087
G1 X90.462 Y115.58 E0.12607
G1 X91.036 Y115.676 E0.14737
G1 X91.434 Y115.789 E0.1625
G1 X91.979 Y116.01 E0.18402
G1 X92.362 Y116.217 E0.19995
G1 X92.845 Y116.557 E0.22156
G1 X93.149 Y116.825 E0.23638
G1 X93.543 Y117.253 E0.25767
G1 X93.782 Y117.579 E0.27246
G1 X94.081 Y118.102 E0.2945
G1 X94.249 Y118.492 E0.31003
G1 X94.427 Y119.078 E0.33244
G1 X94.5 Y119.467 E0.34692
G1 X94.544 Y120.057 E0.36857
G1 X94.533 Y120.448 E0.38288
G1 X94.399 Y121.246 E0.41248
G1 X94.192 Y121.873 E0.43664
G1 X94.088 Y122.085 E0.44528
G1 X93.793 Y122.602 E0.46706
G1 X93.544 Y122.944 E0.48253
G1 X93.147 Y123.377 E0.50403
G1 X92.962 Y123.552 E0.51334
G1 X93.149 Y123.725 E0.52266
G1 X93.543 Y124.153 E0.54395
G1 X93.782 Y124.479 E0.55874
G1 X94.081 Y125.002 E0.58078
G1 X94.249 Y125.392 E0.59631
G1 X94.427 Y125.978 E0.61872
G1 X94.5 Y126.367 E0.6332
G1 X94.544 Y126.957 E0.65485
G1 X94.533 Y127.348 E0.66916
G1 X94.399 Y128.146 E0.69876
G1 X94.192 Y128.773 E0.72292
G1 X94.088 Y128.985 E0.73156
G1 X93.793 Y129.502 E0.75334
G1 X93.544 Y129.844 E0.76881
G1 X93.147 Y130.277 E0.79031
G1 X92.962 Y130.452 E0.79962
G1 X93.149 Y130.625 E0.80894
G1 X93.543 Y131.053 E0.83023
G1 X93.782 Y131.379 E0.84502
G1 X94.081 Y131.902 E0.86706
G1 X94.249 Y132.292 E0.88259
G1 X94.427 Y132.878 E0.905
G1 X94.5 Y133.267 E0.91948
G1 X94.544 Y133.857 E0.94113
G1 X94.533 Y134.248 E0.95544
G1 X94.399 Y135.046 E0.98504
G1 X94.192 Y135.673 E1.0092
G1 X94.088 Y135.885 E1.01784
G1 X93.793 Y136.402 E1.03962
G1 X93.544 Y136.744 E1.05509
G1 X93.147 Y137.177 E1.07659
G1 X92.708 Y137.548 E1.09761
G1 X92.225 Y137.862 E1.11869
G1 X91.848 Y138.051 E1.13412
G1 X91.293 Y138.256 E1.15577
G1 X90.881 Y138.358 E1.1713
G1 X90.288 Y138.435 E1.19317
G1 X89.868 Y138.442 E1.20854
G1 X89.293 Y138.388 E1.22967
G1 X88.96 Y138.325 E1.24207
G1 X88.477 Y138.185 E1.26047
G1 X88.087 Y138.023 E1.27592
G1 X87.548 Y137.726 E1.29843
G1 X87.225 Y137.498 E1.3129
G1 X86.78 Y137.105 E1.33462
G1 X86.498 Y136.795 E1.34995
G1 X86.155 Y136.322 E1.37133
G1 X85.96 Y135.98 E1.38573
G1 X85.718 Y135.421 E1.40802
G1 X85.601 Y135.038 E1.42267
G1 X85.49 Y134.447 E1.44467
G1 X85.459 Y134.037 E1.45971
G1 X85.478 Y133.454 E1.48106
G1 X85.532 Y133.063 E1.4955
G1 X85.707 Y132.395 E1.52076
G1 X85.777 Y132.226 E1.52745
G1 X86.037 Y131.678 E1.54964
G1 X86.52 Y130.976 E1.58082
G1 X87.057 Y130.45 E1.60832
G1 X86.663 Y130.092 E1.6278
G1 X86.498 Y129.895 E1.6372
G1 X86.155 Y129.422 E1.65858
G1 X85.96 Y129.08 E1.67298
G1 X85.718 Y128.521 E1.69527
G1 X85.601 Y128.138 E1.70992
G1 X85.49 Y127.547 E1.73192
G1 X85.459 Y127.137 E1.74696
G1 X85.478 Y126.554 E1.7683
G1 X85.532 Y126.163 E1.78274
G1 X85.707 Y125.495 E1.80801
G1 X85.777 Y125.326 E1.8147
G1 X86.037 Y124.778 E1.83689
G1 X86.52 Y124.076 E1.86807
G1 X87.057 Y123.55 E1.89557
G1 X86.663 Y123.192 E1.91504
G1 X86.498 Y122.995 E1.92445
G1 X86.155 Y122.522 E1.94582
G1 X85.96 Y122.18 E1.96023
G1 X85.718 Y121.621 E1.98251
G1 X85.601 Y121.238 E1.99716
G1 X85.49 Y120.647 E2.01916
G1 X85.459 Y120.237 E2.03421
G1 X85.478 Y119.654 E2.05555
G1 X85.532 Y119.263 E2.06999
G1 X85.707 Y118.595 E2.09525
G1 X85.777 Y118.426 E2.10195
G1 X86.037 Y117.878 E2.12414
G1 X86.52 Y117.176 E2.15531
G1 X86.78 Y116.895 E2.16932
G1 X87.225 Y116.502 E2.19104
G0 F3600 X87.49 Y116.802
G1 F300 X87.744 Y116.624 E2.20239
G1 X88.278 Y116.331 E2.22467
G1 X88.585 Y116.204 E2.23683
G1 X89.143 Y116.044 E2.25807
G1 X89.478 Y115.988 E2.27049
G1 X90.068 Y115.956 E2.29211
G1 X90.396 Y115.974 E2.30413
G1 X90.97 Y116.07 E2.32542
G1 X91.284 Y116.16 E2.33737
G1 X91.829 Y116.381 E2.35889
G1 X92.132 Y116.544 E2.37147
G1 X92.615 Y116.884 E2.39309
G1 X92.855 Y117.096 E2.4048
G1 X93.249 Y117.524 E2.42608
G1 X93.434 Y117.777 E2.43755
G1 X93.733 Y118.3 E2.45959
G1 X93.867 Y118.608 E2.47188
G1 X94.045 Y119.194 E2.49429
G1 X94.101 Y119.497 E2.50556
G1 X94.145 Y120.087 E2.52721
G1 X94.072 Y120.884 E2.55649
G1 X93.867 Y121.599 E2.5837
G1 X93.741 Y121.887 E2.5952
G1 X93.446 Y122.404 E2.61698
G1 X93.249 Y122.674 E2.62921
G1 X92.852 Y123.107 E2.6507
G1 X92.49 Y123.413 E2.66804
G1 X92.281 Y123.549 E2.67717
G1 X92.767 Y123.908 E2.69927
G1 X92.855 Y123.996 E2.70382
G1 X93.249 Y124.424 E2.72511
G1 X93.434 Y124.677 E2.73658
G1 X93.733 Y125.2 E2.75862
G1 X93.867 Y125.508 E2.7709
G1 X94.045 Y126.094 E2.79331
G1 X94.101 Y126.397 E2.80458
G1 X94.145 Y126.987 E2.82623
G1 X94.072 Y127.784 E2.85551
G1 X93.867 Y128.499 E2.88272
G1 X93.741 Y128.787 E2.89423
G1 X93.446 Y129.304 E2.916
G1 X93.249 Y129.574 E2.92823
G1 X92.852 Y130.007 E2.94972
G1 X92.49 Y130.313 E2.96707
G1 X92.281 Y130.449 E2.97619
G1 X92.767 Y130.808 E2.9983
G1 X92.855 Y130.896 E3.00285
G1 X93.249 Y131.324 E3.02413
G1 X93.434 Y131.577 E3.0356
G1 X93.733 Y132.1 E3.05764
G1 X93.867 Y132.408 E3.06993
G1 X94.045 Y132.994 E3.09234
G1 X94.101 Y133.297 E3.10361
G1 X94.145 Y133.887 E3.12525
G1 X94.072 Y134.684 E3.15454
G1 X93.867 Y135.399 E3.18175
G1 X93.741 Y135.687 E3.19325
G1 X93.446 Y136.204 E3.21503
G1 X93.249 Y136.474 E3.22726
G1 X92.852 Y136.907 E3.24875
G1 X92.49 Y137.213 E3.26609
G1 X92.007 Y137.527 E3.28717
G1 X91.709 Y137.676 E3.29936
G1 X91.154 Y137.881 E3.321
G1 X90.829 Y137.961 E3.33325
G1 X90.236 Y138.038 E3.35513
G1 X89.905 Y138.044 E3.36724
G1 X89.33 Y137.99 E3.38837
G1 X89.071 Y137.941 E3.39801
G1 X88.588 Y137.801 E3.41641
G1 X88.28 Y137.672 E3.42863
G1 X87.741 Y137.375 E3.45114
G1 X87.49 Y137.198 E3.46238
G1 X87.045 Y136.805 E3.4841
G1 X86.822 Y136.56 E3.49622
G1 X86.479 Y136.087 E3.5176
G1 X86.327 Y135.821 E3.52881
G1 X86.085 Y135.262 E3.55109
G1 X85.994 Y134.964 E3.56249
G1 X85.883 Y134.373 E3.58449
G1 X85.859 Y134.05 E3.59634
G1 X85.878 Y133.467 E3.61768
G1 X86.036 Y132.684 E3.64691
G1 X86.138 Y132.398 E3.65802
G1 X86.398 Y131.85 E3.68021
G1 X86.839 Y131.217 E3.70843
G1 X87.045 Y130.995 E3.71951
G1 X87.49 Y130.602 E3.74123
G1 X87.706 Y130.45 E3.7509
G1 X87.49 Y130.298 E3.76056
G1 X87.045 Y129.905 E3.78228
G1 X86.822 Y129.66 E3.7944
G1 X86.479 Y129.187 E3.81578
G1 X86.327 Y128.921 E3.82699
G1 X86.085 Y128.362 E3.84927
G1 X85.994 Y128.064 E3.86067
G1 X85.883 Y127.473 E3.88267
G1 X85.859 Y127.15 E3.89452
G1 X85.878 Y126.567 E3.91586
G1 X86.036 Y125.784 E3.94509
G1 X86.138 Y125.498 E3.9562
G1 X86.398 Y124.95 E3.97839
G1 X86.839 Y124.317 E4.00661
G1 X87.045 Y124.095 E4.01769
G1 X87.49 Y123.702 E4.03942
G1 X87.706 Y123.55 E4.04908
G1 X87.49 Y123.398 E4.05874
G1 X87.045 Y123.005 E4.08046
G1 X86.822 Y122.76 E4.09258
G1 X86.479 Y122.287 E4.11396
G1 X86.327 Y122.021 E4.12517
G1 X86.085 Y121.462 E4.14746
G1 X85.994 Y121.164 E4.15885
G1 X85.883 Y120.573 E4.18086
G1 X85.859 Y120.25 E4.19271
G1 X85.878 Y119.667 E4.21405
G1 X86.036 Y118.884 E4.24327
G1 X86.138 Y118.598 E4.25438
G1 X86.398 Y118.05 E4.27657
G1 X86.839 Y117.417 E4.3048
G1 X87.045 Y117.195 E4.31588
G1 X87.49 Y116.802 E4.3376
G0 F3600 X87.755 Y117.101
G1 F300 X87.936 Y116.974 E4.34569
G1 X88.47 Y116.681 E4.36797
G1 X88.695 Y116.589 E4.37687
G1 X89.253 Y116.429 E4.3981
G1 X89.5 Y116.387 E4.40727
G1 X90.09 Y116.355 E4.42889
G1 X90.33 Y116.369 E4.43768
G1 X90.904 Y116.465 E4.45897
G1 X91.134 Y116.53 E4.46772
G1 X91.679 Y116.751 E4.48924
G1 X91.902 Y116.871 E4.4985
G1 X92.385 Y117.211 E4.52011
G1 X92.561 Y117.367 E4.52872
G1 X92.955 Y117.795 E4.55
G1 X93.087 Y117.976 E4.55819
G1 X93.386 Y118.499 E4.58024
G1 X93.484 Y118.724 E4.58921
G1 X93.662 Y119.31 E4.61162
G1 X93.702 Y119.527 E4.61969
G1 X93.746 Y120.117 E4.64134
G1 X93.675 Y120.832 E4.66763
G1 X93.486 Y121.478 E4.69225
G1 X93.394 Y121.689 E4.70067
G1 X93.099 Y122.206 E4.72245
G1 X92.954 Y122.404 E4.73143
G1 X92.557 Y122.837 E4.75292
G1 X92.272 Y123.077 E4.76656
G1 X91.789 Y123.391 E4.78763
G1 X91.433 Y123.551 E4.80191
G1 X91.902 Y123.771 E4.82087
G1 X92.385 Y124.111 E4.84248
G1 X92.561 Y124.267 E4.85108
G1 X92.955 Y124.695 E4.87236
G1 X93.087 Y124.876 E4.88056
G1 X93.386 Y125.399 E4.9026
G1 X93.484 Y125.624 E4.91158
G1 X93.662 Y126.21 E4.93399
G1 X93.702 Y126.427 E4.94206
G1 X93.746 Y127.017 E4.9637
G1 X93.675 Y127.732 E4.98999
G1 X93.486 Y128.378 E5.01462
G1 X93.394 Y128.589 E5.02304
G1 X93.099 Y129.106 E5.04482
G1 X92.954 Y129.304 E5.0538
G1 X92.557 Y129.737 E5.07529
G1 X92.272 Y129.977 E5.08892
G1 X91.789 Y130.291 E5.11
G1 X91.433 Y130.451 E5.12428
G1 X91.902 Y130.671 E5.14323
G1 X92.385 Y131.011 E5.16484
G1 X92.561 Y131.167 E5.17344
G1 X92.955 Y131.595 E5.19473
G1 X93.087 Y131.776 E5.20292
G1 X93.386 Y132.299 E5.22497
G1 X93.484 Y132.524 E5.23394
G1 X93.662 Y133.11 E5.25635
G1 X93.702 Y133.327 E5.26442
G1 X93.746 Y133.917 E5.28607
G1 X93.675 Y134.632 E5.31236
G1 X93.486 Y135.278 E5.33698
G1 X93.394 Y135.489 E5.3454
G1 X93.099 Y136.006 E5.36718
G1 X92.954 Y136.204 E5.37616
G1 X92.557 Y136.637 E5.39765
G1 X92.272 Y136.877 E5.41128
G1 X91.789 Y137.191 E5.43236
G1 X91.57 Y137.301 E5.44133
G1 X91.015 Y137.506 E5.46297
G1 X90.778 Y137.565 E5.47191
G1 X90.185 Y137.642 E5.49379
G1 X89.942 Y137.646 E5.50268
G1 X89.367 Y137.592 E5.52381
G1 X89.183 Y137.556 E5.53067
G1 X88.7 Y137.416 E5.54907
G1 X88.473 Y137.322 E5.55806
G1 X87.934 Y137.025 E5.58057
G1 X87.755 Y136.899 E5.58858
G1 X87.31 Y136.506 E5.6103
G1 X87.145 Y136.325 E5.61926
G1 X86.802 Y135.852 E5.64064
G1 X86.694 Y135.662 E5.64863
G1 X86.452 Y135.103 E5.67092
G1 X86.387 Y134.891 E5.67903
G1 X86.276 Y134.3 E5.70103
G1 X86.259 Y134.063 E5.70973
G1 X86.278 Y133.48 E5.73107
G1 X86.425 Y132.779 E5.75727
G1 X86.5 Y132.569 E5.76543
G1 X86.76 Y132.021 E5.78762
G1 X87.158 Y131.458 E5.81285
G1 X87.31 Y131.294 E5.82103
G1 X87.755 Y130.901 E5.84275
G1 X87.936 Y130.774 E5.85084
G1 X88.47 Y130.481 E5.87312
G1 X88.533 Y130.452 E5.87566
G1 X88.473 Y130.422 E5.87811
G1 X87.934 Y130.125 E5.90063
G1 X87.755 Y129.999 E5.90864
G1 X87.31 Y129.606 E5.93036
G1 X87.145 Y129.425 E5.93932
G1 X86.802 Y128.952 E5.9607
G1 X86.694 Y128.762 E5.96869
G1 X86.452 Y128.203 E5.99098
G1 X86.387 Y127.991 E5.99909
G1 X86.276 Y127.4 E6.02109
G1 X86.259 Y127.163 E6.02979
G1 X86.278 Y126.58 E6.05113
G1 X86.425 Y125.879 E6.07733
G1 X86.5 Y125.669 E6.08549
G1 X86.76 Y125.121 E6.10768
G1 X87.158 Y124.558 E6.13291
G1 X87.31 Y124.394 E6.14109
G1 X87.755 Y124.001 E6.16281
G1 X87.936 Y123.874 E6.1709
G1 X88.47 Y123.581 E6.19318
G1 X88.533 Y123.552 E6.19572
G1 X88.473 Y123.522 E6.19817
G1 X87.934 Y123.225 E6.22069
G1 X87.755 Y123.099 E6.2287
G1 X87.31 Y122.706 E6.25042
G1 X87.145 Y122.525 E6.25938
G1 X86.802 Y122.052 E6.28076
G1 X86.694 Y121.862 E6.28875
G1 X86.452 Y121.303 E6.31104
G1 X86.387 Y121.091 E6.31915
G1 X86.276 Y120.5 E6.34115
G1 X86.259 Y120.263 E6.34984
G1 X86.278 Y119.68 E6.37119
G1 X86.425 Y118.979 E6.39739
G1 X86.5 Y118.769 E6.40555
G1 X86.76 Y118.221 E6.42774
G1 X87.158 Y117.658 E6.45296
G1 X87.31 Y117.494 E6.46115
G1 X87.755 Y117.101 E6.48287
G0 F3600 X88.02 Y117.401
G1 F300 X88.128 Y117.325 E6.4877
G1 X88.662 Y117.032 E6.50998
G1 X88.806 Y116.973 E6.51568
G1 X89.364 Y116.813 E6.53691
G1 X89.522 Y116.787 E6.54277
G1 X90.112 Y116.755 E6.56439
G1 X90.264 Y116.763 E6.56996
G1 X90.838 Y116.859 E6.59125
G1 X90.983 Y116.901 E6.59677
G1 X91.562 Y117.137 E6.61965
G1 X91.671 Y117.198 E6.62422
G1 X92.154 Y117.538 E6.64583
G1 X92.266 Y117.638 E6.65132
G1 X92.66 Y118.066 E6.67261
G1 X92.74 Y118.174 E6.67752
G1 X93.039 Y118.697 E6.69956
G1 X93.101 Y118.841 E6.7053
G1 X93.279 Y119.427 E6.72771
G1 X93.303 Y119.556 E6.73251
G1 X93.349 Y120.191 E6.7558
G1 X93.279 Y120.779 E6.77747
G1 X93.105 Y121.356 E6.79952
G1 X93.046 Y121.49 E6.80487
G1 X92.751 Y122.007 E6.82665
G1 X92.659 Y122.133 E6.83236
G1 X92.262 Y122.566 E6.85385
G1 X92.054 Y122.742 E6.86382
G1 X91.571 Y123.056 E6.8849
G1 X91.432 Y123.126 E6.89059
G1 X90.877 Y123.331 E6.91224
G1 X90.726 Y123.368 E6.91792
G1 X90.133 Y123.445 E6.9398
G1 X89.98 Y123.447 E6.9454
G1 X89.405 Y123.393 E6.96653
G1 X89.294 Y123.372 E6.97066
G1 X88.811 Y123.232 E6.98906
G1 X88.666 Y123.172 E6.9948
G1 X88.127 Y122.875 E7.01732
G1 X88.02 Y122.799 E7.02212
G1 X87.575 Y122.406 E7.04384
G1 X87.469 Y122.29 E7.04959
G1 X87.126 Y121.817 E7.07097
G1 X87.061 Y121.703 E7.07577
G1 X86.819 Y121.144 E7.09805
G1 X86.78 Y121.017 E7.10291
G1 X86.669 Y120.426 E7.12491
G1 X86.658 Y120.276 E7.13042
G1 X86.677 Y119.693 E7.15176
G1 X86.813 Y119.074 E7.17494
G1 X86.861 Y118.941 E7.18012
G1 X87.121 Y118.393 E7.20231
G1 X87.478 Y117.899 E7.22461
G1 X87.575 Y117.794 E7.22984
G1 X88.02 Y117.401 E7.25156
G0 F3600 X88.285 Y117.701
G1 F300 X88.321 Y117.676 E7.25316
G1 X88.877 Y117.372 E7.27635
G1 X88.916 Y117.358 E7.27786
G1 X89.474 Y117.198 E7.2991
G1 X89.543 Y117.186 E7.30166
G1 X90.154 Y117.154 E7.32405
G1 X90.198 Y117.158 E7.32566
G1 X90.799 Y117.26 E7.34797
G1 X90.833 Y117.272 E7.34929
G1 X91.389 Y117.498 E7.37124
G1 X91.441 Y117.525 E7.37339
G1 X91.924 Y117.865 E7.395
G1 X91.972 Y117.909 E7.39738
G1 X92.366 Y118.337 E7.41866
G1 X92.393 Y118.373 E7.42031
G1 X92.692 Y118.896 E7.44235
G1 X92.718 Y118.957 E7.44478
G1 X92.896 Y119.543 E7.46718
G1 X92.904 Y119.586 E7.46878
G1 X92.949 Y120.191 E7.49098
G1 X92.882 Y120.726 E7.51071
G1 X92.724 Y121.235 E7.5302
G1 X92.699 Y121.292 E7.53248
G1 X92.404 Y121.809 E7.55426
G1 X92.364 Y121.863 E7.55672
G1 X91.949 Y122.314 E7.57914
G1 X91.836 Y122.407 E7.5845
G1 X91.353 Y122.721 E7.60557
G1 X91.293 Y122.751 E7.60803
G1 X90.718 Y122.962 E7.63044
G1 X90.675 Y122.971 E7.63204
G1 X90.056 Y123.05 E7.65487
G1 X90.017 Y123.049 E7.6563
G1 X89.442 Y122.995 E7.67743
G1 X89.405 Y122.988 E7.67881
G1 X88.922 Y122.848 E7.69721
G1 X88.859 Y122.821 E7.69971
G1 X88.32 Y122.524 E7.72223
G1 X88.285 Y122.499 E7.7238
G1 X87.827 Y122.093 E7.7462
G1 X87.793 Y122.055 E7.74806
G1 X87.45 Y121.582 E7.76944
G1 X87.428 Y121.544 E7.77104
G1 X87.186 Y120.985 E7.79333
G1 X87.173 Y120.943 E7.79494
G1 X87.062 Y120.352 E7.81694
G1 X87.058 Y120.289 E7.81925
G1 X87.079 Y119.686 E7.84132
G1 X87.202 Y119.169 E7.86077
G1 X87.222 Y119.112 E7.86298
G1 X87.482 Y118.564 E7.88517
G1 X87.797 Y118.14 E7.90449
G1 X87.84 Y118.094 E7.9068
G1 X88.285 Y117.701 E7.92852
G1 F600 E6.92852
G0 F3600 X87.977 Y117.352
G0 X87.066 Y118.355
G0 X86.615 Y119.652
G0 X86.748 Y121.139
G0 X87.509 Y122.434
G0 X88.632 Y123.215
G0 X89.364 Y123.713
G1 F600 E7.92852
G1 F300 X89.522 Y123.687 E7.93438
G1 X90.112 Y123.655 E7.95599
G1 X90.264 Y123.663 E7.96156
G1 X90.838 Y123.759 E7.98285
G1 X90.983 Y123.801 E7.98838
G1 X91.562 Y124.037 E8.01125
G1 X91.671 Y124.098 E8.01582
G1 X92.154 Y124.438 E8.03743
G1 X92.266 Y124.538 E8.04293
G1 X92.66 Y124.966 E8.06421
G1 X92.74 Y125.074 E8.06913
G1 X93.039 Y125.597 E8.09117
G1 X93.101 Y125.741 E8.0969
G1 X93.279 Y126.327 E8.11931
G1 X93.303 Y126.456 E8.12411
G1 X93.349 Y127.091 E8.1474
G1 X93.279 Y127.679 E8.16907
