;FLAVOR:Marlin
;TIME:535
;Filament used: 0.22423m, 0m
;Layer height: 0.2
;MINX:82.025
;MINY:119.025
;MINZ:0.2
;MAXX:97.975
;MAXY:134.975
;MAXZ:10
;Generated with Cura_SteamEngine 4.12.1
T0
M140 S30
M105
M190 S30
M104 S230
M105
M109 S230
M82 ;absolute extrusion mode
M605 S0 ; set x-carriage mode to independent control
T0 ; Switch to left extruder
G28 ; home all axes
G1 X210 Y40 Z0.1 F10000 ; go to wait position
G92 E0 ; reset extrusion distance
G1 X195 F5000 ; scrape off any ooze from heating
G1 Z7 ; move the bed down to avoid collision
G1 X40 Y6 F10000 ; move toolhead to the unused front edge
G1 Z0.20 F1000 ; move bed to prime start position
G1 X160 E10 F1000 ; prime the nozzle
G1 X170 Z0.05 F5000 ; quick wipe
G1 Z7 ; move the bed down
G1 X-25 F5000 ; move T0 to home position
T1 ; switch to T1
G1 X210 Y40 Z0.1 F10000 ; go to wait position
G92 E0 ; reset extrusion distance
G1 X195 F5000 ; scrape off any ooze from heating
G1 Z7 ; move the bed down to avoid collision
G1 X40 Y7 F10000 ; move toolhead to the unused front edge
G1 Z0.20 F1000 ; move bed to prime start position
G1 X160 E10 F1000 ; prime the nozzle
G1 X170 Z0.05 F5000 ; quick wipe
G1 Z7 ; move the bed down
G28 X ; home T1 toolhead
G92 E0
T1
G1 X250 F18000 ; park T1
T0
G1 X-25 F18000 ; maker sure T0 is parked
G92 E0
G1 F1800 E-1
;LAYER_COUNT:50
;LAYER:0
M107
G0 F3600 X83.353 Y119.522 Z0.2
;TYPE:SKIRT
G1 F1800 E0
G1 F750 X83.78 Y119.287 E0.01418
G1 X84.239 Y119.124 E0.02836
G1 X85 Y119.025 E0.05069
G1 X95 Y119.025 E0.34172
G1 X95.486 Y119.065 E0.35591
G1 X95.959 Y119.184 E0.37011
G1 X96.406 Y119.378 E0.38429
G1 X96.815 Y119.643 E0.39847
G1 X97.175 Y119.971 E0.41264
G1 X97.478 Y120.353 E0.42683
G1 X97.713 Y120.78 E0.44102
G1 X97.876 Y121.239 E0.45519
G1 X97.975 Y122 E0.47753
G1 X97.975 Y132 E0.76855
G1 X97.935 Y132.486 E0.78274
G1 X97.816 Y132.959 E0.79694
G1 X97.622 Y133.406 E0.81112
G1 X97.357 Y133.815 E0.8253
G1 X97.029 Y134.175 E0.83948
G1 X96.647 Y134.478 E0.85367
G1 X96.22 Y134.713 E0.86785
G1 X95.761 Y134.876 E0.88203
G1 X95 Y134.975 E0.90436
G1 X85 Y134.975 E1.19539
G1 X84.514 Y134.935 E1.20958
G1 X84.041 Y134.816 E1.22377
G1 X83.594 Y134.622 E1.23795
G1 X83.185 Y134.357 E1.25214
G1 X82.825 Y134.029 E1.26631
G1 X82.522 Y133.647 E1.2805
G1 X82.287 Y133.22 E1.29468
G1 X82.124 Y132.761 E1.30886
G1 X82.025 Y132 E1.33119
G1 X82.025 Y122 E1.62222
G1 X82.065 Y121.514 E1.63641
G1 X82.184 Y121.041 E1.65061
G1 X82.378 Y120.594 E1.66479
G1 X82.643 Y120.185 E1.67897
G1 X82.971 Y119.825 E1.69314
G1 X83.353 Y119.522 E1.70733
G0 F3600 X83.689 Y119.726
G1 F750 X84.104 Y119.533 E1.72065
G1 X84.546 Y119.415 E1.73397
G1 X85 Y119.375 E1.74723
G1 X95 Y119.375 E2.03826
G1 X95.456 Y119.415 E2.05158
G1 X95.898 Y119.533 E2.06489
G1 X96.313 Y119.727 E2.07823
G1 X96.688 Y119.99 E2.09156
G1 X97.012 Y120.314 E2.10489
G1 X97.274 Y120.689 E2.1182
G1 X97.467 Y121.104 E2.13152
G1 X97.585 Y121.546 E2.14484
G1 X97.625 Y122 E2.1581
G1 X97.625 Y132 E2.44913
G1 X97.585 Y132.456 E2.46245
G1 X97.467 Y132.898 E2.47576
G1 X97.273 Y133.313 E2.48909
G1 X97.01 Y133.688 E2.50242
G1 X96.686 Y134.012 E2.51576
G1 X96.311 Y134.274 E2.52907
G1 X95.896 Y134.467 E2.54239
G1 X95.454 Y134.585 E2.55571
G1 X95 Y134.625 E2.56897
G1 X85 Y134.625 E2.86
G1 X84.544 Y134.585 E2.87332
G1 X84.102 Y134.467 E2.88663
G1 X83.687 Y134.273 E2.89996
G1 X83.312 Y134.01 E2.91329
G1 X82.988 Y133.686 E2.92663
G1 X82.726 Y133.311 E2.93994
G1 X82.533 Y132.896 E2.95326
G1 X82.415 Y132.454 E2.96658
G1 X82.375 Y132 E2.97984
G1 X82.375 Y122 E3.27087
G1 X82.415 Y121.544 E3.28419
G1 X82.533 Y121.102 E3.2975
G1 X82.727 Y120.687 E3.31083
G1 X82.99 Y120.312 E3.32416
G1 X83.314 Y119.988 E3.3375
G1 X83.689 Y119.726 E3.35081
G0 F3600 X83.654 Y120.166
G1 F750 X84.02 Y119.947 E3.36322
G1 X84.42 Y119.8 E3.37563
G1 X85 Y119.725 E3.39265
G1 X95 Y119.725 E3.68367
G1 X95.424 Y119.765 E3.69607
G1 X95.834 Y119.883 E3.70848
G1 X96.214 Y120.076 E3.72089
G1 X96.551 Y120.336 E3.73327
G1 X96.834 Y120.654 E3.74566
G1 X97.053 Y121.02 E3.75808
G1 X97.2 Y121.42 E3.77048
G1 X97.275 Y122 E3.7875
G1 X97.275 Y132 E4.07852
G1 X97.235 Y132.424 E4.09092
G1 X97.117 Y132.834 E4.10334
G1 X96.924 Y133.214 E4.11574
G1 X96.664 Y133.551 E4.12813
G1 X96.346 Y133.834 E4.14051
G1 X95.98 Y134.053 E4.15293
G1 X95.58 Y134.2 E4.16533
G1 X95 Y134.275 E4.18235
G1 X85 Y134.275 E4.47338
G1 X84.576 Y134.235 E4.48577
G1 X84.166 Y134.117 E4.49819
G1 X83.786 Y133.924 E4.51059
G1 X83.449 Y133.664 E4.52298
G1 X83.166 Y133.346 E4.53537
G1 X82.947 Y132.98 E4.54778
G1 X82.8 Y132.58 E4.56018
G1 X82.725 Y132 E4.5772
G1 X82.725 Y122 E4.86823
G1 X82.765 Y121.576 E4.88062
G1 X82.883 Y121.166 E4.89304
G1 X83.076 Y120.786 E4.90544
G1 X83.336 Y120.449 E4.91783
G1 X83.654 Y120.166 E4.93022
G0 F3600 X83.992 Y120.36
G1 F750 X84.345 Y120.19 E4.94162
G1 X84.725 Y120.095 E4.95302
G1 X85 Y120.075 E4.96104
G1 X95 Y120.075 E5.25207
G1 X95.39 Y120.115 E5.26348
G1 X95.764 Y120.233 E5.27489
G1 X96.106 Y120.424 E5.28629
G1 X96.402 Y120.681 E5.2977
G1 X96.64 Y120.992 E5.3091
G1 X96.81 Y121.345 E5.3205
G1 X96.905 Y121.725 E5.3319
G1 X96.925 Y122 E5.33992
G1 X96.925 Y132 E5.63095
G1 X96.885 Y132.39 E5.64236
G1 X96.767 Y132.764 E5.65377
G1 X96.576 Y133.106 E5.66517
G1 X96.319 Y133.402 E5.67658
G1 X96.008 Y133.64 E5.68798
G1 X95.655 Y133.81 E5.69938
G1 X95.275 Y133.905 E5.71078
G1 X95 Y133.925 E5.71881
G1 X85 Y133.925 E6.00983
G1 X84.61 Y133.885 E6.02124
G1 X84.236 Y133.767 E6.03265
G1 X83.894 Y133.576 E6.04405
G1 X83.598 Y133.319 E6.05546
G1 X83.36 Y133.008 E6.06686
G1 X83.19 Y132.655 E6.07826
G1 X83.095 Y132.275 E6.08966
G1 X83.075 Y132 E6.09769
G1 X83.075 Y122 E6.38871
G1 X83.115 Y121.61 E6.40012
G1 X83.233 Y121.236 E6.41154
G1 X83.424 Y120.894 E6.42294
G1 X83.681 Y120.598 E6.43434
G1 X83.992 Y120.36 E6.44574
G0 F3600 X84.023 Y120.764
G1 F750 X84.324 Y120.577 E6.45605
G1 X84.66 Y120.462 E6.46639
G1 X85 Y120.425 E6.47634
G1 X95 Y120.425 E6.76737
G1 X95.352 Y120.465 E6.77768
G1 X95.686 Y120.582 E6.78798
G1 X95.986 Y120.772 E6.79831
G1 X96.236 Y121.023 E6.80862
G1 X96.423 Y121.324 E6.81894
G1 X96.538 Y121.66 E6.82927
G1 X96.575 Y122 E6.83922
G1 X96.575 Y132 E7.13025
G1 X96.535 Y132.352 E7.14056
G1 X96.418 Y132.686 E7.15086
G1 X96.228 Y132.986 E7.16119
G1 X95.977 Y133.236 E7.1715
G1 X95.676 Y133.423 E7.18182
G1 X95.34 Y133.538 E7.19215
G1 X95 Y133.575 E7.20211
G1 X85 Y133.575 E7.49313
G1 X84.648 Y133.535 E7.50344
G1 X84.314 Y133.418 E7.51374
G1 X84.014 Y133.228 E7.52408
G1 X83.764 Y132.977 E7.53439
G1 X83.577 Y132.676 E7.5447
G1 X83.462 Y132.34 E7.55503
G1 X83.425 Y132 E7.56499
G1 X83.425 Y122 E7.85601
G1 X83.465 Y121.648 E7.86632
G1 X83.582 Y121.314 E7.87662
G1 X83.772 Y121.014 E7.88696
G1 X84.023 Y120.764 E7.89727
G0 F3600 X84.362 Y120.954
G1 F750 X84.647 Y120.827 E7.90635
G1 X85 Y120.775 E7.91673
G1 X95 Y120.775 E8.20776
G1 X95.31 Y120.815 E8.21685
G1 X95.6 Y120.932 E8.22595
G1 X95.85 Y121.118 E8.23502
G1 X96.046 Y121.362 E8.24413
G1 X96.173 Y121.647 E8.25321
G1 X96.225 Y122 E8.2636
G1 X96.225 Y132 E8.55462
G1 X96.185 Y132.31 E8.56372
G1 X96.068 Y132.6 E8.57282
G1 X95.882 Y132.85 E8.58189
G1 X95.638 Y133.046 E8.591
G1 X95.353 Y133.173 E8.60008
G1 X95 Y133.225 E8.61046
G1 X85 Y133.225 E8.90149
G1 X84.69 Y133.185 E8.91058
G1 X84.4 Y133.068 E8.91968
G1 X84.15 Y132.882 E8.92875
G1 X83.954 Y132.638 E8.93786
G1 X83.827 Y132.353 E8.94694
G1 X83.775 Y132 E8.95733
G1 X83.775 Y122 E9.24835
G1 X83.815 Y121.69 E9.25745
G1 X83.932 Y121.4 E9.26655
G1 X84.118 Y121.15 E9.27562
G1 X84.362 Y120.954 E9.28473
G0 F3600 X84.462 Y121.31
G1 F750 X84.692 Y121.181 E9.2924
G1 X85 Y121.125 E9.30151
G1 X95 Y121.125 E9.59254
G1 X95.261 Y121.165 E9.60022
G1 X95.498 Y121.28 E9.60789
G1 X95.69 Y121.462 E9.61559
G1 X95.819 Y121.692 E9.62326
G1 X95.875 Y122 E9.63237
G1 X95.875 Y132 E9.9234
G1 X95.835 Y132.261 E9.93108
G1 X95.72 Y132.498 E9.93875
G1 X95.538 Y132.69 E9.94645
G1 X95.308 Y132.819 E9.95412
G1 X95 Y132.875 E9.96323
G1 X85 Y132.875 E10.25426
G1 X84.739 Y132.835 E10.26194
G1 X84.502 Y132.72 E10.26961
G1 X84.31 Y132.538 E10.27731
G1 X84.181 Y132.308 E10.28498
G1 X84.125 Y132 E10.2941
G1 X84.125 Y122 E10.58512
G1 X84.165 Y121.739 E10.59281
G1 X84.28 Y121.502 E10.60047
G1 X84.462 Y121.31 E10.60817
G0 F3600 X84.797 Y121.516
G1 F750 X85 Y121.475 E10.6142
G1 X95 Y121.475 E10.90523
G1 X95.2 Y121.515 E10.91116
G1 X95.37 Y121.627 E10.91709
G1 X95.484 Y121.797 E10.92304
G1 X95.525 Y122 E10.92907
G1 X95.525 Y132 E11.2201
G1 X95.485 Y132.2 E11.22603
G1 X95.373 Y132.37 E11.23196
G1 X95.203 Y132.484 E11.23791
G1 X95 Y132.525 E11.24394
G1 X85 Y132.525 E11.53497
G1 X84.8 Y132.485 E11.5409
G1 X84.63 Y132.373 E11.54683
G1 X84.516 Y132.203 E11.55278
G1 X84.475 Y132 E11.55881
G1 X84.475 Y122 E11.84984
G1 X84.515 Y121.8 E11.85577
G1 X84.627 Y121.63 E11.8617
G1 X84.797 Y121.516 E11.86765
G0 F3600 X84.864 Y121.89
G1 F750 X85 Y121.825 E11.87204
G1 X95 Y121.825 E12.16307
G1 X95.11 Y121.864 E12.16646
G1 X95.175 Y122 E12.17085
G1 X95.175 Y132 E12.46188
G1 X95.136 Y132.11 E12.46527
G1 X95 Y132.175 E12.46966
G1 X85 Y132.175 E12.76069
G1 X84.89 Y132.136 E12.76408
G1 X84.825 Y132 E12.76847
G1 X84.825 Y122 E13.0595
G1 X84.864 Y121.89 E13.06289
;MESH:xyzCalibration_cube.stl
G0 F3600 X85.175 Y122.175
;TYPE:WALL-OUTER
G1 F750 X94.825 Y122.175 E13.34373
G1 X94.825 Y131.825 E13.62457
G1 X85.175 Y131.825 E13.90541
G1 X85.175 Y122.175 E14.18625
G0 F3600 X85.35 Y122.175
G0 X85.525 Y122.525
;TYPE:WALL-INNER
G1 F750 X94.475 Y122.525 E14.44672
G1 X94.475 Y131.475 E14.70719
G1 X85.525 Y131.475 E14.96766
G1 X85.525 Y122.525 E15.22813
G0 F3600 X85.865 Y122.865
;TYPE:SKIN
G1 F750 X94.135 Y122.865 E15.46881
G1 X94.135 Y131.135 E15.70948
G1 X85.865 Y131.135 E15.95016
G1 X85.865 Y122.865 E16.19084
G1 F1800 E15.19084
G0 F3600 X85.865 Y121.335
G0 X93.978 Y121.335
G0 X93.978 Y123.181
G1 F1800 E16.19084
G1 F750 X93.818 Y123.021 E16.19743
G0 F3600 X93.323 Y123.021
G1 F750 X93.978 Y123.676 E16.22438
G0 F3600 X93.978 Y124.171
G1 F750 X92.828 Y123.021 E16.27172
G0 F3600 X92.333 Y123.021
G1 F750 X93.978 Y124.666 E16.33942
G0 F3600 X93.978 Y125.161
G1 F750 X91.838 Y123.021 E16.4275
G0 F3600 X91.343 Y123.021
G1 F750 X93.978 Y125.656 E16.53595
G0 F3600 X93.978 Y126.151
G1 F750 X90.848 Y123.021 E16.66477
G0 F3600 X90.353 Y123.021
G1 F750 X93.978 Y126.646 E16.81396
G0 F3600 X93.978 Y127.141
G1 F750 X89.858 Y123.021 E16.98353
G0 F3600 X89.363 Y123.021
G1 F750 X93.978 Y127.636 E17.17347
G0 F3600 X93.978 Y128.131
G1 F750 X88.868 Y123.021 E17.38379
G0 F3600 X88.373 Y123.021
G1 F750 X93.978 Y128.626 E17.61447
G0 F3600 X93.978 Y129.121
G1 F750 X87.878 Y123.021 E17.86553
G0 F3600 X87.383 Y123.021
G1 F750 X93.978 Y129.616 E18.13697
G0 F3600 X93.978 Y130.111
G1 F750 X86.888 Y123.021 E18.42877
G0 F3600 X86.393 Y123.021
G1 F750 X93.978 Y130.606 E18.74095
G0 F3600 X93.853 Y130.976
G1 F750 X86.022 Y123.145 E19.06325
G0 F3600 X86.022 Y123.64
G1 F750 X93.358 Y130.976 E19.36518
G0 F3600 X92.863 Y130.976
G1 F750 X86.022 Y124.135 E19.64674
G0 F3600 X86.022 Y124.63
G1 F750 X92.368 Y130.976 E19.90792
G0 F3600 X91.873 Y130.976
G1 F750 X86.022 Y125.125 E20.14874
G0 F3600 X86.022 Y125.62
G1 F750 X91.378 Y130.976 E20.36917
G0 F3600 X90.883 Y130.976
G1 F750 X86.022 Y126.115 E20.56924
G0 F3600 X86.022 Y126.61
G1 F750 X90.388 Y130.976 E20.74893
G0 F3600 X89.893 Y130.976
G1 F750 X86.022 Y127.105 E20.90825
G0 F3600 X86.022 Y127.6
G1 F750 X89.398 Y130.976 E21.0472
G0 F3600 X88.903 Y130.976
G1 F750 X86.022 Y128.095 E21.16577
G0 F3600 X86.022 Y128.59
G1 F750 X88.408 Y130.976 E21.26397
G0 F3600 X87.913 Y130.976
G1 F750 X86.022 Y129.085 E21.3418
G0 F3600 X86.022 Y129.58
G1 F750 X87.418 Y130.976 E21.39926
G0 F3600 X86.923 Y130.976
G1 F750 X86.022 Y130.075 E21.43634
G0 F3600 X86.022 Y130.57
G1 F750 X86.428 Y130.976 E21.45305
G1 F1800 E20.45305
;MESH:NONMESH
G0 F600 X86.428 Y130.976 Z0.4
G0 F3600 X86.428 Y132.665
G0 X84.347 Y132.653
G0 X84.335 Y122.525
G0 X85.525 Y122.525
;TIME_ELAPSED:64.489792
;LAYER:1
M106 S127.5
;TYPE:WALL-INNER
;MESH:xyzCalibration_cube.stl
G1 F1800 E21.45305
G1 F1125 X94.475 Y122.525 E21.71352
G1 X94.475 Y131.475 E21.97399
G1 X85.525 Y131.475 E22.23446
G1 X85.525 Y122.525 E22.49493
G0 F5400 X85.175 Y122.175
;TYPE:WALL-OUTER
G1 F750 X94.825 Y122.175 E22.77577
G1 X94.825 Y131.825 E23.05661
G1 X85.175 Y131.825 E23.33745
G1 X85.175 Y122.175 E23.61829
G0 F5400 X85.35 Y122.175
G0 X85.865 Y122.865
;TYPE:SKIN
G1 F750 X94.135 Y122.865 E23.85897
G1 X94.135 Y131.135 E24.09964
G1 X85.865 Y131.135 E24.34032
G1 X85.865 Y122.865 E24.581
G0 F5400 X86.022 Y123.351
G1 F750 X86.353 Y123.021 E24.5946
G0 F5400 X86.848 Y123.021
G1 F750 X86.022 Y123.846 E24.62858
G0 F5400 X86.022 Y124.341
G1 F750 X87.343 Y123.021 E24.68293
G0 F5400 X87.838 Y123.021
G1 F750 X86.022 Y124.836 E24.75765
G0 F5400 X86.022 Y125.331
G1 F750 X88.333 Y123.021 E24.85274
G0 F5400 X88.828 Y123.021
G1 F750 X86.022 Y125.826 E24.96821
G0 F5400 X86.022 Y126.321
G1 F750 X89.323 Y123.021 E25.10405
G0 F5400 X89.818 Y123.021
G1 F750 X86.022 Y126.816 E25.26026
G0 F5400 X86.022 Y127.311
G1 F750 X90.313 Y123.021 E25.43685
G0 F5400 X90.808 Y123.021
G1 F750 X86.022 Y127.806 E25.63381
G0 F5400 X86.022 Y128.301
G1 F750 X91.303 Y123.021 E25.85114
G0 F5400 X91.798 Y123.021
G1 F750 X86.022 Y128.796 E26.08884
G0 F5400 X86.022 Y129.291
G1 F750 X92.292 Y123.021 E26.3469
G0 F5400 X92.787 Y123.021
G1 F750 X86.022 Y129.786 E26.62533
G0 F5400 X86.022 Y130.281
G1 F750 X93.282 Y123.021 E26.92413
G0 F5400 X93.777 Y123.021
G1 F750 X86.022 Y130.776 E27.2433
G0 F5400 X86.316 Y130.977
G1 F750 X93.978 Y123.315 E27.55865
G0 F5400 X93.978 Y123.81
G1 F750 X86.811 Y130.977 E27.85363
G0 F5400 X87.306 Y130.977
G1 F750 X93.978 Y124.305 E28.12823
G0 F5400 X93.978 Y124.8
G1 F750 X87.801 Y130.977 E28.38246
G0 F5400 X88.296 Y130.977
G1 F750 X93.978 Y125.295 E28.61631
G0 F5400 X93.978 Y125.79
G1 F750 X88.791 Y130.977 E28.82979
G0 F5400 X89.286 Y130.977
G1 F750 X93.978 Y126.285 E29.0229
G0 F5400 X93.978 Y126.78
G1 F750 X89.781 Y130.977 E29.19564
G0 F5400 X90.276 Y130.977
G1 F750 X93.978 Y127.275 E29.34801
G0 F5400 X93.978 Y127.77
G1 F750 X90.771 Y130.977 E29.48
G0 F5400 X91.266 Y130.977
G1 F750 X93.978 Y128.265 E29.59162
G0 F5400 X93.978 Y128.76
G1 F750 X91.761 Y130.977 E29.68286
G0 F5400 X92.256 Y130.977
G1 F750 X93.978 Y129.255 E29.75373
G0 F5400 X93.978 Y129.75
G1 F750 X92.751 Y130.977 E29.80423
G0 F5400 X93.246 Y130.977
G1 F750 X93.978 Y130.245 E29.83436
G0 F5400 X93.978 Y130.74
G1 F750 X93.741 Y130.977 E29.84412
G1 F1800 E28.84412
;MESH:NONMESH
G0 F600 X93.741 Y130.977 Z0.6
G0 F5400 X93.741 Y132.665
G0 X84.347 Y132.653
G0 X84.335 Y122.525
G0 X85.525 Y122.525
;TIME_ELAPSED:87.746364
;LAYER:2
M106 S255
;TYPE:WALL-INNER
;MESH:xyzCalibration_cube.stl
G1 F1800 E29.84412
G1 F1500 X94.475 Y122.525 E30.10458
G1 X94.475 Y131.475 E30.36505
G1 X85.525 Y131.475 E30.62552
G1 X85.525 Y122.525 E30.88599
G0 F7200 X85.175 Y122.175
;TYPE:WALL-OUTER
G1 F750 X94.825 Y122.175 E31.16683
G1 X94.825 Y131.825 E31.44767
G1 X85.175 Y131.825 E31.72851
G1 X85.175 Y122.175 E32.00935
G0 F7200 X85.35 Y122.175
G0 X85.865 Y122.865
;TYPE:SKIN
G1 F750 X94.135 Y122.865 E32.25003
G1 X94.135 Y131.135 E32.49071
G1 X85.865 Y131.135 E32.73139
G1 X85.865 Y122.865 E32.97207
G1 F1800 E31.97207
G0 F7200 X85.865 Y121.335
G0 X93.978 Y121.335
G0 X93.978 Y123.181
G1 F1800 E32.97207
G1 F750 X93.818 Y123.021 E32.97865
G0 F7200 X93.323 Y123.021
G1 F750 X93.978 Y123.676 E33.00561
G0 F7200 X93.978 Y124.171
G1 F750 X92.828 Y123.021 E33.05294
G0 F7200 X92.333 Y123.021
G1 F750 X93.978 Y124.666 E33.12064
G0 F7200 X93.978 Y125.161
G1 F750 X91.838 Y123.021 E33.20872
G0 F7200 X91.343 Y123.021
G1 F750 X93.978 Y125.656 E33.31717
G0 F7200 X93.978 Y126.151
G1 F750 X90.848 Y123.021 E33.44599
G0 F7200 X90.353 Y123.021
G1 F750 X93.978 Y126.646 E33.59519
G0 F7200 X93.978 Y127.141
G1 F750 X89.858 Y123.021 E33.76476
G0 F7200 X89.363 Y123.021
G1 F750 X93.978 Y127.636 E33.9547
G0 F7200 X93.978 Y128.131
G1 F750 X88.868 Y123.021 E34.16501
G0 F7200 X88.373 Y123.021
G1 F750 X93.978 Y128.626 E34.3957
G0 F7200 X93.978 Y129.121
G1 F750 X87.878 Y123.021 E34.64676
G0 F7200 X87.383 Y123.021
G1 F750 X93.978 Y129.616 E34.91819
G0 F7200 X93.978 Y130.111
