;FLAVOR:Marlin
;TIME:707
;Filament used: 0.306077m, 0m
;Layer height: 0.2
;MINX:77.025
;MINY:114.025
;MINZ:0.2
;MAXX:102.975
;MAXY:139.975
;MAXZ:10
;Generated with Cura_SteamEngine 4.12.1
T0
M140 S30
M105
M190 S30
M104 S230
M105
M109 S230
M82 ;absolute extrusion mode
M605 S0 ; set x-carriage mode to independent control
T0 ; Switch to left extruder
G28 ; home all axes
G1 X210 Y40 Z0.1 F10000 ; go to wait position
G92 E0 ; reset extrusion distance
G1 X195 F5000 ; scrape off any ooze from heating
G1 Z7 ; move the bed down to avoid collision
G1 X40 Y6 F10000 ; move toolhead to the unused front edge
G1 Z0.20 F1000 ; move bed to prime start position
G1 X160 E10 F1000 ; prime the nozzle
G1 X170 Z0.05 F5000 ; quick wipe
G1 Z7 ; move the bed down
G1 X-25 F5000 ; move T0 to home position
T1 ; switch to T1
G1 X210 Y40 Z0.1 F10000 ; go to wait position
G92 E0 ; reset extrusion distance
G1 X195 F5000 ; scrape off any ooze from heating
G1 Z7 ; move the bed down to avoid collision
G1 X40 Y7 F10000 ; move toolhead to the unused front edge
G1 Z0.20 F1000 ; move bed to prime start position
G1 X160 E10 F1000 ; prime the nozzle
G1 X170 Z0.05 F5000 ; quick wipe
G1 Z7 ; move the bed down
G28 X ; home T1 toolhead
G92 E0
T1
G1 X250 F18000 ; park T1
T0
G1 X-25 F18000 ; maker sure T0 is parked
G92 E0
G1 F1800 E-1
;LAYER_COUNT:50
;LAYER:0
M107
G0 F3600 X78.353 Y114.522 Z0.2
;TYPE:SKIRT
G1 F1800 E0
G1 F750 X78.78 Y114.287 E0.01418
G1 X79.239 Y114.124 E0.02836
G1 X80 Y114.025 E0.05069
G1 X100 Y114.025 E0.63275
G1 X100.486 Y114.065 E0.64694
G1 X100.959 Y114.184 E0.66113
G1 X101.406 Y114.378 E0.67531
G1 X101.815 Y114.643 E0.6895
G1 X102.175 Y114.971 E0.70367
G1 X102.478 Y115.353 E0.71786
G1 X102.713 Y115.78 E0.73204
G1 X102.876 Y116.239 E0.74622
G1 X102.975 Y117 E0.76855
G1 X102.975 Y137 E1.35061
G1 X102.935 Y137.486 E1.3648
G1 X102.816 Y137.959 E1.37899
G1 X102.622 Y138.406 E1.39317
G1 X102.357 Y138.815 E1.40736
G1 X102.029 Y139.175 E1.42153
G1 X101.647 Y139.478 E1.43572
G1 X101.22 Y139.713 E1.4499
G1 X100.761 Y139.876 E1.46408
G1 X100 Y139.975 E1.48641
G1 X80 Y139.975 E2.06847
G1 X79.514 Y139.935 E2.08266
G1 X79.041 Y139.816 E2.09685
G1 X78.594 Y139.622 E2.11103
G1 X78.185 Y139.357 E2.12522
G1 X77.825 Y139.029 E2.13939
G1 X77.522 Y138.647 E2.15358
G1 X77.287 Y138.22 E2.16776
G1 X77.124 Y137.761 E2.18194
G1 X77.025 Y137 E2.20427
G1 X77.025 Y117 E2.78632
G1 X77.065 Y116.514 E2.80052
G1 X77.184 Y116.041 E2.81471
G1 X77.378 Y115.594 E2.82889
G1 X77.643 Y115.185 E2.84308
G1 X77.971 Y114.825 E2.85725
G1 X78.353 Y114.522 E2.87144
G0 F3600 X78.689 Y114.726
G1 F750 X79.104 Y114.533 E2.88476
G1 X79.546 Y114.415 E2.89807
G1 X80 Y114.375 E2.91134
G1 X100 Y114.375 E3.49339
G1 X100.456 Y114.415 E3.50671
G1 X100.898 Y114.533 E3.52002
G1 X101.313 Y114.727 E3.53336
G1 X101.688 Y114.99 E3.54669
G1 X102.012 Y115.314 E3.56002
G1 X102.274 Y115.689 E3.57333
G1 X102.467 Y116.104 E3.58665
G1 X102.585 Y116.546 E3.59997
G1 X102.625 Y117 E3.61323
G1 X102.625 Y137 E4.19528
G1 X102.585 Y137.456 E4.20861
G1 X102.467 Y137.898 E4.22192
G1 X102.273 Y138.313 E4.23525
G1 X102.01 Y138.688 E4.24858
G1 X101.686 Y139.012 E4.26192
G1 X101.311 Y139.274 E4.27523
G1 X100.896 Y139.467 E4.28855
G1 X100.454 Y139.585 E4.30186
G1 X100 Y139.625 E4.31513
G1 X80 Y139.625 E4.89718
G1 X79.544 Y139.585 E4.9105
G1 X79.102 Y139.467 E4.92382
G1 X78.687 Y139.273 E4.93715
G1 X78.312 Y139.01 E4.95048
G1 X77.988 Y138.686 E4.96381
G1 X77.726 Y138.311 E4.97713
G1 X77.533 Y137.896 E4.99045
G1 X77.415 Y137.454 E5.00376
G1 X77.375 Y137 E5.01702
G1 X77.375 Y117 E5.59908
G1 X77.415 Y116.544 E5.6124
G1 X77.533 Y116.102 E5.62571
G1 X77.727 Y115.687 E5.63904
G1 X77.99 Y115.312 E5.65237
G1 X78.314 Y114.988 E5.66571
G1 X78.689 Y114.726 E5.67902
G0 F3600 X78.654 Y115.166
G1 F750 X79.02 Y114.947 E5.69143
G1 X79.42 Y114.8 E5.70384
G1 X80 Y114.725 E5.72086
G1 X100 Y114.725 E6.30291
G1 X100.424 Y114.765 E6.3153
G1 X100.834 Y114.883 E6.32772
G1 X101.214 Y115.076 E6.34012
G1 X101.551 Y115.336 E6.35251
G1 X101.834 Y115.654 E6.3649
G1 X102.053 Y116.02 E6.37731
G1 X102.2 Y116.42 E6.38971
G1 X102.275 Y117 E6.40673
G1 X102.275 Y137 E6.98879
G1 X102.235 Y137.424 E7.00118
G1 X102.117 Y137.834 E7.0136
G1 X101.924 Y138.214 E7.026
G1 X101.664 Y138.551 E7.03839
G1 X101.346 Y138.834 E7.05078
G1 X100.98 Y139.053 E7.06319
G1 X100.58 Y139.2 E7.07559
G1 X100 Y139.275 E7.09261
G1 X80 Y139.275 E7.67466
G1 X79.576 Y139.235 E7.68706
G1 X79.166 Y139.117 E7.69947
G1 X78.786 Y138.924 E7.71188
G1 X78.449 Y138.664 E7.72427
G1 X78.166 Y138.346 E7.73665
G1 X77.947 Y137.98 E7.74907
G1 X77.8 Y137.58 E7.76147
G1 X77.725 Y137 E7.77849
G1 X77.725 Y117 E8.36054
G1 X77.765 Y116.576 E8.37294
G1 X77.883 Y116.166 E8.38535
G1 X78.076 Y115.786 E8.39776
G1 X78.336 Y115.449 E8.41014
G1 X78.654 Y115.166 E8.42253
G0 F3600 X78.992 Y115.36
G1 F750 X79.345 Y115.19 E8.43393
G1 X79.725 Y115.095 E8.44533
G1 X80 Y115.075 E8.45336
G1 X100 Y115.075 E9.03541
G1 X100.39 Y115.115 E9.04682
G1 X100.764 Y115.233 E9.05823
G1 X101.106 Y115.424 E9.06963
G1 X101.402 Y115.681 E9.08104
G1 X101.64 Y115.992 E9.09244
G1 X101.81 Y116.345 E9.10384
G1 X101.905 Y116.725 E9.11524
G1 X101.925 Y117 E9.12327
G1 X101.925 Y137 E9.70532
G1 X101.885 Y137.39 E9.71673
G1 X101.767 Y137.764 E9.72814
G1 X101.576 Y138.106 E9.73954
G1 X101.319 Y138.402 E9.75095
G1 X101.008 Y138.64 E9.76235
G1 X100.655 Y138.81 E9.77375
G1 X100.275 Y138.905 E9.78515
G1 X100 Y138.925 E9.79317
G1 X80 Y138.925 E10.37522
G1 X79.61 Y138.885 E10.38663
G1 X79.236 Y138.767 E10.39805
G1 X78.894 Y138.576 E10.40945
G1 X78.598 Y138.319 E10.42086
G1 X78.36 Y138.008 E10.43225
G1 X78.19 Y137.655 E10.44366
G1 X78.095 Y137.275 E10.45505
G1 X78.075 Y137 E10.46308
G1 X78.075 Y117 E11.04513
G1 X78.115 Y116.61 E11.05654
G1 X78.233 Y116.236 E11.06795
G1 X78.424 Y115.894 E11.07935
G1 X78.681 Y115.598 E11.09076
G1 X78.992 Y115.36 E11.10216
G0 F3600 X79.023 Y115.764
G1 F750 X79.324 Y115.577 E11.11247
G1 X79.66 Y115.462 E11.12281
G1 X80 Y115.425 E11.13276
G1 X100 Y115.425 E11.71481
G1 X100.352 Y115.465 E11.72512
G1 X100.686 Y115.582 E11.73542
G1 X100.986 Y115.772 E11.74576
G1 X101.236 Y116.023 E11.75607
G1 X101.423 Y116.324 E11.76638
G1 X101.538 Y116.66 E11.77672
G1 X101.575 Y117 E11.78667
G1 X101.575 Y137 E12.36872
G1 X101.535 Y137.352 E12.37903
G1 X101.418 Y137.686 E12.38933
G1 X101.228 Y137.986 E12.39967
G1 X100.977 Y138.236 E12.40998
G1 X100.676 Y138.423 E12.42029
G1 X100.34 Y138.538 E12.43062
G1 X100 Y138.575 E12.44058
G1 X80 Y138.575 E13.02263
G1 X79.648 Y138.535 E13.03294
G1 X79.314 Y138.418 E13.04324
G1 X79.014 Y138.228 E13.05357
G1 X78.764 Y137.977 E13.06388
G1 X78.577 Y137.676 E13.0742
G1 X78.462 Y137.34 E13.08453
G1 X78.425 Y137 E13.09448
G1 X78.425 Y117 E13.67654
G1 X78.465 Y116.648 E13.68685
G1 X78.582 Y116.314 E13.69715
G1 X78.772 Y116.014 E13.70748
G1 X79.023 Y115.764 E13.71779
G0 F3600 X79.362 Y115.954
G1 F750 X79.647 Y115.827 E13.72687
G1 X80 Y115.775 E13.73726
G1 X100 Y115.775 E14.31931
G1 X100.31 Y115.815 E14.3284
G1 X100.6 Y115.932 E14.3375
G1 X100.85 Y116.118 E14.34657
G1 X101.046 Y116.362 E14.35568
G1 X101.173 Y116.647 E14.36476
G1 X101.225 Y117 E14.37515
G1 X101.225 Y137 E14.9572
G1 X101.185 Y137.31 E14.9663
G1 X101.068 Y137.6 E14.9754
G1 X100.882 Y137.85 E14.98446
G1 X100.638 Y138.046 E14.99357
G1 X100.353 Y138.173 E15.00265
G1 X100 Y138.225 E15.01304
G1 X80 Y138.225 E15.59509
G1 X79.69 Y138.185 E15.60419
G1 X79.4 Y138.068 E15.61329
G1 X79.15 Y137.882 E15.62236
G1 X78.954 Y137.638 E15.63146
G1 X78.827 Y137.353 E15.64054
G1 X78.775 Y137 E15.65093
G1 X78.775 Y117 E16.23298
G1 X78.815 Y116.69 E16.24208
G1 X78.932 Y116.4 E16.25118
G1 X79.118 Y116.15 E16.26025
G1 X79.362 Y115.954 E16.26935
G0 F3600 X79.462 Y116.31
G1 F750 X79.692 Y116.181 E16.27703
G1 X80 Y116.125 E16.28614
G1 X100 Y116.125 E16.86819
G1 X100.261 Y116.165 E16.87588
G1 X100.498 Y116.28 E16.88354
G1 X100.69 Y116.462 E16.89124
G1 X100.819 Y116.692 E16.89892
G1 X100.875 Y117 E16.90803
G1 X100.875 Y137 E17.49008
G1 X100.835 Y137.261 E17.49776
G1 X100.72 Y137.498 E17.50543
G1 X100.538 Y137.69 E17.51313
G1 X100.308 Y137.819 E17.5208
G1 X100 Y137.875 E17.52991
G1 X80 Y137.875 E18.11197
G1 X79.739 Y137.835 E18.11965
G1 X79.502 Y137.72 E18.12732
G1 X79.31 Y137.538 E18.13502
G1 X79.181 Y137.308 E18.14269
G1 X79.125 Y137 E18.1518
G1 X79.125 Y117 E18.73385
G1 X79.165 Y116.739 E18.74154
G1 X79.28 Y116.502 E18.74921
G1 X79.462 Y116.31 E18.7569
G0 F3600 X79.797 Y116.516
G1 F750 X80 Y116.475 E18.76293
G1 X100 Y116.475 E19.34498
G1 X100.2 Y116.515 E19.35092
G1 X100.37 Y116.627 E19.35684
G1 X100.484 Y116.797 E19.3628
G1 X100.525 Y117 E19.36883
G1 X100.525 Y137 E19.95088
G1 X100.485 Y137.2 E19.95682
G1 X100.373 Y137.37 E19.96274
G1 X100.203 Y137.484 E19.9687
G1 X100 Y137.525 E19.97473
G1 X80 Y137.525 E20.55678
G1 X79.8 Y137.485 E20.56271
G1 X79.63 Y137.373 E20.56864
G1 X79.516 Y137.203 E20.5746
G1 X79.475 Y137 E20.58062
G1 X79.475 Y117 E21.16267
G1 X79.515 Y116.8 E21.16861
G1 X79.627 Y116.63 E21.17454
G1 X79.797 Y116.516 E21.18049
G0 F3600 X79.864 Y116.89
G1 F750 X80 Y116.825 E21.18488
G1 X100 Y116.825 E21.76693
G1 X100.11 Y116.864 E21.77033
G1 X100.175 Y117 E21.77471
G1 X100.175 Y137 E22.35677
G1 X100.136 Y137.11 E22.36016
G1 X100 Y137.175 E22.36455
G1 X80 Y137.175 E22.9466
G1 X79.89 Y137.136 E22.95
G1 X79.825 Y137 E22.95439
G1 X79.825 Y117 E23.53644
G1 X79.864 Y116.89 E23.53983
;MESH:20x20x20.stl
G0 F3600 X80.175 Y117.175
;TYPE:WALL-OUTER
G1 F750 X99.825 Y117.175 E24.1117
G1 X99.825 Y136.825 E24.68357
G1 X80.175 Y136.825 E25.25543
G1 X80.175 Y117.175 E25.8273
G0 F3600 X80.35 Y117.175
G0 X80.525 Y117.525
;TYPE:WALL-INNER
G1 F750 X99.475 Y117.525 E26.3788
G1 X99.475 Y136.475 E26.93029
G1 X80.525 Y136.475 E27.48178
G1 X80.525 Y117.525 E28.03328
G0 F3600 X80.865 Y117.865
;TYPE:SKIN
G1 F750 X99.135 Y117.865 E28.56498
G1 X99.135 Y136.135 E29.09669
G1 X80.865 Y136.135 E29.62839
G1 X80.865 Y117.865 E30.1601
G1 F1800 E29.1601
G0 F3600 X80.865 Y116.335
G0 X98.977 Y116.335
G0 X98.977 Y118.281
G1 F1800 E30.1601
G1 F750 X98.717 Y118.021 E30.1708
G0 F3600 X98.222 Y118.021
G1 F750 X98.977 Y118.776 E30.20187
G0 F3600 X98.977 Y119.271
G1 F750 X97.727 Y118.021 E30.25332
G0 F3600 X97.232 Y118.021
G1 F750 X98.977 Y119.766 E30.32514
G0 F3600 X98.977 Y120.261
G1 F750 X96.737 Y118.021 E30.41733
G0 F3600 X96.242 Y118.021
G1 F750 X98.977 Y120.756 E30.5299
G0 F3600 X98.977 Y121.251
G1 F750 X95.747 Y118.021 E30.66283
G0 F3600 X95.252 Y118.021
G1 F750 X98.977 Y121.746 E30.81615
G0 F3600 X98.977 Y122.241
G1 F750 X94.757 Y118.021 E30.98983
G0 F3600 X94.262 Y118.021
G1 F750 X98.977 Y122.736 E31.18389
G0 F3600 X98.977 Y123.231
G1 F750 X93.768 Y118.021 E31.3983
G0 F3600 X93.273 Y118.021
G1 F750 X98.977 Y123.726 E31.63308
G0 F3600 X98.977 Y124.221
G1 F750 X92.778 Y118.021 E31.88823
G0 F3600 X92.283 Y118.021
G1 F750 X98.977 Y124.716 E32.16376
G0 F3600 X98.977 Y125.211
G1 F750 X91.788 Y118.021 E32.45966
G0 F3600 X91.293 Y118.021
G1 F750 X98.977 Y125.706 E32.77593
G0 F3600 X98.977 Y126.201
G1 F750 X90.798 Y118.021 E33.11258
G0 F3600 X90.303 Y118.021
G1 F750 X98.977 Y126.696 E33.4696
G0 F3600 X98.977 Y127.191
G1 F750 X89.808 Y118.021 E33.84699
G0 F3600 X89.313 Y118.021
G1 F750 X98.977 Y127.686 E34.24476
G0 F3600 X98.977 Y128.181
G1 F750 X88.818 Y118.021 E34.66289
G0 F3600 X88.323 Y118.021
G1 F750 X98.977 Y128.676 E35.1014
G0 F3600 X98.977 Y129.171
G1 F750 X87.828 Y118.021 E35.56029
G0 F3600 X87.333 Y118.021
G1 F750 X98.977 Y129.666 E36.03954
G0 F3600 X98.977 Y130.161
G1 F750 X86.838 Y118.021 E36.53917
G0 F3600 X86.343 Y118.021
G1 F750 X98.977 Y130.656 E37.05918
G0 F3600 X98.977 Y131.151
G1 F750 X85.848 Y118.021 E37.59955
G0 F3600 X85.353 Y118.021
G1 F750 X98.977 Y131.646 E38.1603
G0 F3600 X98.977 Y132.141
G1 F750 X84.858 Y118.021 E38.74142
G0 F3600 X84.363 Y118.021
G1 F750 X98.977 Y132.636 E39.34291
G0 F3600 X98.977 Y133.131
G1 F750 X83.868 Y118.021 E39.96478
G0 F3600 X83.373 Y118.021
G1 F750 X98.977 Y133.626 E40.60702
G0 F3600 X98.977 Y134.121
G1 F750 X82.878 Y118.021 E41.26963
G0 F3600 X82.383 Y118.021
G1 F750 X98.977 Y134.616 E41.95262
G0 F3600 X98.977 Y135.111
G1 F750 X81.888 Y118.021 E42.65597
G0 F3600 X81.393 Y118.021
G1 F750 X98.977 Y135.606 E43.37971
G0 F3600 X98.853 Y135.976
G1 F750 X81.022 Y118.145 E44.11358
G0 F3600 X81.022 Y118.64
G1 F750 X98.358 Y135.976 E44.82708
G0 F3600 X97.863 Y135.976
G1 F750 X81.022 Y119.135 E45.52021
G0 F3600 X81.022 Y119.63
G1 F750 X97.368 Y135.976 E46.19297
G0 F3600 X96.873 Y135.976
G1 F750 X81.022 Y120.125 E46.84536
G0 F3600 X81.022 Y120.62
G1 F750 X96.378 Y135.976 E47.47737
G0 F3600 X95.883 Y135.976
G1 F750 X81.022 Y121.115 E48.08901
G0 F3600 X81.022 Y121.61
G1 F750 X95.388 Y135.976 E48.68027
G0 F3600 X94.893 Y135.976
G1 F750 X81.022 Y122.105 E49.25117
G0 F3600 X81.022 Y122.6
G1 F750 X94.398 Y135.976 E49.80169
G0 F3600 X93.903 Y135.976
G1 F750 X81.022 Y123.095 E50.33183
G0 F3600 X81.022 Y123.59
G1 F750 X93.408 Y135.976 E50.84161
G0 F3600 X92.913 Y135.976
G1 F750 X81.022 Y124.085 E51.33101
G0 F3600 X81.022 Y124.58
G1 F750 X92.418 Y135.976 E51.80004
G0 F3600 X91.923 Y135.976
G1 F750 X81.022 Y125.075 E52.2487
G0 F3600 X81.022 Y125.57
G1 F750 X91.428 Y135.976 E52.67698
G0 F3600 X90.933 Y135.976
G1 F750 X81.022 Y126.065 E53.08489
G0 F3600 X81.022 Y126.56
G1 F750 X90.438 Y135.976 E53.47243
G0 F3600 X89.943 Y135.976
G1 F750 X81.022 Y127.055 E53.83959
G0 F3600 X81.022 Y127.55
G1 F750 X89.449 Y135.976 E54.1864
G0 F3600 X88.954 Y135.976
G1 F750 X81.022 Y128.045 E54.51284
G0 F3600 X81.022 Y128.539
G1 F750 X88.459 Y135.976 E54.81893
G0 F3600 X87.964 Y135.976
G1 F750 X81.022 Y129.034 E55.10464
G0 F3600 X81.022 Y129.529
G1 F750 X87.469 Y135.976 E55.36998
G0 F3600 X86.974 Y135.976
G1 F750 X81.022 Y130.024 E55.61495
G0 F3600 X81.022 Y130.519
G1 F750 X86.479 Y135.976 E55.83955
G0 F3600 X85.984 Y135.976
G1 F750 X81.022 Y131.014 E56.04377
G0 F3600 X81.022 Y131.509
G1 F750 X85.489 Y135.976 E56.22762
G0 F3600 X84.994 Y135.976
G1 F750 X81.022 Y132.004 E56.3911
G0 F3600 X81.022 Y132.499
G1 F750 X84.499 Y135.976 E56.5342
G0 F3600 X84.004 Y135.976
G1 F750 X81.022 Y132.994 E56.65693
G0 F3600 X81.022 Y133.489
G1 F750 X83.509 Y135.976 E56.75929
G0 F3600 X83.014 Y135.976
G1 F750 X81.022 Y133.984 E56.84128
G0 F3600 X81.022 Y134.479
G1 F750 X82.519 Y135.976 E56.90289
G0 F3600 X82.024 Y135.976
G1 F750 X81.022 Y134.974 E56.94413
G0 F3600 X81.022 Y135.469
G1 F750 X81.529 Y135.976 E56.96499
G1 X81.591 Y136.038
G1 F1800 E55.96499
;MESH:NONMESH
G0 F600 X81.591 Y136.038 Z0.4
G0 F3600 X81.591 Y137.665
G0 X79.347 Y137.653
G0 X79.335 Y117.525
G0 X80.525 Y117.525
;TIME_ELAPSED:163.107858
;LAYER:1
M106 S127.5
;TYPE:WALL-INNER
;MESH:20x20x20.stl
G1 F1800 E56.96499
G1 F1125 X99.475 Y117.525 E57.51649
G1 X99.475 Y136.475 E58.06798
G1 X80.525 Y136.475 E58.61948
G1 X80.525 Y117.525 E59.17097
G0 F5400 X80.175 Y117.175
;TYPE:WALL-OUTER
G1 F750 X99.825 Y117.175 E59.74284
G1 X99.825 Y136.825 E60.31471
G1 X80.175 Y136.825 E60.88657
G1 X80.175 Y117.175 E61.45844
G0 F5400 X80.35 Y117.175
G0 X80.865 Y117.865
;TYPE:SKIN
G1 F750 X99.135 Y117.865 E61.99014
G1 X99.135 Y136.135 E62.52185
G1 X80.865 Y136.135 E63.05355
G1 X80.865 Y117.865 E63.58526
G0 F5400 X81.022 Y118.452
G1 F750 X81.453 Y118.021 E63.603
G0 F5400 X81.948 Y118.021
G1 F750 X81.022 Y118.947 E63.64111
G0 F5400 X81.022 Y119.442
G1 F750 X82.443 Y118.021 E63.69959
G0 F5400 X82.938 Y118.021
G1 F750 X81.022 Y119.937 E63.77845
G0 F5400 X81.022 Y120.432
G1 F750 X83.433 Y118.021 E63.87768
G0 F5400 X83.928 Y118.021
G1 F750 X81.022 Y120.927 E63.99728
G0 F5400 X81.022 Y121.422
G1 F750 X84.423 Y118.021 E64.13726
G0 F5400 X84.918 Y118.021
G1 F750 X81.022 Y121.917 E64.29761
G0 F5400 X81.022 Y122.412
G1 F750 X85.413 Y118.021 E64.47833
G0 F5400 X85.908 Y118.021
G1 F750 X81.022 Y122.907 E64.67943
G0 F5400 X81.022 Y123.402
G1 F750 X86.403 Y118.021 E64.90089
G0 F5400 X86.898 Y118.021
G1 F750 X81.022 Y123.897 E65.14273
G0 F5400 X81.022 Y124.392
G1 F750 X87.393 Y118.021 E65.40495
G0 F5400 X87.888 Y118.021
G1 F750 X81.022 Y124.887 E65.68753
G0 F5400 X81.022 Y125.382
G1 F750 X88.383 Y118.021 E65.99049
G0 F5400 X88.878 Y118.021
G1 F750 X81.022 Y125.877 E66.31382
